src/luts/300_-_Rec709.3dl
# Created by Benjamin (IWLTBAP) : http://luts.iwltbap.com
# Copyright: (C) Copyright 2016 Triune Films and IWLTBAP
# Blockbuster LUTs Pack
0 256 512 768 1023
0 0 0
4 19 417
59 131 1066
124 268 1731
192 411 2415
103 567 27
155 622 530
253 740 1169
336 865 1825
416 999 2503
336 1320 147
386 1370 688
442 1431 1283
539 1547 1943
640 1680 2628
586 2108 325
628 2151 858
690 2215 1455
746 2278 2072
881 2438 2778
890 2979 529
945 3033 1068
1015 3108 1674
1093 3189 2310
1165 3275 2968
606 18 6
635 46 489
737 169 1124
815 300 1782
891 439 2459
651 595 36
795 724 623
918 849 1273
1023 974 1939
1134 1122 2630
866 1338 168
1009 1473 779
1078 1543 1387
1212 1681 2068
1388 1873 2807
1115 2127 348
1310 2320 982
1392 2401 1595
1472 2485 2236
1661 2690 2997
1458 3033 558
1692 3282 1225
1775 3366 1854
1859 3452 2515
1943 3541 3196
1363 85 30
1399 161 605
1432 238 1198
1533 357 1856
1621 484 2527
1378 714 93
1538 803 698
1581 904 1332
1709 1034 2003
1862 1198 2718
1468 1376 203
1631 1521 824
1820 1688 1510
2020 1879 2239
2216 2085 3008
1709 2168 381
1945 2389 1027
2167 2605 1747
2261 2699 2412
2459 2910 3207
2072 3094 593
2318 3352 1271
2540 3581 2036
2641 3672 2731
2739 3764 3433
2143 190 81
2196 269 701
2194 366 1316
2257 433 1934
2368 558 2609
2175 836 184
2332 909 789
2389 1015 1452
2439 1115 2082
2621 1290 2816
2196 1495 297
2474 1703 946
2663 1829 1624
2751 1977 2325
2943 2184 3108
2374 2238 429
2628 2470 1087
2858 2692 1817
3071 2912 2607
3270 3136 3437
2728 3164 636
2970 3422 1318
3199 3659 2120
3431 3888 2977
3535 3983 3678
2959 325 183
3030 396 799
3038 491 1444
3052 573 2059
3120 645 2696
3030 974 294
3180 1044 897
3283 1153 1581
3328 1306 2264
3400 1398 2924
3098 1705 418
3368 1880 1053
3526 1980 1742
3611 2150 2509
3677 2290 3209
3192 2428 544
3476 2697 1228
3713 2921 1987
3868 3069 2776
3965 3236 3541
3412 3247 686
3651 3500 1377
3874 3740 2204
4052 3962 3071
4095 4031 3848
