src/luts/300_-_Rec709.3dl
# Created by Benjamin (IWLTBAP) : http://luts.iwltbap.com
# Copyright: (C) Copyright 2016 Triune Films and IWLTBAP
# Blockbuster LUTs Pack
0 128 256 384 512 640 768 896 1023
0 0 0
0 5 173
4 19 417
27 59 736
59 131 1066
94 200 1397
124 268 1731
156 340 2071
192 411 2415
19 204 6
35 234 213
68 289 476
115 354 794
156 418 1114
197 485 1443
232 550 1773
269 621 2109
302 691 2451
103 567 27
127 591 254
155 622 530
207 681 847
253 740 1169
295 801 1496
336 865 1825
378 932 2163
416 999 2503
220 939 69
241 962 320
269 993 608
296 1023 904
349 1081 1226
394 1138 1553
440 1201 1883
483 1264 2221
528 1328 2560
336 1320 147
357 1341 403
386 1370 688
415 1400 981
442 1431 1283
492 1489 1611
539 1547 1943
589 1612 2282
640 1680 2628
457 1711 233
478 1728 488
504 1756 769
533 1785 1061
560 1817 1365
591 1849 1672
641 1910 2008
695 1974 2349
755 2047 2697
586 2108 325
605 2128 581
628 2151 858
661 2184 1153
690 2215 1455
717 2246 1759
746 2278 2072
807 2349 2417
881 2438 2778
722 2521 420
741 2543 678
766 2568 956
800 2602 1248
837 2640 1555
873 2678 1865
907 2715 2184
942 2756 2504
1022 2849 2871
890 2979 529
913 3004 788
945 3033 1068
979 3071 1365
1015 3108 1674
1056 3148 1990
1093 3189 2310
1130 3232 2636
1165 3275 2968
234 5 1
246 12 195
299 28 452
346 75 767
388 144 1089
428 213 1419
463 283 1752
499 351 2090
533 422 2434
250 211 9
335 287 225
398 351 534
451 411 849
498 473 1169
538 537 1498
581 604 1830
618 672 2166
661 747 2512
359 573 29
434 643 292
467 678 579
521 735 897
572 793 1222
623 858 1551
668 919 1883
716 991 2222
764 1063 2567
470 943 72
543 1013 367
574 1044 655
608 1078 952
660 1135 1277
712 1197 1609
763 1259 1944
815 1328 2282
872 1404 2633
588 1327 156
658 1393 450
689 1422 733
720 1455 1032
751 1490 1336
807 1549 1668
864 1615 2005
918 1678 2345
991 1766 2709
715 1718 244
783 1787 540
814 1818 822
844 1847 1117
876 1881 1422
910 1916 1733
972 1986 2074
1045 2067 2427
1132 2165 2801
845 2118 335
923 2198 636
955 2230 918
987 2261 1215
1023 2299 1521
1057 2335 1833
1095 2377 2153
1182 2471 2518
1272 2572 2895
989 2538 436
1097 2653 746
1132 2689 1031
1168 2725 1331
1208 2764 1641
1246 2804 1960
1286 2848 2283
1321 2891 2612
1415 2992 2992
1167 3004 542
1291 3139 867
1323 3171 1152
1360 3212 1455
1404 3253 1771
1442 3294 2093
1482 3336 2421
1521 3376 2754
1557 3419 3088
606 18 6
623 32 222
635 46 489
689 103 804
737 169 1124
777 233 1452
815 300 1782
855 367 2118
891 439 2459
613 277 16
696 322 254
712 374 558
770 435 873
820 493 1195
868 557 1524
910 620 1855
956 690 2194
1001 764 2535
651 595 36
729 663 309
795 724 623
857 784 947
918 849 1273
970 910 1605
1023 974 1939
1074 1045 2279
1134 1122 2630
752 958 85
825 1027 381
893 1089 697
929 1125 997
991 1187 1327
1051 1254 1663
1109 1319 2000
1182 1401 2354
1259 1490 2717
866 1338 168
937 1406 461
1009 1473 779
1044 1508 1079
1078 1543 1387
1139 1606 1720
1212 1681 2068
1300 1777 2432
1388 1873 2807
985 1727 253
1063 1798 553
1143 1876 874
1180 1913 1174
1218 1951 1481
1254 1990 1795
1337 2076 2150
1433 2176 2521
1523 2275 2902
1115 2127 348
1208 2220 653
1310 2320 982
1351 2360 1284
1392 2401 1595
1430 2440 1911
1472 2485 2236
1566 2587 2614
1661 2690 2997
1270 2559 447
1391 2681 763
1501 2797 1101
1545 2837 1408
1583 2878 1722
1625 2920 2046
1665 2962 2374
1707 3009 2709
1800 3112 3095
1458 3033 558
1585 3167 885
1692 3282 1225
1733 3324 1534
1775 3366 1854
1815 3407 2178
1859 3452 2515
1901 3497 2855
1943 3541 3196
985 44 16
1008 64 252
1005 108 547
1032 141 840
1084 200 1161
1129 261 1487
1174 324 1816
1217 391 2153
1256 458 2490
990 332 27
1068 369 291
1086 420 608
1104 465 906
1157 521 1226
1208 583 1555
1258 646 1886
1305 715 2225
1355 787 2568
991 645 52
1090 717 348
1160 760 657
1182 811 973
1242 873 1300
1302 935 1633
1357 1002 1969
1421 1075 2314
1493 1157 2672
1052 978 102
1129 1049 402
1203 1113 720
1276 1178 1046
1342 1243 1380
1412 1312 1719
1494 1397 2071
1584 1487 2438
1670 1583 2811
1156 1354 182
1235 1423 479
1309 1493 801
1387 1562 1130
1431 1605 1441
1512 1685 1788
1607 1779 2150
1705 1878 2526
1797 1980 2908
1276 1741 268
1356 1816 570
1449 1903 895
1547 1995 1236
1592 2037 1548
1634 2081 1867
1729 2177 2233
1827 2280 2614
1927 2388 3003
1405 2143 364
1507 2244 672
1623 2355 1005
1730 2458 1354
1777 2504 1672
1819 2544 1994
1860 2589 2323
1957 2694 2706
2057 2799 3098
1571 2589 466
1696 2713 782
1815 2832 1125
1920 2940 1479
1966 2985 1800
2006 3027 2129
2047 3070 2461
2090 3116 2799
2194 3227 3200
1758 3061 574
1893 3200 906
2002 3318 1248
2108 3430 1609
2153 3477 1937
2196 3518 2268
2244 3565 2613
2293 3610 2964
2338 3655 3312
1363 85 30
1400 106 292
1399 161 605
1405 206 898
1432 238 1198
1484 296 1525
1533 357 1856
1578 418 2189
1621 484 2527
1374 385 42
1445 419 330
1476 461 653
1477 518 961
1503 557 1264
1558 615 1589
1612 680 1923
1662 743 2260
1722 812 2604
1378 714 93
1474 766 385
1538 803 698
1562 854 1023
1581 904 1332
1645 965 1664
1709 1034 2003
1782 1112 2356
1862 1198 2718
1397 1030 147
1487 1106 445
1583 1172 765
1653 1218 1086
1678 1272 1408
1755 1346 1750
1849 1436 2112
1947 1532 2483
2040 1632 2861
1468 1376 203
1549 1446 504
1631 1521 824
1724 1600 1161
1820 1688 1510
1921 1785 1871
2020 1879 2239
2122 1982 2620
2216 2085 3008
1581 1763 287
1665 1839 591
1769 1932 917
1881 2034 1266
1990 2138 1624
2041 2186 1951
2138 2284 2325
2240 2389 2711
2335 2492 3105
1709 2168 381
1830 2279 695
1945 2389 1027
2059 2497 1382
2167 2605 1747
2215 2651 2076
2261 2699 2412
2363 2803 2805
2459 2910 3207
1887 2618 486
2012 2745 803
2130 2862 1146
2244 2976 1505
2350 3091 1880
2402 3138 2217
2442 3180 2555
2491 3231 2901
2597 3336 3315
2072 3094 593
2206 3233 925
2318 3352 1271
2431 3471 1639
2540 3581 2036
2592 3628 2384
2641 3672 2731
2689 3719 3082
2739 3764 3433
1751 128 51
1797 160 335
1797 213 656
1791 262 958
1807 301 1257
1842 337 1563
1893 392 1893
1943 454 2228
1995 518 2568
1771 442 77
1831 474 373
1876 512 694
1882 570 1018
1883 621 1321
1915 655 1627
1971 714 1961
2028 779 2300
2093 852 2648
1769 773 135
1870 816 426
1928 852 740
1963 897 1070
1970 962 1391
1998 1003 1701
2066 1069 2041
2149 1150 2394
2240 1242 2767
1779 1099 194
1890 1173 495
1984 1226 807
2052 1269 1132
2087 1333 1473
2119 1392 1793
2214 1479 2152
2313 1578 2528
2406 1675 2907
1821 1431 249
1910 1508 552
2027 1600 884
2145 1690 1222
2238 1756 1565
2285 1834 1914
2383 1928 2281
2484 2031 2669
2579 2133 3057
1898 1788 311
1993 1869 616
2114 1976 951
2229 2079 1298
2343 2188 1665
2452 2289 2035
2547 2385 2412
2651 2495 2811
2748 2604 3215
2036 2201 402
2161 2313 718
2281 2425 1054
2395 2536 1410
2508 2647 1781
2615 2752 2162
2667 2805 2504
2767 2914 2909
2870 3029 3323
2212 2655 506
2339 2780 828
2461 2900 1172
2574 3013 1533
2689 3132 1915
2795 3243 2317
2845 3295 2668
2895 3341 3020
2999 3449 3435
2398 3130 614
2528 3267 947
2642 3386 1296
2754 3504 1664
2870 3622 2078
2987 3736 2505
3039 3785 2858
3092 3828 3210
3140 3872 3557
2143 190 81
2194 218 376
2196 269 701
2200 320 1017
2194 366 1316
2223 400 1623
2257 433 1934
2312 492 2269
2368 558 2609
2174 501 123
2223 531 417
2280 566 737
2288 621 1070
2290 679 1383
2305 722 1688
2334 754 2000
2397 819 2342
2472 895 2693
2175 836 184
2278 874 474
2332 909 789
2377 950 1116
2389 1015 1452
2398 1075 1766
2439 1115 2082
2530 1200 2446
2621 1290 2816
2186 1170 246
2305 1241 545
2405 1289 856
2469 1331 1184
2520 1394 1533
2549 1482 1874
2592 1532 2201
2688 1625 2574
2786 1725 2956
2196 1495 297
2339 1603 615
2474 1703 946
2587 1776 1277
2663 1829 1624
2710 1908 1988
2751 1977 2325
2849 2077 2711
2943 2184 3108
2268 1851 359
2397 1962 677
2520 2072 1015
2651 2185 1369
2774 2291 1733
2864 2359 2097
2912 2439 2460
3010 2548 2861
3106 2658 3268
2374 2238 429
2506 2358 748
2628 2470 1087
2744 2581 1445
2858 2692 1817
2972 2804 2207
3071 2912 2607
3172 3023 3019
3270 3136 3437
2547 2692 528
2678 2820 852
2798 2940 1198
2911 3051 1563
3026 3172 1948
3138 3288 2360
3242 3398 2779
3291 3448 3134
3398 3561 3556
2728 3164 636
2861 3303 970
2970 3422 1318
3084 3540 1694
3199 3659 2120
3319 3779 2552
3431 3888 2977
3484 3936 3328
3535 3983 3678
2545 257 128
2595 283 424
2608 329 749
2612 378 1070
2613 425 1384
2619 472 1685
2650 504 1996
2683 537 2312
2742 599 2652
2584 568 175
2634 598 469
2690 632 788
2711 682 1121
2714 735 1446
2712 789 1758
2739 827 2067
2770 864 2381
2861 946 2745
2595 903 234
2688 935 524
2749 973 840
2806 1013 1171
2828 1078 1515
2849 1155 1852
2874 1213 2171
2917 1253 2495
3012 1342 2871
2611 1246 299
2742 1316 600
2842 1363 909
2908 1409 1242
2968 1463 1592
2999 1555 1955
3026 1636 2291
3067 1677 2622
3161 1772 3005
2635 1594 360
2794 1711 674
2921 1797 999
3029 1853 1332
3097 1905 1683
3145 1972 2051
3177 2069 2418
3221 2128 2758
3310 2232 3154
2673 1940 419
2834 2077 744
2979 2196 1085
3103 2297 1436
3212 2375 1788
3284 2434 2161
3331 2522 2553
3369 2597 2910
3460 2708 3318
2779 2329 485
2914 2455 809
3037 2573 1155
3155 2683 1519
3282 2807 1900
3396 2919 2298
3473 2989 2687
3522 3074 3075
3618 3188 3490
2892 2736 556
3027 2865 883
3146 2984 1232
3258 3095 1594
3372 3216 1984
3480 3332 2407
3585 3445 2831
3693 3561 3258
3799 3672 3677
3067 3204 661
3200 3342 997
3308 3462 1348
3422 3581 1731
3535 3698 2158
3652 3818 2598
3767 3932 3026
3863 3992 3440
3916 4022 3789
2959 325 183
3008 353 475
3030 396 799
3036 442 1125
3038 491 1444
3037 537 1754
3052 573 2059
3088 610 2378
3120 645 2696
3002 639 230
3054 665 522
3111 702 841
3144 748 1174
3152 802 1510
3165 863 1836
3172 919 2150
3215 960 2473
3256 1002 2799
3030 974 294
3119 1008 578
3180 1044 897
3244 1086 1227
3283 1153 1581
3307 1231 1931
3328 1306 2264
3362 1359 2593
3400 1398 2924
3060 1334 356
3194 1398 651
3280 1441 963
3351 1489 1301
3414 1539 1652
3448 1626 2023
3477 1716 2383
3503 1783 2720
3548 1829 3059
3098 1705 418
3251 1810 730
3368 1880 1053
3460 1928 1384
3526 1980 1742
3581 2042 2117
3611 2150 2509
3637 2242 2866
3677 2290 3209
3135 2068 482
3298 2200 807
3429 2306 1147
3542 2388 1493
3635 2453 1850
3694 2516 2239
3737 2594 2637
3776 2704 3025
3813 2762 3371
3192 2428 544
3339 2569 878
3476 2697 1228
3602 2815 1597
3713 2921 1987
3805 3006 2386
3868 3069 2776
3922 3166 3185
3965 3236 3541
3303 2834 616
3436 2971 951
3549 3085 1302
3659 3202 1677
3770 3321 2095
3892 3452 2528
3993 3562 2946
4043 3636 3340
4070 3711 3725
3412 3247 686
3542 3387 1024
3651 3500 1377
3761 3619 1770
3874 3740 2204
3988 3861 2641
4052 3962 3071
4090 4009 3484
4095 4031 3848
