src/luts/300_-_Rec709.3dl
# Created by Benjamin (IWLTBAP) : http://luts.iwltbap.com
# Copyright: (C) Copyright 2016 Triune Films and IWLTBAP
# Blockbuster LUTs Pack
0 64 128 192 256 320 384 448 512 576 640 704 768 832 896 960 1023
0 0 0
0 3 68
0 5 173
0 11 289
4 19 417
15 30 575
27 59 736
40 95 901
59 131 1066
75 164 1231
94 200 1397
108 233 1563
124 268 1731
139 303 1901
156 340 2071
175 375 2242
192 411 2415
8 82 3
14 96 86
16 101 194
19 115 319
30 137 452
45 166 604
68 200 766
89 235 927
108 271 1089
125 303 1250
144 337 1417
163 372 1584
179 404 1750
192 441 1919
214 478 2090
232 514 2262
245 549 2431
19 204 6
30 224 96
35 234 213
45 263 338
68 289 476
90 322 633
115 354 794
138 387 953
156 418 1114
178 451 1275
197 485 1443
217 518 1606
232 550 1773
250 585 1942
269 621 2109
286 656 2282
302 691 2451
47 380 16
60 397 114
71 411 233
84 427 361
111 453 503
134 484 661
159 515 818
182 542 978
205 574 1140
229 609 1306
248 640 1470
265 671 1630
287 703 1799
302 736 1966
322 771 2133
341 809 2305
361 842 2474
103 567 27
115 582 134
127 591 254
140 607 385
155 622 530
181 653 688
207 681 847
230 709 1006
253 740 1169
273 768 1331
295 801 1496
314 832 1661
336 865 1825
357 898 1994
378 932 2163
400 966 2335
416 999 2503
160 752 44
170 764 155
184 777 283
197 792 425
211 806 567
226 823 715
250 850 875
277 879 1035
300 908 1196
323 937 1359
345 969 1524
363 997 1687
387 1029 1854
409 1062 2022
431 1094 2192
453 1128 2363
471 1160 2530
220 939 69
231 952 189
241 962 320
256 978 462
269 993 608
283 1007 755
296 1023 904
322 1051 1064
349 1081 1226
368 1107 1387
394 1138 1553
415 1166 1716
440 1201 1883
461 1230 2050
483 1264 2221
506 1298 2391
528 1328 2560
276 1127 104
286 1140 230
297 1151 363
311 1164 501
327 1180 646
340 1194 792
354 1211 942
368 1227 1093
394 1254 1255
417 1282 1418
443 1312 1582
465 1340 1746
489 1371 1913
513 1403 2083
537 1438 2252
561 1468 2421
585 1503 2594
336 1320 147
347 1331 272
357 1341 403
370 1354 543
386 1370 688
400 1386 833
415 1400 981
428 1416 1132
442 1431 1283
466 1459 1446
492 1489 1611
515 1517 1777
539 1547 1943
565 1579 2114
589 1612 2282
615 1647 2455
640 1680 2628
395 1515 190
404 1521 312
414 1532 444
428 1546 583
445 1562 726
459 1577 874
472 1590 1020
485 1607 1171
501 1621 1322
516 1638 1475
541 1669 1640
564 1698 1806
591 1729 1976
617 1760 2146
644 1793 2314
668 1824 2488
692 1859 2659
457 1711 233
466 1718 356
478 1728 488
488 1740 625
504 1756 769
519 1770 915
533 1785 1061
546 1800 1213
560 1817 1365
576 1831 1518
591 1849 1672
615 1879 1839
641 1910 2008
669 1942 2178
695 1974 2349
726 2011 2522
755 2047 2697
521 1907 278
528 1916 403
539 1925 531
550 1937 668
564 1952 811
581 1967 958
596 1981 1106
610 1999 1257
623 2013 1410
637 2028 1560
651 2043 1713
668 2063 1873
692 2093 2041
721 2127 2209
753 2162 2383
784 2200 2559
816 2236 2734
586 2108 325
594 2115 449
605 2128 581
615 2137 715
628 2151 858
644 2169 1003
661 2184 1153
675 2199 1301
690 2215 1455
702 2230 1604
717 2246 1759
731 2262 1916
746 2278 2072
773 2311 2242
807 2349 2417
845 2395 2598
881 2438 2778
653 2315 371
659 2320 497
672 2332 629
682 2344 761
698 2361 905
710 2374 1050
727 2389 1198
744 2407 1350
759 2423 1502
776 2440 1656
791 2455 1810
807 2475 1965
821 2491 2123
837 2510 2284
874 2553 2460
915 2599 2645
951 2643 2826
722 2521 420
731 2530 547
741 2543 678
751 2552 814
766 2568 956
783 2586 1101
800 2602 1248
819 2622 1400
837 2640 1555
853 2658 1711
873 2678 1865
890 2697 2023
907 2715 2184
923 2737 2345
942 2756 2504
980 2800 2688
1022 2849 2871
809 2753 477
817 2762 601
828 2773 734
840 2785 870
857 2802 1012
874 2819 1158
888 2836 1308
907 2851 1457
926 2874 1614
944 2893 1770
961 2911 1926
981 2933 2087
999 2952 2246
1017 2971 2407
1036 2993 2572
1052 3014 2733
1092 3058 2919
890 2979 529
903 2991 656
913 3004 788
927 3018 926
945 3033 1068
962 3050 1214
979 3071 1365
996 3089 1515
1015 3108 1674
1036 3128 1831
1056 3148 1990
1074 3171 2150
1093 3189 2310
1110 3209 2472
1130 3232 2636
1147 3252 2801
1165 3275 2968
73 3 0
91 5 77
96 8 183
112 14 305
136 23 437
156 35 591
178 65 753
197 100 913
220 138 1076
238 171 1240
257 206 1406
271 240 1572
291 275 1741
306 309 1909
326 345 2082
341 380 2251
358 418 2424
87 82 3
113 96 87
140 106 199
167 133 326
196 168 482
221 198 637
243 231 796
263 263 957
283 297 1119
304 330 1281
321 364 1444
340 397 1609
357 432 1778
374 468 1947
393 502 2117
410 540 2289
428 577 2461
111 204 8
155 246 99
173 260 217
199 291 351
231 323 506
255 350 661
281 382 821
305 415 982
322 443 1142
344 479 1305
365 511 1468
385 544 1635
404 580 1802
420 613 1969
441 649 2139
458 684 2311
479 718 2483
166 382 16
209 425 116
226 438 240
239 453 373
265 481 528
293 512 687
319 541 847
344 575 1009
367 602 1167
390 635 1333
411 670 1497
432 702 1665
453 733 1829
469 765 1994
491 803 2164
514 838 2338
532 874 2508
227 568 28
265 607 138
279 620 270
295 635 411
311 654 557
334 678 712
363 712 874
388 741 1035
412 768 1196
436 800 1358
458 830 1525
479 862 1689
501 893 1856
521 926 2023
545 961 2193
567 997 2366
587 1032 2537
284 753 46
318 789 173
334 802 307
349 818 448
364 834 592
377 850 739
406 879 901
433 908 1063
455 937 1224
482 967 1388
504 998 1551
527 1030 1719
550 1061 1886
572 1094 2054
595 1125 2222
617 1158 2395
644 1198 2568
341 942 70
377 977 212
390 988 347
405 1004 488
421 1020 631
434 1033 776
450 1052 929
475 1082 1090
500 1108 1252
527 1140 1415
549 1168 1580
574 1199 1747
599 1231 1913
624 1265 2085
647 1295 2253
671 1331 2425
697 1367 2596
402 1133 108
434 1166 253
450 1179 389
461 1192 528
478 1207 671
491 1221 816
506 1238 967
521 1255 1118
547 1284 1280
574 1314 1444
599 1344 1610
625 1375 1777
647 1404 1945
674 1437 2114
696 1468 2282
725 1504 2454
755 1542 2630
463 1324 152
496 1358 294
508 1369 427
522 1382 567
534 1396 711
548 1411 857
565 1428 1006
581 1444 1158
596 1462 1309
621 1489 1473
648 1522 1642
672 1552 1807
698 1581 1974
726 1616 2146
752 1647 2316
780 1683 2490
806 1718 2662
522 1516 193
556 1551 339
568 1563 471
583 1577 610
597 1592 753
610 1606 898
626 1623 1048
641 1636 1200
656 1654 1351
671 1672 1505
697 1700 1671
723 1731 1838
750 1763 2006
776 1796 2177
806 1828 2348
838 1866 2523
875 1911 2708
585 1715 238
618 1748 384
631 1759 515
644 1772 653
659 1787 796
672 1803 944
691 1819 1092
705 1834 1244
717 1849 1395
732 1867 1548
746 1883 1702
772 1912 1870
802 1947 2038
832 1981 2211
865 2018 2387
901 2060 2566
940 2103 2749
649 1912 284
681 1947 429
694 1956 562
707 1971 699
721 1985 839
736 2002 988
752 2017 1136
768 2032 1287
784 2049 1441
798 2065 1594
811 2080 1747
825 2098 1901
857 2132 2073
889 2166 2245
922 2207 2423
964 2253 2607
1009 2305 2793
713 2111 329
747 2148 477
761 2160 610
771 2173 746
787 2189 888
803 2204 1035
820 2222 1184
835 2238 1335
849 2252 1487
867 2273 1641
881 2285 1794
897 2303 1949
913 2324 2109
947 2360 2282
990 2409 2465
1036 2460 2652
1078 2510 2841
779 2316 378
817 2356 526
833 2372 661
846 2385 796
862 2402 938
878 2419 1086
897 2436 1236
915 2456 1387
932 2474 1540
948 2492 1696
964 2509 1853
984 2530 2011
1000 2547 2167
1019 2568 2330
1060 2615 2512
1104 2665 2697
1148 2717 2888
848 2526 426
902 2583 582
917 2598 715
933 2612 851
946 2627 993
965 2647 1143
984 2667 1294
1002 2683 1444
1022 2704 1600
1041 2726 1758
1058 2746 1917
1076 2764 2072
1097 2785 2234
1114 2804 2395
1132 2824 2557
1175 2875 2744
1221 2929 2938
940 2761 482
995 2820 635
1012 2835 772
1026 2851 911
1042 2867 1054
1059 2885 1200
1078 2902 1352
1095 2921 1503
1114 2942 1660
1138 2965 1820
1155 2983 1979
1173 3005 2140
1191 3022 2301
1208 3042 2462
1226 3063 2624
1248 3086 2790
1294 3137 2984
1026 2991 535
1093 3065 694
1110 3079 831
1118 3091 971
1135 3106 1113
1156 3127 1263
1173 3146 1415
1192 3164 1567
1211 3184 1725
1230 3205 1882
1252 3226 2043
1270 3247 2205
1290 3269 2370
1308 3289 2533
1328 3311 2699
1345 3331 2864
1366 3353 3033
234 5 1
246 9 83
246 12 195
273 20 318
299 28 452
323 45 609
346 75 767
367 109 929
388 144 1089
406 176 1253
428 213 1419
445 246 1585
463 283 1752
481 317 1919
499 351 2090
516 387 2262
533 422 2434
241 89 5
288 103 91
292 116 208
323 144 340
352 178 495
375 208 649
401 242 810
424 274 971
444 305 1129
462 337 1291
480 369 1455
502 405 1623
522 440 1789
538 473 1958
557 508 2128
579 545 2301
595 583 2473
250 211 9
306 259 104
335 287 225
366 317 373
398 351 534
425 380 690
451 411 849
474 442 1009
498 473 1169
518 505 1332
538 537 1498
559 570 1661
581 604 1830
599 639 1999
618 672 2166
642 708 2339
661 747 2512
304 391 17
346 430 119
383 464 254
398 480 397
430 511 554
459 541 713
486 573 873
509 602 1033
535 633 1197
558 663 1360
581 695 1524
602 726 1690
623 760 1856
644 794 2024
664 827 2192
690 863 2366
710 901 2538
359 573 29
398 610 139
434 643 292
451 662 433
467 678 579
494 703 736
521 735 897
548 765 1060
572 793 1222
601 829 1388
623 858 1551
645 890 1717
668 919 1883
691 953 2050
716 991 2222
739 1027 2394
764 1063 2567
415 756 47
452 794 177
487 825 328
501 842 470
519 859 616
536 874 764
562 904 922
588 934 1085
617 963 1251
642 994 1413
667 1024 1579
692 1058 1745
714 1087 1911
743 1123 2084
765 1155 2250
789 1190 2425
812 1227 2597
470 943 72
512 984 219
543 1013 367
558 1028 508
574 1044 655
591 1060 804
608 1078 952
632 1105 1113
660 1135 1277
687 1166 1443
712 1197 1609
738 1228 1773
763 1259 1944
788 1294 2113
815 1328 2282
843 1363 2459
872 1404 2633
529 1136 115
568 1170 260
600 1203 409
617 1217 549
634 1232 694
647 1248 842
662 1264 991
676 1279 1142
704 1310 1305
732 1341 1472
760 1372 1638
786 1405 1804
810 1433 1972
841 1469 2144
864 1502 2314
896 1541 2490
930 1584 2670
588 1327 156
627 1362 300
658 1393 450
677 1409 593
689 1422 733
705 1439 881
720 1455 1032
735 1471 1182
751 1490 1336
780 1520 1501
807 1549 1668
834 1582 1836
864 1615 2005
891 1645 2173
918 1678 2345
954 1724 2527
991 1766 2709
651 1520 199
688 1557 344
720 1589 495
737 1605 636
752 1618 779
768 1635 925
782 1651 1074
797 1668 1226
811 1681 1377
829 1700 1533
855 1729 1699
884 1762 1867
915 1797 2036
944 1829 2206
979 1870 2385
1021 1918 2568
1060 1964 2752
715 1718 244
751 1751 389
783 1787 540
798 1802 677
814 1818 822
829 1831 968
844 1847 1117
862 1865 1270
876 1881 1422
891 1896 1575
910 1916 1733
937 1948 1901
972 1986 2074
1007 2024 2249
1045 2067 2427
1087 2113 2611
1132 2165 2801
777 1916 288
812 1952 434
850 1988 586
865 2002 724
879 2017 867
892 2031 1014
911 2050 1164
929 2067 1317
945 2085 1470
960 2101 1625
978 2120 1778
996 2138 1938
1028 2175 2110
1068 2219 2290
1112 2268 2472
1157 2318 2659
1203 2368 2848
845 2118 335
879 2155 482
923 2198 636
936 2214 775
955 2230 918
969 2243 1064
987 2261 1215
1003 2279 1367
1023 2299 1521
1041 2317 1677
1057 2335 1833
1077 2355 1993
1095 2377 2153
1138 2423 2333
1182 2471 2518
1226 2522 2706
1272 2572 2895
914 2323 385
959 2371 536
1005 2421 690
1023 2436 831
1039 2453 976
1056 2471 1122
1077 2489 1272
1095 2509 1425
1113 2529 1581
1134 2549 1737
1151 2568 1896
1171 2588 2055
1189 2608 2216
1209 2633 2380
1251 2678 2562
1295 2730 2751
1342 2782 2943
989 2538 436
1044 2596 589
1097 2653 746
1119 2672 889
1132 2689 1031
1150 2705 1180
1168 2725 1331
1189 2743 1485
1208 2764 1641
1228 2787 1801
1246 2804 1960
1269 2827 2122
1286 2848 2283
1303 2867 2446
1321 2891 2612
1367 2940 2799
1415 2992 2992
1078 2771 489
1137 2834 645
1195 2891 806
1209 2911 946
1227 2925 1089
1248 2947 1241
1266 2966 1394
1284 2985 1549
1304 3007 1705
1326 3028 1865
1344 3047 2025
1361 3069 2188
1381 3090 2349
1403 3112 2515
1421 3133 2680
1440 3153 2848
1484 3206 3038
1167 3004 542
1235 3080 706
1291 3139 867
1310 3158 1009
1323 3171 1152
1341 3191 1302
1360 3212 1455
1381 3229 1610
1404 3253 1771
1420 3271 1930
1442 3294 2093
1461 3314 2257
1482 3336 2421
1502 3357 2586
1521 3376 2754
1541 3402 2922
1557 3419 3088
421 10 5
444 17 93
428 20 208
441 27 333
468 36 470
495 58 627
519 90 786
544 123 948
565 157 1108
580 188 1269
603 223 1434
619 254 1598
637 289 1765
657 325 1935
675 359 2101
691 395 2275
709 431 2446
427 100 7
472 117 99
477 138 221
482 160 353
513 193 510
538 221 665
563 252 823
588 283 984
610 315 1145
630 347 1307
649 379 1470
672 414 1638
690 447 1802
707 479 1969
730 515 2140
747 552 2311
