src/luts/Breaking_Bad_-_Rec709.3dl
# Created by Benjamin (IWLTBAP) : http://luts.iwltbap.com
# Copyright: (C) Copyright 2016 Triune Films and IWLTBAP
# Blockbuster LUTs Pack
0 128 256 384 512 640 768 896 1023
33 51 50
63 85 231
116 154 480
110 206 757
127 231 988
160 259 1179
196 289 1367
215 302 1511
230 317 1645
64 231 96
72 236 244
123 307 482
150 399 810
175 440 1082
220 500 1340
256 556 1576
279 572 1747
294 572 1877
104 447 166
110 460 320
139 488 520
188 581 832
215 650 1130
265 730 1417
304 791 1676
349 859 1940
371 877 2104
189 726 266
187 727 412
210 780 669
227 820 924
274 906 1239
318 981 1526
362 1052 1790
410 1153 2060
446 1218 2287
254 1015 357
251 1019 493
271 1062 745
318 1153 1098
344 1196 1373
384 1261 1639
427 1336 1900
471 1424 2167
527 1539 2462
354 1336 475
354 1350 604
358 1351 820
409 1476 1221
426 1529 1533
462 1579 1777
501 1639 2030
536 1697 2277
595 1813 2575
452 1634 573
450 1642 689
444 1622 901
494 1767 1283
525 1853 1688
553 1911 1955
582 1952 2179
611 1995 2410
652 2069 2669
551 1948 678
544 1936 789
537 1922 969
575 2048 1370
626 2179 1813
658 2256 2127
678 2295 2350
699 2321 2555
729 2364 2785
657 2288 800
658 2288 895
630 2234 1043
631 2233 1312
706 2443 1860
749 2563 2252
777 2641 2534
797 2674 2747
824 2704 2948
251 100 87
217 92 247
252 158 519
252 189 757
263 204 975
278 241 1154
297 269 1315
310 286 1458
323 300 1598
223 292 103
262 307 309
315 418 669
337 509 1111
377 581 1448
402 612 1675
437 648 1911
449 649 2037
474 691 2218
252 519 179
280 558 376
320 633 682
361 779 1095
410 887 1454
460 988 1759
494 1042 2010
515 1074 2209
545 1119 2414
326 796 276
349 869 454
368 941 796
399 1016 1140
453 1144 1503
509 1255 1827
554 1344 2105
587 1408 2346
624 1472 2582
385 1098 371
431 1198 528
434 1241 871
475 1357 1296
500 1391 1566
548 1482 1865
590 1557 2143
634 1649 2411
680 1744 2674
478 1394 474
520 1501 618
513 1530 872
553 1647 1373
578 1712 1706
603 1742 1948
640 1797 2203
681 1879 2471
731 1984 2751
583 1725 586
634 1794 698
605 1843 946
623 1916 1392
679 2054 1848
690 2073 2098
707 2079 2299
736 2133 2541
784 2219 2818
686 2025 679
817 2122 793
693 2138 993
707 2215 1417
771 2378 1945
790 2429 2274
796 2421 2479
817 2438 2676
856 2503 2926
827 2363 782
972 2467 905
797 2456 1062
803 2527 1436
850 2672 2005
888 2771 2407
906 2807 2672
918 2823 2872
933 2825 3059
711 204 185
666 190 329
500 160 507
482 189 757
438 215 1026
438 272 1309
446 291 1461
449 299 1554
458 315 1679
633 394 182
823 440 404
776 432 734
717 477 1126
632 533 1436
555 529 1643
558 561 1882
562 577 2037
587 623 2265
566 655 210
702 705 384
780 862 897
727 969 1347
751 1097 1783
767 1180 2137
753 1203 2405
768 1243 2660
777 1311 2872
586 929 296
677 991 450
787 1172 930
707 1266 1360
750 1370 1740
765 1479 2098
779 1572 2394
798 1631 2680
840 1760 2966
642 1231 372
764 1299 500
814 1463 917
781 1584 1424
779 1637 1755
810 1732 2088
816 1834 2403
849 1934 2716
888 2023 2994
724 1532 472
852 1598 595
828 1696 870
817 1875 1469
839 1963 1869
830 1974 2133
835 2040 2413
888 2164 2748
929 2246 3021
872 1875 586
992 1934 698
1008 2045 937
855 2150 1431
888 2302 1997
889 2306 2263
879 2285 2470
926 2387 2780
966 2476 3062
972 2167 678
1130 2267 806
1186 2360 997
927 2460 1475
944 2590 2019
962 2684 2423
961 2669 2650
972 2642 2847
1015 2721 3118
1106 2499 792
1271 2609 918
1231 2661 1107
988 2738 1475
1019 2899 2081
1060 3018 2548
1079 3045 2827
1086 3047 3049
1091 3018 3229
1352 332 305
1315 319 449
1047 244 578
882 211 727
848 228 1053
777 281 1367
727 343 1628
651 366 1794
641 379 1933
1162 504 293
1563 635 576
1602 632 875
1380 483 1075
1221 470 1354
995 490 1560
906 529 1807
790 545 1958
756 581 2178
1153 772 325
1402 871 525
1581 1052 1024
1594 1060 1390
1551 1070 1763
1476 1060 2085
1330 1006 2294
1234 987 2541
1156 1071 2747
1132 1098 390
1290 1141 539
1373 1300 880
1527 1527 1572
1517 1659 1968
1479 1771 2324
1434 1854 2646
1345 1902 2921
1303 2013 3184
1107 1426 462
1271 1448 596
1277 1602 866
1519 1834 1594
1397 1905 1976
1399 2029 2333
1384 2134 2649
1320 2200 2941
1307 2321 3221
1109 1741 527
1247 1784 664
1296 1874 855
1459 2111 1602
1343 2206 2044
1360 2248 2326
1374 2351 2633
1316 2436 2946
1301 2540 3256
1197 2051 623
1311 2105 755
1363 2199 941
1437 2375 1561
1291 2522 2126
1330 2572 2431
1330 2564 2654
1316 2653 2955
1285 2745 3271
1282 2327 719
1390 2398 856
1455 2481 1019
1463 2652 1597
1291 2803 2150
1314 2897 2551
1305 2904 2797
1320 2894 2998
1312 2973 3311
1368 2638 831
1483 2714 958
1529 2803 1123
1437 2935 1633
1315 3119 2255
1353 3220 2646
1327 3251 2950
1327 3275 3204
1387 3274 3407
1942 483 436
1910 459 587
1660 384 711
1493 328 854
1386 299 1039
1436 333 1378
1421 378 1687
1343 412 1915
1181 424 2054
1735 646 432
2164 803 725
2187 776 1008
2036 645 1174
1863 557 1341
1669 517 1540
1559 524 1795
1471 543 1985
1390 589 2216
1675 913 451
1905 1036 670
2178 1264 1180
2228 1276 1503
2228 1114 1744
2137 976 2009
1960 856 2212
1805 827 2412
1673 902 2633
1695 1234 528
1834 1277 667
1968 1476 1051
2176 1708 1663
2198 1719 1992
2156 1739 2331
2107 1743 2606
2032 1743 2856
1917 1902 3128
1667 1561 598
1815 1576 718
1835 1708 933
2015 1959 1554
2161 2137 2146
2105 2244 2466
2087 2322 2775
2050 2382 3055
1989 2533 3341
1575 1851 645
1736 1914 779
1776 1973 925
1825 2236 1511
2056 2395 2162
2072 2461 2464
2046 2558 2777
2002 2638 3076
1983 2764 3371
1535 2178 719
1704 2238 855
1661 2294 987
1762 2502 1471
2035 2685 2220
1972 2746 2539
1975 2782 2797
1950 2860 3096
1911 2965 3395
1507 2509 802
1620 2545 919
1657 2588 1050
1792 2765 1469
2000 2985 2296
1898 3048 2631
1885 3098 2918
1860 3101 3145
1869 3185 3440
1560 2790 886
1664 2843 1003
1743 2893 1141
1850 3080 1529
1881 3281 2421
1872 3374 2796
1872 3427 3062
1809 3448 3313
1890 3473 3533
2450 611 572
2400 586 693
2229 522 836
2085 480 992
2004 452 1167
2018 461 1415
2125 508 1740
2074 500 1967
1999 494 2109
2264 838 571
2620 930 823
2670 901 1098
2539 793 1283
2392 695 1409
2243 645 1546
2220 634 1823
2140 617 2003
2087 621 2198
2131 1034 581
2402 1234 822
2628 1424 1301
2688 1395 1599
2658 1244 1804
2618 1040 1962
2534 905 2171
2395 832 2308
2331 872 2563
2122 1332 629
2289 1450 784
2403 1647 1178
2641 1881 1767
2685 1888 2075
2656 1789 2301
2598 1670 2557
2526 1531 2779
2476 1683 3068
2097 1641 688
2242 1698 816
2268 1859 1052
2469 2121 1674
2622 2285 2219
2620 2282 2488
2611 2291 2785
2544 2356 3070
2563 2506 3335
2027 1956 740
2155 2018 864
2209 2097 1015
2292 2321 1520
2474 2509 2152
2617 2633 2623
2632 2725 2911
2643 2825 3202
2712 2968 3490
1970 2282 809
2081 2321 926
2103 2397 1074
2125 2581 1449
2374 2788 2140
2602 2898 2659
2599 2953 2937
2620 3048 3235
2713 3181 3532
1914 2626 886
1999 2633 988
2032 2681 1116
2008 2860 1422
2358 3065 2152
2619 3205 2759
2557 3249 3043
2508 3268 3274
2649 3370 3565
1811 2915 942
1908 2953 1056
1930 3011 1181
2039 3129 1464
2449 3334 2244
2626 3523 2963
2604 3558 3202
2523 3589 3424
2591 3624 3640
2874 721 671
2791 672 787
2664 634 932
2541 593 1093
2442 564 1267
2433 569 1485
2438 581 1728
2480 592 1983
2476 594 2143
2721 986 694
2982 1031 903
3029 948 1155
2934 881 1359
2807 806 1522
2650 746 1638
2546 707 1802
2554 708 2021
2551 711 2218
2563 1201 684
2784 1353 902
2992 1497 1329
3069 1496 1647
3030 1383 1880
2980 1179 2031
2853 992 2135
2778 914 2285
2779 935 2532
2518 1455 722
2650 1569 882
2778 1773 1283
3031 1990 1858
3088 2005 2150
3061 1938 2371
3032 1797 2548
2996 1549 2711
2970 1621 2985
2451 1736 769
2557 1802 888
2619 1982 1184
2840 2268 1799
3036 2416 2299
3069 2410 2545
3062 2365 2769
3009 2315 3040
3030 2434 3306
2376 2038 812
2476 2086 929
2518 2226 1128
2682 2459 1671
2898 2653 2268
3041 2767 2690
3056 2762 2929
3055 2833 3205
3070 2964 3485
2280 2328 864
2360 2366 973
2415 2480 1130
2539 2694 1564
2737 2847 2144
2914 3009 2651
3110 3146 3082
3169 3240 3371
3249 3359 3637
2210 2669 939
2294 2681 1043
2344 2745 1170
2399 2939 1493
2549 3139 2068
2864 3277 2680
3117 3390 3154
3096 3420 3395
3223 3540 3670
2116 2989 1006
2202 3037 1122
2238 3103 1246
2272 3229 1525
2595 3402 2175
2991 3557 2932
3173 3682 3307
3192 3714 3516
3188 3745 3724
3196 803 755
3073 742 868
2946 705 1017
2783 647 1135
2711 629 1328
2664 623 1529
2667 629 1766
2672 631 1985
2666 633 2153
3091 1080 791
3291 1119 978
3329 994 1200
3235 943 1436
3081 874 1595
2933 808 1729
2783 756 1857
2727 739 2032
2786 764 2246
2927 1317 790
3096 1402 957
3295 1575 1358
3396 1568 1685
3359 1511 1945
3301 1287 2095
3170 1096 2196
3015 976 2303
3062 1041 2547
2831 1555 808
2969 1665 957
3115 1878 1328
3326 2062 1854
3412 2083 2166
3400 2060 2418
3360 1939 2595
3272 1698 2736
3286 1757 2978
2748 1831 840
2867 1911 971
2945 2096 1245
3161 2313 1781
3361 2482 2299
3442 2487 2590
3421 2489 2838
3400 2429 3031
3393 2529 3299
2664 2119 878
2752 2164 993
2834 2328 1220
3017 2535 1716
3222 2733 2264
3412 2863 2731
3453 2886 3000
3425 2893 3215
3424 2995 3480
2572 2421 931
2645 2441 1032
2738 2572 1206
2886 2783 1664
3101 2961 2201
3288 3102 2705
3468 3213 3144
3466 3258 3380
3505 3362 3631
2488 2702 987
2553 2734 1092
2612 2823 1224
2751 3030 1585
2951 3224 2138
3149 3331 2669
3344 3432 3111
3548 3577 3529
3643 3679 3774
2397 3027 1055
2473 3100 1173
2557 3187 1322
2623 3311 1593
2801 3452 2165
3100 3579 2812
3402 3714 3299
3592 3796 3604
3611 3816 3777
3458 864 824
3318 804 934
3181 758 1074
2979 691 1170
2929 682 1379
2853 664 1569
2842 663 1798
2838 664 2005
2838 667 2168
3390 1139 857
3549 1211 1067
3559 1052 1239
3481 1008 1481
3337 952 1641
3213 895 1817
3069 827 1951
3009 811 2138
2993 810 2293
3243 1433 875
3401 1539 1063
3566 1677 1449
3653 1661 1766
3614 1622 2012
3535 1456 2181
3436 1281 2333
3329 1151 2471
3287 1156 2656
3129 1648 885
3292 1758 1037
3403 1971 1404
3593 2151 1891
3680 2145 2182
3657 2134 2428
3612 2108 2667
3549 1982 2859
3511 1951 3057
3037 1904 913
3170 1983 1047
3284 2179 1321
3477 2419 1883
3636 2572 2366
3707 2558 2611
3677 2580 2874
3644 2623 3136
3620 2609 3328
2948 2180 948
3057 2237 1070
3165 2378 1269
3335 2598 1747
3534 2799 2315
3669 2945 2783
3719 2971 3046
3680 3019 3306
3661 3064 3523
2845 2468 985
2943 2491 1094
3052 2627 1279
3214 2830 1699
3400 3018 2213
3581 3176 2747
3712 3286 3189
3739 3342 3460
3719 3385 3647
2757 2756 1034
2841 2804 1143
2942 2922 1314
3080 3106 1701
3285 3282 2226
3483 3389 2723
3639 3479 3150
3787 3629 3579
3798 3662 3770
2660 3084 1103
2730 3152 1220
2817 3251 1389
2950 3396 1732
3179 3502 2304
3385 3612 2825
3579 3711 3236
3704 3778 3532
3829 3865 3819
