src/luts/Breaking_Bad_-_Rec709.3dl
# Created by Benjamin (IWLTBAP) : http://luts.iwltbap.com
# Copyright: (C) Copyright 2016 Triune Films and IWLTBAP
# Blockbuster LUTs Pack
0 64 128 192 256 320 384 448 512 576 640 704 768 832 896 960 1023
33 51 50
45 62 131
63 85 231
87 115 348
116 154 480
121 187 623
110 206 757
115 220 883
127 231 988
144 245 1091
160 259 1179
177 274 1270
196 289 1367
207 296 1444
215 302 1511
220 306 1571
230 317 1645
48 138 72
49 137 138
66 158 231
90 192 352
121 228 471
137 274 623
132 303 768
131 319 902
144 330 1021
170 349 1142
195 367 1253
209 386 1355
220 395 1440
229 397 1511
240 409 1599
249 412 1663
261 431 1752
64 231 96
66 230 167
72 236 244
96 270 362
123 307 482
147 360 641
150 399 810
157 421 955
175 440 1082
201 468 1212
220 500 1340
239 533 1466
256 556 1576
269 567 1668
279 572 1747
285 568 1806
294 572 1877
87 332 129
90 331 199
94 344 283
101 356 378
126 390 493
162 445 652
170 488 822
174 516 969
195 547 1111
223 585 1255
241 613 1380
258 641 1502
280 673 1633
303 705 1767
319 719 1868
323 712 1925
330 710 1989
104 447 166
110 446 236
110 460 320
115 471 414
139 488 520
178 535 670
188 581 832
192 615 983
215 650 1130
245 695 1283
265 730 1417
281 758 1542
304 791 1676
328 826 1817
349 859 1940
363 880 2036
371 877 2104
142 578 214
140 575 277
145 587 362
156 603 466
177 625 591
196 653 720
207 692 869
216 726 1018
244 773 1180
271 818 1333
288 852 1464
309 883 1594
333 921 1733
355 960 1867
375 997 1990
393 1031 2098
410 1058 2201
189 726 266
188 726 330
187 727 412
197 740 512
210 780 669
219 799 796
227 820 924
248 860 1075
274 906 1239
299 950 1394
318 981 1526
338 1009 1652
362 1052 1790
388 1107 1931
410 1153 2060
428 1186 2174
446 1218 2287
222 865 309
221 865 373
220 861 446
228 870 547
240 922 713
257 963 877
269 984 1003
285 1010 1148
307 1047 1303
328 1079 1448
351 1116 1588
370 1148 1712
395 1195 1849
419 1247 1987
442 1296 2123
465 1344 2257
485 1376 2375
254 1015 357
252 1017 420
251 1019 493
256 1018 588
271 1062 745
302 1120 941
318 1153 1098
329 1173 1239
344 1196 1373
362 1224 1506
384 1261 1639
406 1298 1770
427 1336 1900
448 1375 2029
471 1424 2167
501 1492 2325
527 1539 2462
300 1172 419
300 1176 478
298 1185 554
297 1177 643
311 1206 781
343 1266 983
367 1327 1190
372 1343 1329
384 1361 1453
400 1384 1573
421 1417 1701
443 1454 1834
465 1490 1965
483 1520 2089
502 1557 2219
534 1626 2378
565 1685 2528
354 1336 475
354 1341 532
354 1350 604
347 1333 697
358 1351 820
384 1411 1014
409 1476 1221
418 1511 1407
426 1529 1533
444 1553 1656
462 1579 1777
482 1609 1904
501 1639 2030
517 1664 2150
536 1697 2277
565 1754 2423
595 1813 2575
404 1484 522
403 1490 579
403 1497 644
398 1489 745
402 1489 866
424 1542 1038
451 1618 1244
464 1664 1450
476 1694 1619
490 1720 1745
507 1745 1865
523 1768 1982
540 1794 2103
556 1815 2219
573 1841 2339
595 1881 2470
623 1940 2621
452 1634 573
452 1638 629
450 1642 689
447 1639 783
444 1622 901
463 1680 1069
494 1767 1283
513 1824 1499
525 1853 1688
540 1886 1836
553 1911 1955
569 1935 2071
582 1952 2179
597 1972 2294
611 1995 2410
629 2026 2532
652 2069 2669
500 1785 622
500 1784 677
496 1785 736
492 1784 812
488 1765 929
503 1822 1109
539 1922 1341
565 1990 1570
576 2016 1751
592 2055 1914
605 2089 2047
617 2109 2160
630 2123 2264
641 2136 2366
653 2155 2481
669 2183 2599
686 2208 2720
551 1948 678
549 1938 726
544 1936 789
537 1928 854
537 1922 969
544 1956 1146
575 2048 1370
612 2143 1624
626 2179 1813
641 2216 1978
658 2256 2127
668 2281 2246
678 2295 2350
689 2310 2456
699 2321 2555
713 2344 2673
729 2364 2785
604 2115 739
604 2113 786
601 2113 843
592 2099 912
577 2062 988
579 2063 1136
599 2134 1337
644 2250 1619
672 2331 1871
688 2368 2043
705 2409 2192
719 2448 2331
726 2472 2451
736 2487 2558
748 2500 2657
760 2509 2752
776 2529 2863
657 2288 800
658 2288 846
658 2288 895
649 2278 964
630 2234 1043
620 2195 1129
631 2233 1312
668 2335 1570
706 2443 1860
735 2524 2101
749 2563 2252
764 2602 2395
777 2641 2534
786 2662 2649
797 2674 2747
810 2687 2848
824 2704 2948
122 70 63
118 68 137
134 83 238
156 108 351
178 153 503
180 174 625
183 191 757
192 204 872
196 220 971
208 234 1072
219 248 1156
230 261 1238
241 272 1319
249 278 1391
254 282 1456
257 285 1515
268 296 1593
119 160 73
130 159 157
153 183 264
184 220 401
202 272 572
200 305 749
220 338 924
239 360 1070
251 378 1181
264 397 1285
280 420 1406
290 430 1493
291 423 1530
294 422 1576
307 437 1673
325 456 1792
348 500 1925
136 252 97
149 256 185
157 268 277
178 303 398
213 360 559
221 414 744
226 450 921
247 488 1080
267 509 1197
281 527 1304
295 555 1427
313 581 1551
327 598 1651
332 595 1712
342 602 1796
350 603 1871
366 625 1975
154 351 131
164 369 216
168 376 307
179 396 415
216 451 569
242 521 767
248 574 955
272 621 1125
295 658 1270
315 694 1409
334 722 1538
352 748 1665
370 771 1788
385 792 1898
395 802 1983
399 788 2041
413 809 2134
175 466 170
187 497 256
187 496 344
197 516 457
229 552 598
255 616 779
266 674 967
291 733 1149
314 772 1301
336 811 1447
359 852 1590
379 884 1721
396 910 1841
411 936 1952
427 966 2060
441 988 2159
457 1012 2257
214 600 221
230 644 306
224 630 392
235 661 517
250 694 660
267 724 809
283 779 982
308 837 1165
334 884 1329
357 922 1478
379 962 1620
402 1007 1758
425 1056 1893
439 1083 2006
455 1110 2114
472 1143 2229
493 1176 2344
256 750 272
268 793 346
263 773 431
271 801 563
282 850 727
297 878 876
311 908 1025
331 953 1195
354 993 1354
379 1037 1509
403 1085 1654
426 1133 1791
449 1182 1927
469 1226 2057
487 1261 2177
503 1289 2293
526 1331 2416
291 902 319
301 941 391
296 939 470
299 949 599
317 1008 778
342 1051 955
352 1077 1112
366 1100 1259
384 1131 1405
407 1173 1552
434 1230 1705
458 1278 1845
480 1320 1976
496 1354 2097
517 1401 2234
542 1447 2369
564 1486 2491
325 1052 369
338 1099 441
336 1110 528
334 1113 639
351 1153 810
385 1219 1034
396 1257 1211
403 1268 1342
416 1282 1464
437 1316 1600
464 1369 1749
490 1418 1894
507 1448 2017
521 1473 2132
544 1523 2272
578 1595 2434
602 1638 2563
368 1213 423
386 1262 491
390 1287 584
388 1294 680
391 1295 843
420 1359 1063
440 1426 1285
443 1435 1417
453 1445 1532
469 1462 1653
492 1501 1790
515 1540 1928
532 1570 2052
547 1595 2169
572 1646 2309
605 1715 2471
631 1768 2616
415 1365 473
432 1411 537
436 1435 626
435 1446 725
428 1424 856
449 1473 1060
479 1564 1302
490 1601 1492
496 1609 1612
512 1627 1736
528 1649 1856
546 1677 1981
561 1698 2094
575 1719 2207
598 1763 2343
629 1828 2503
654 1884 2650
462 1524 526
474 1568 588
479 1577 664
480 1590 766
474 1577 883
482 1602 1067
516 1696 1312
537 1757 1535
545 1775 1695
555 1792 1820
570 1812 1940
586 1834 2057
599 1851 2166
611 1866 2271
630 1899 2398
654 1949 2543
679 2005 2687
507 1681 579
519 1725 639
521 1725 701
524 1730 800
523 1736 920
525 1759 1109
558 1850 1353
586 1922 1590
595 1943 1765
605 1965 1905
616 1983 2026
630 2001 2137
642 2013 2240
652 2025 2345
667 2054 2467
688 2092 2599
709 2130 2728
553 1839 631
565 1876 685
567 1875 747
569 1874 828
571 1892 966
570 1913 1158
601 2001 1396
636 2085 1640
646 2111 1821
658 2138 1981
667 2156 2110
676 2169 2216
688 2182 2320
697 2192 2422
710 2216 2540
726 2242 2660
741 2260 2772
600 1991 678
615 2033 732
616 2033 794
617 2027 864
617 2045 990
615 2054 1174
639 2128 1413
679 2225 1674
695 2273 1877
706 2299 2040
717 2321 2184
724 2338 2302
733 2351 2409
743 2364 2514
752 2372 2612
767 2394 2726
781 2409 2832
647 2144 730
705 2206 783
668 2208 844
666 2195 914
663 2190 992
660 2200 1159
673 2241 1398
713 2343 1673
740 2425 1929
752 2458 2104
763 2480 2251
773 2505 2389
781 2530 2512
790 2540 2613
801 2549 2709
813 2559 2806
827 2575 2910
711 2322 788
772 2377 838
750 2385 896
719 2376 974
715 2365 1045
708 2354 1157
713 2370 1384
746 2460 1657
778 2564 1949
803 2633 2173
813 2655 2328
822 2676 2472
834 2703 2598
840 2715 2698
849 2721 2793
860 2734 2891
875 2755 2996
251 100 87
231 93 162
217 92 247
232 113 359
252 158 519
255 181 643
252 189 757
256 194 875
263 204 975
271 220 1072
278 241 1154
287 256 1236
297 269 1315
305 278 1389
310 286 1458
314 290 1520
323 300 1598
232 195 92
248 193 176
234 188 275
255 225 429
271 266 611
280 287 793
296 319 970
308 344 1110
319 361 1221
329 381 1327
339 401 1415
346 412 1492
345 403 1519
346 396 1557
357 412 1648
371 432 1756
390 465 1881
223 292 103
236 295 189
262 307 309
287 352 456
315 418 669
310 465 889
337 509 1111
363 554 1317
377 581 1448
388 598 1562
402 612 1675
420 630 1797
437 648 1911
443 647 1974
449 649 2037
452 649 2086
474 691 2218
234 399 139
239 404 221
280 428 344
275 450 465
314 519 652
325 584 868
344 647 1086
369 697 1283
387 735 1435
405 772 1568
421 792 1683
434 810 1798
450 833 1918
464 849 2022
472 858 2098
474 846 2148
501 900 2297
252 519 179
261 528 261
280 558 376
286 574 505
320 633 682
346 700 882
361 779 1095
388 850 1298
410 887 1454
433 934 1606
460 988 1759
483 1026 1898
494 1042 2010
504 1055 2114
515 1074 2209
527 1090 2302
545 1119 2414
285 653 229
304 670 307
317 702 416
326 719 556
343 777 735
361 823 910
376 895 1115
408 972 1319
435 1030 1489
459 1078 1643
486 1128 1798
512 1179 1945
530 1217 2074
542 1235 2182
552 1250 2282
563 1261 2381
588 1312 2513
326 796 276
340 821 346
349 869 454
351 878 606
368 941 796
390 981 967
399 1016 1140
427 1088 1338
453 1144 1503
481 1202 1669
509 1255 1827
535 1303 1971
554 1344 2105
571 1376 2227
587 1408 2346
595 1411 2441
624 1472 2582
353 952 324
364 978 391
383 1039 491
381 1042 632
398 1098 847
429 1155 1048
434 1184 1213
449 1210 1367
473 1256 1522
500 1312 1683
529 1370 1846
553 1415 1993
571 1449 2123
588 1479 2243
613 1536 2385
631 1567 2503
657 1624 2639
385 1098 371
401 1127 437
431 1198 528
430 1218 656
434 1241 871
468 1323 1124
475 1357 1296
485 1373 1436
500 1391 1566
523 1434 1712
548 1482 1865
573 1526 2014
590 1557 2143
607 1588 2264
634 1649 2411
660 1706 2555
680 1744 2674
430 1243 421
452 1282 488
472 1355 574
472 1379 683
473 1381 871
499 1452 1136
519 1519 1363
527 1540 1510
538 1551 1634
552 1568 1758
574 1608 1902
595 1645 2043
614 1676 2174
632 1708 2297
658 1764 2441
684 1824 2588
707 1868 2718
478 1394 474
495 1438 537
520 1501 618
509 1518 719
513 1530 872
528 1567 1121
553 1647 1373
573 1702 1573
578 1712 1706
588 1724 1823
603 1742 1948
622 1772 2080
640 1797 2203
658 1829 2327
681 1879 2471
707 1936 2616
731 1984 2751
524 1565 533
559 1603 590
578 1645 659
549 1661 762
557 1680 893
562 1703 1118
586 1774 1374
616 1853 1612
627 1880 1781
631 1889 1899
643 1901 2017
654 1908 2127
670 1930 2243
685 1955 2361
707 2001 2503
732 2052 2647
756 2099 2783
583 1725 586
612 1756 638
634 1794 698
596 1814 800
605 1843 946
607 1864 1143
623 1916 1392
659 2004 1643
679 2054 1848
684 2067 1985
690 2073 2098
697 2073 2198
707 2079 2299
720 2098 2410
736 2133 2541
758 2172 2679
784 2219 2818
627 1873 632
667 1907 685
719 1944 744
645 1966 836
653 2004 990
655 2032 1174
666 2073 1414
701 2158 1665
729 2225 1898
738 2253 2072
740 2252 2187
743 2247 2283
752 2248 2382
762 2260 2486
775 2284 2606
795 2313 2730
816 2348 2863
686 2025 679
758 2075 734
817 2122 793
717 2111 857
693 2138 993
701 2179 1165
707 2215 1417
741 2301 1696
771 2378 1945
783 2415 2129
790 2429 2274
792 2426 2385
796 2421 2479
805 2429 2578
817 2438 2676
835 2467 2798
856 2503 2926
748 2184 729
868 2266 787
923 2307 847
799 2277 904
741 2279 987
743 2321 1161
751 2365 1407
778 2436 1705
811 2529 1981
829 2582 2178
836 2597 2332
844 2607 2471
849 2613 2586
856 2616 2680
866 2622 2775
877 2631 2872
893 2659 2987
827 2363 782
944 2437 844
972 2467 905
849 2445 965
797 2456 1062
791 2483 1202
803 2527 1436
824 2587 1745
850 2672 2005
873 2742 2235
888 2771 2407
897 2785 2554
906 2807 2672
912 2819 2777
918 2823 2872
924 2818 2961
933 2825 3059
433 143 109
420 133 179
375 124 279
338 122 367
356 152 503
352 179 636
336 193 758
333 196 886
339 208 1015
348 228 1127
354 242 1207
358 254 1271
362 266 1336
366 274 1401
371 283 1469
375 292 1534
384 304 1612
404 236 108
483 249 205
458 231 307
417 227 447
429 258 624
417 281 787
397 302 954
386 325 1095
384 346 1218
395 364 1334
404 383 1430
408 397 1498
407 396 1533
407 390 1570
418 407 1663
432 433 1773
