src/luts/Breaking_Bad_-_Rec709.3dl
# Created by Benjamin (IWLTBAP) : http://luts.iwltbap.com
# Copyright: (C) Copyright 2016 Triune Films and IWLTBAP
# Blockbuster LUTs Pack
0 256 512 768 1023
33 51 50
116 154 480
127 231 988
196 289 1367
230 317 1645
104 447 166
139 488 520
215 650 1130
304 791 1676
371 877 2104
254 1015 357
271 1062 745
344 1196 1373
427 1336 1900
527 1539 2462
452 1634 573
444 1622 901
525 1853 1688
582 1952 2179
652 2069 2669
657 2288 800
630 2234 1043
706 2443 1860
777 2641 2534
824 2704 2948
711 204 185
500 160 507
438 215 1026
446 291 1461
458 315 1679
566 655 210
780 862 897
751 1097 1783
753 1203 2405
777 1311 2872
642 1231 372
814 1463 917
779 1637 1755
816 1834 2403
888 2023 2994
872 1875 586
1008 2045 937
888 2302 1997
879 2285 2470
966 2476 3062
1106 2499 792
1231 2661 1107
1019 2899 2081
1079 3045 2827
1091 3018 3229
1942 483 436
1660 384 711
1386 299 1039
1421 378 1687
1181 424 2054
1675 913 451
2178 1264 1180
2228 1114 1744
1960 856 2212
1673 902 2633
1667 1561 598
1835 1708 933
2161 2137 2146
2087 2322 2775
1989 2533 3341
1535 2178 719
1661 2294 987
2035 2685 2220
1975 2782 2797
1911 2965 3395
1560 2790 886
1743 2893 1141
1881 3281 2421
1872 3427 3062
1890 3473 3533
2874 721 671
2664 634 932
2442 564 1267
2438 581 1728
2476 594 2143
2563 1201 684
2992 1497 1329
3030 1383 1880
2853 992 2135
2779 935 2532
2451 1736 769
2619 1982 1184
3036 2416 2299
3062 2365 2769
3030 2434 3306
2280 2328 864
2415 2480 1130
2737 2847 2144
3110 3146 3082
3249 3359 3637
2116 2989 1006
2238 3103 1246
2595 3402 2175
3173 3682 3307
3188 3745 3724
3458 864 824
3181 758 1074
2929 682 1379
2842 663 1798
2838 667 2168
3243 1433 875
3566 1677 1449
3614 1622 2012
3436 1281 2333
3287 1156 2656
3037 1904 913
3284 2179 1321
3636 2572 2366
3677 2580 2874
3620 2609 3328
2845 2468 985
3052 2627 1279
3400 3018 2213
3712 3286 3189
3719 3385 3647
2660 3084 1103
2817 3251 1389
3179 3502 2304
3579 3711 3236
3829 3865 3819
