src/luts/Captain_America_Civil_War_-_Rec709.3dl
# Created by Benjamin (IWLTBAP) : http://luts.iwltbap.com
# Copyright: (C) Copyright 2016 Triune Films and IWLTBAP
# Blockbuster LUTs Pack
0 256 512 768 1023
5 8 2
20 57 593
94 155 1462
220 159 2450
481 367 3453
0 737 64
0 760 651
2 888 1352
95 868 2310
403 1071 3317
14 1593 327
2 1558 982
77 1613 1599
172 1792 2298
370 2015 3237
220 2516 695
236 2513 1229
281 2540 1893
342 2579 2567
560 2748 3335
409 3301 1013
451 3311 1522
514 3333 2168
654 3417 2892
817 3568 3642
797 211 157
773 89 637
623 163 1474
735 160 2418
1200 401 3473
747 795 133
539 853 807
413 883 1538
588 715 2574
1079 919 3496
457 1771 326
425 1753 1006
498 1749 1686
565 1868 2389
856 2069 3297
631 2570 742
668 2595 1246
696 2612 1928
774 2668 2638
1024 2817 3395
838 3327 1120
889 3364 1606
971 3413 2192
1097 3480 2928
1257 3636 3711
1794 507 344
1818 480 747
1598 187 1339
1621 185 2359
2040 571 3634
1701 1050 404
1821 1042 866
1628 863 1531
1511 654 2418
1939 992 3710
1884 1808 388
1893 1870 781
1409 1744 1781
1253 1876 2561
1521 2158 3562
1330 2762 428
1201 2675 1295
1195 2750 1962
1364 2883 2830
1558 3044 3650
1346 3490 1267
1396 3520 1753
1501 3595 2372
1592 3672 3113
1803 3780 3841
2695 908 536
2732 895 924
2580 881 1633
3017 606 2528
3157 724 3530
2738 1411 614
2768 1447 1196
2729 1430 1821
2965 1222 2563
3157 1154 3604
2890 2108 771
2906 2152 1428
2859 2155 2080
3010 2070 2734
3126 2082 3751
2981 2860 557
2991 2881 1407
2958 2926 2102
2921 3050 3011
2867 3266 3891
2813 3585 893
2802 3621 1464
2688 3705 2326
2571 3858 3279
2838 3968 4018
3190 1172 665
3147 1138 1190
3180 1219 1889
3645 929 2721
3868 1109 3740
3315 1713 823
3290 1701 1453
3356 1740 2051
3653 1486 2749
3893 1713 3761
3413 2286 984
3417 2275 1599
3477 2339 2241
3577 2340 2825
3916 2493 3789
3537 2940 1249
3525 2928 1636
3647 3077 2401
3724 3217 3134
3964 3279 3953
3638 3642 741
3655 3664 1236
3719 3760 1773
3864 3936 3082
3948 4022 4062
