src/luts/Captain_America_Civil_War_-_Rec709.3dl
# Created by Benjamin (IWLTBAP) : http://luts.iwltbap.com
# Copyright: (C) Copyright 2016 Triune Films and IWLTBAP
# Blockbuster LUTs Pack
0 64 128 192 256 320 384 448 512 576 640 704 768 832 896 960 1023
5 8 2
10 12 100
13 22 214
20 38 388
20 57 593
16 103 815
24 141 1012
49 155 1224
94 155 1462
132 149 1726
160 140 2001
191 144 2214
220 159 2450
246 178 2706
278 203 2983
356 293 3288
481 367 3453
25 162 25
25 165 120
28 181 230
24 202 371
18 230 581
11 290 804
19 326 995
38 341 1201
79 333 1441
112 316 1700
135 302 1992
159 264 2224
189 266 2464
217 290 2718
261 341 2978
354 480 3272
475 525 3446
14 340 30
16 345 141
22 347 252
26 363 386
15 410 587
3 466 791
7 497 976
19 530 1167
55 548 1389
99 542 1647
125 536 1946
152 499 2188
175 499 2434
198 518 2684
243 567 2939
318 704 3187
457 723 3393
3 537 43
6 533 166
10 539 299
12 547 440
6 572 595
1 623 791
1 653 970
8 697 1160
18 725 1352
43 726 1576
79 732 1871
120 686 2135
148 683 2399
167 713 2636
204 772 2870
276 902 3114
413 919 3323
0 737 64
0 736 208
1 737 359
1 752 509
0 760 651
0 788 820
0 805 983
1 845 1167
2 888 1352
8 925 1552
31 954 1804
66 908 2032
95 868 2310
124 875 2570
167 920 2817
274 1062 3107
403 1071 3317
0 946 115
0 937 257
0 941 419
0 949 588
2 958 740
0 976 903
0 978 1044
2 997 1197
2 1035 1377
3 1084 1577
42 1147 1825
86 1159 2023
121 1161 2254
147 1144 2512
172 1111 2791
288 1240 3118
397 1218 3327
0 1146 171
0 1143 319
2 1147 489
0 1143 662
0 1152 827
0 1164 984
0 1163 1121
0 1175 1269
3 1199 1430
17 1242 1621
78 1330 1852
112 1361 2037
143 1404 2261
182 1442 2507
222 1462 2765
290 1540 3082
388 1454 3307
0 1361 240
0 1357 393
0 1355 558
0 1343 734
2 1347 904
0 1365 1070
0 1361 1210
2 1372 1357
24 1397 1519
58 1433 1681
111 1515 1885
136 1549 2058
157 1603 2273
179 1656 2506
204 1712 2751
282 1804 3056
370 1786 3234
14 1593 327
5 1585 492
1 1581 642
3 1566 811
2 1558 982
11 1579 1155
23 1583 1308
45 1591 1451
77 1613 1599
110 1659 1759
143 1730 1950
157 1745 2102
172 1792 2298
189 1842 2523
218 1908 2768
290 2000 3065
370 2015 3237
50 1825 419
39 1816 592
34 1812 729
36 1806 888
40 1793 1064
59 1809 1236
84 1814 1390
108 1831 1534
128 1852 1675
147 1893 1832
170 1957 2021
179 1957 2165
193 1984 2344
215 2022 2556
248 2083 2792
331 2184 3083
392 2204 3249
81 2060 518
78 2055 673
85 2064 814
88 2062 961
95 2046 1125
115 2056 1299
131 2053 1445
149 2085 1604
164 2099 1746
181 2121 1899
206 2170 2093
218 2172 2243
234 2189 2416
256 2214 2609
289 2258 2822
383 2368 3108
439 2383 3267
138 2305 618
138 2294 759
148 2305 898
151 2302 1034
155 2296 1179
166 2304 1344
176 2294 1504
198 2316 1662
218 2334 1821
234 2343 1979
256 2374 2163
264 2368 2311
287 2387 2490
314 2416 2686
349 2449 2876
442 2552 3140
495 2563 3291
220 2516 695
219 2507 839
226 2512 966
229 2510 1092
236 2513 1229
245 2526 1383
243 2514 1555
259 2521 1719
281 2540 1893
296 2550 2059
316 2575 2239
321 2561 2387
342 2579 2567
374 2614 2755
419 2656 2951
519 2751 3199
560 2748 3335
286 2714 769
287 2702 909
295 2707 1025
298 2707 1146
308 2717 1279
316 2732 1425
315 2718 1608
319 2718 1776
330 2727 1951
344 2744 2135
365 2778 2326
376 2767 2483
401 2785 2653
442 2821 2835
503 2868 3024
598 2955 3265
633 2950 3402
323 2914 836
325 2907 972
330 2918 1086
338 2922 1206
343 2919 1327
353 2942 1468
361 2928 1648
364 2924 1831
376 2934 2022
393 2949 2207
431 2997 2411
447 2988 2565
477 3001 2737
521 3027 2910
582 3069 3095
671 3158 3332
703 3162 3484
353 3124 911
354 3107 1043
363 3112 1164
372 3115 1281
384 3122 1408
403 3144 1555
411 3131 1715
424 3135 1910
437 3137 2097
463 3157 2284
509 3206 2482
539 3211 2653
572 3221 2825
611 3237 2993
663 3275 3174
739 3372 3415
766 3376 3568
409 3301 1013
413 3286 1155
424 3295 1271
436 3298 1391
451 3311 1522
474 3337 1658
483 3325 1808
497 3325 1984
514 3333 2168
544 3358 2356
586 3399 2542
612 3394 2702
654 3417 2892
695 3447 3080
731 3478 3258
789 3563 3491
817 3568 3642
177 58 39
175 29 123
148 27 233
134 35 423
136 61 625
132 100 821
141 139 1028
169 154 1239
214 156 1465
260 150 1703
286 142 1950
313 145 2198
343 159 2440
370 179 2691
405 203 2967
486 259 3233
627 357 3446
169 201 58
152 191 141
120 175 251
115 191 429
109 205 628
105 229 813
118 261 1021
153 268 1252
197 260 1483
237 248 1732
265 239 1980
290 243 2230
318 258 2471
346 278 2722
383 313 2986
473 389 3237
618 496 3452
126 374 49
124 380 158
119 381 287
119 379 425
105 420 618
97 455 802
103 487 996
122 491 1207
170 463 1457
210 428 1720
236 388 1978
257 373 2234
287 381 2485
321 413 2730
375 472 2987
469 556 3224
608 657 3445
97 566 57
99 560 170
102 573 328
105 579 483
99 589 633
95 620 800
95 660 985
98 702 1173
114 722 1377
163 695 1631
207 648 1916
235 616 2191
258 619 2443
298 639 2694
354 699 2929
455 776 3162
590 858 3390
94 757 79
94 764 207
95 767 372
94 774 537
94 779 685
94 784 831
94 811 999
94 857 1183
96 898 1369
105 923 1567
131 923 1800
172 874 2083
205 828 2373
240 845 2626
301 898 2851
402 972 3074
546 1042 3329
94 962 128
94 968 256
96 973 421
94 971 593
94 975 755
94 973 897
94 986 1049
94 1006 1204
94 1044 1383
96 1088 1579
123 1124 1796
166 1152 2028
196 1141 2281
222 1116 2546
264 1083 2804
378 1149 3054
527 1201 3329
94 1164 184
94 1171 320
95 1169 479
94 1165 661
94 1168 835
94 1166 978
94 1173 1128
94 1186 1277
96 1211 1438
112 1251 1620
162 1308 1825
205 1364 2045
236 1406 2280
269 1433 2524
309 1443 2787
392 1455 3055
528 1431 3338
96 1372 255
96 1384 394
95 1377 546
94 1368 733
94 1361 906
94 1369 1066
95 1376 1216
99 1387 1368
122 1411 1526
156 1443 1685
196 1489 1856
231 1553 2063
254 1607 2288
272 1660 2522
300 1711 2769
370 1748 3015
492 1778 3256
115 1603 342
110 1603 480
103 1606 636
101 1594 804
99 1581 980
106 1582 1150
120 1594 1307
146 1609 1456
180 1635 1605
208 1671 1759
232 1709 1922
251 1748 2100
268 1798 2302
285 1853 2528
312 1906 2772
368 1960 3009
464 2023 3236
150 1829 437
144 1833 577
137 1834 728
138 1832 882
140 1820 1048
151 1810 1224
181 1834 1391
208 1854 1539
225 1868 1677
242 1897 1827
259 1934 1992
275 1965 2166
291 1995 2349
313 2035 2559
344 2085 2790
406 2144 3024
495 2208 3247
176 2054 534
179 2070 671
183 2078 811
188 2081 957
194 2081 1117
206 2058 1285
227 2068 1447
246 2101 1606
261 2112 1750
279 2128 1902
295 2152 2067
314 2176 2242
333 2199 2422
354 2222 2614
389 2264 2825
455 2326 3054
544 2386 3266
231 2296 637
237 2301 756
245 2309 890
253 2312 1029
258 2309 1179
263 2302 1335
274 2303 1502
295 2322 1662
316 2344 1825
332 2346 1979
344 2355 2141
362 2372 2313
386 2394 2495
413 2420 2686
453 2459 2887
515 2511 3090
602 2568 3298
314 2511 722
319 2513 839
325 2518 962
330 2518 1089
338 2522 1226
343 2519 1376
344 2521 1550
359 2531 1722
379 2544 1892
391 2550 2054
404 2555 2215
420 2568 2390
443 2590 2574
479 2633 2770
531 2674 2962
591 2709 3146
667 2753 3342
382 2705 798
386 2709 912
389 2715 1029
394 2715 1147
402 2722 1275
408 2720 1419
412 2721 1590
418 2726 1772
429 2736 1947
443 2752 2133
459 2765 2306
476 2776 2478
503 2792 2653
547 2834 2840
605 2874 3026
671 2913 3218
738 2957 3402
416 2901 865
421 2914 978
426 2921 1087
433 2926 1206
438 2924 1330
449 2925 1471
458 2931 1643
465 2933 1830
476 2938 2014
494 2954 2204
523 2982 2394
552 2997 2567
584 3012 2738
629 3036 2911
687 3071 3093
750 3119 3289
806 3170 3484
451 3108 951
462 3119 1069
468 3121 1177
477 3124 1297
491 3128 1424
500 3129 1561
518 3138 1725
529 3144 1903
544 3150 2091
568 3166 2281
599 3187 2459
641 3213 2646
678 3226 2820
720 3249 2994
768 3282 3174
819 3328 3369
865 3379 3569
507 3283 1048
519 3295 1167
529 3297 1285
540 3305 1406
553 3312 1531
570 3322 1666
589 3335 1816
607 3341 1978
623 3347 2164
648 3362 2350
677 3378 2523
719 3402 2703
760 3427 2888
797 3453 3071
832 3482 3255
871 3523 3442
918 3575 3646
374 106 78
384 96 162
380 57 256
346 42 420
313 61 625
270 104 838
270 140 1044
290 157 1250
331 159 1470
373 154 1700
398 144 1936
428 146 2175
464 158 2423
499 179 2686
538 202 2949
623 258 3212
797 363 3443
378 238 100
383 238 187
351 207 283
302 150 465
251 175 660
222 213 854
237 244 1058
270 252 1273
320 250 1502
362 243 1739
387 238 1978
412 241 2225
441 257 2468
472 276 2723
521 313 2989
627 394 3241
783 495 3457
359 397 91
323 417 181
294 399 339
226 382 489
198 416 670
191 442 848
198 451 1038
232 411 1264
286 372 1521
327 348 1767
360 337 2010
387 344 2259
417 364 2506
449 387 2760
498 428 3010
612 526 3248
770 633 3465
236 590 56
231 599 175
209 610 351
202 612 532
191 621 684
188 644 844
189 683 1020
193 712 1206
222 708 1426
276 640 1707
315 546 1989
347 507 2252
379 509 2505
433 548 2757
499 609 3002
609 702 3235
756 793 3454
194 801 80
194 810 213
191 807 386
190 813 576
188 813 735
188 815 875
189 832 1028
189 872 1205
190 910 1392
202 927 1603
238 902 1862
276 849 2148
320 784 2432
374 798 2680
455 848 2913
570 921 3144
720 990 3383
188 1001 135
188 1007 269
189 1007 428
189 1004 618
188 1002 787
188 998 932
189 1009 1081
190 1026 1235
189 1063 1409
191 1097 1603
214 1126 1818
250 1140 2058
280 1116 2328
312 1090 2590
391 1080 2837
506 1131 3068
656 1184 3331
188 1202 184
188 1208 330
188 1208 477
190 1203 663
189 1201 854
188 1195 1000
188 1196 1146
189 1211 1302
191 1230 1459
212 1265 1642
257 1315 1839
299 1368 2067
324 1404 2304
351 1420 2553
402 1432 2813
508 1451 3068
654 1438 3342
194 1418 262
194 1423 398
191 1420 554
189 1408 731
188 1394 921
189 1399 1083
191 1404 1235
202 1418 1393
225 1438 1543
260 1466 1700
296 1507 1872
328 1566 2085
348 1618 2306
366 1671 2544
390 1709 2785
481 1750 3028
628 1782 3283
222 1638 350
220 1642 486
211 1642 638
202 1634 802
199 1616 981
206 1611 1160
225 1627 1326
251 1638 1473
282 1660 1615
308 1693 1774
330 1725 1935
348 1762 2117
365 1813 2325
382 1864 2547
411 1916 2788
479 1973 3026
587 2033 3250
254 1859 446
253 1870 579
245 1873 729
243 1866 881
246 1859 1044
254 1841 1225
283 1867 1399
308 1885 1548
324 1897 1688
341 1924 1842
358 1954 2006
374 1984 2181
390 2010 2362
413 2050 2571
451 2101 2804
516 2157 3031
612 2224 3258
278 2084 546
281 2098 671
285 2106 812
291 2110 954
297 2109 1111
307 2092 1281
327 2100 1452
346 2126 1615
362 2141 1764
378 2149 1913
395 2165 2077
415 2193 2257
434 2212 2435
458 2241 2629
496 2282 2838
565 2336 3055
660 2401 3275
330 2307 640
338 2320 760
350 2330 888
360 2331 1028
365 2331 1174
371 2327 1329
381 2326 1500
396 2341 1668
416 2357 1834
432 2361 1990
445 2367 2150
465 2385 2331
488 2404 2509
519 2438 2701
562 2479 2900
626 2524 3099
717 2582 3307
413 2517 724
420 2524 840
426 2528 960
437 2532 1092
444 2534 1226
451 2535 1371
454 2538 1550
464 2545 1726
480 2556 1899
494 2564 2068
505 2567 2227
521 2577 2398
547 2606 2589
584 2645 2782
635 2681 2970
700 2719 3156
779 2765 3350
478 2714 803
482 2718 913
488 2727 1028
496 2733 1152
501 2738 1278
509 2741 1416
516 2743 1588
521 2746 1774
532 2756 1957
546 2771 2141
563 2781 2315
583 2795 2494
611 2814 2667
657 2850 2849
719 2890 3040
784 2928 3228
849 2970 3417
514 2914 872
519 2923 982
523 2931 1093
531 2939 1214
539 2939 1335
549 2937 1475
560 2946 1639
568 2945 1825
583 2957 2022
600 2969 2208
630 2996 2399
665 3019 2579
699 3033 2747
743 3051 2915
804 3088 3106
859 3130 3297
913 3182 3496
557 3117 966
565 3122 1082
577 3131 1200
582 3132 1314
592 3137 1437
604 3138 1574
622 3149 1735
639 3159 1911
657 3168 2103
675 3177 2282
708 3199 2465
753 3228 2651
793 3244 2829
833 3259 3005
877 3294 3187
924 3334 3373
968 3390 3578
614 3290 1066
623 3295 1183
635 3306 1303
647 3314 1422
660 3321 1548
674 3326 1675
695 3341 1823
717 3353 1986
736 3361 2170
758 3374 2353
787 3388 2529
828 3413 2709
872 3443 2901
907 3466 3085
937 3493 3264
976 3535 3459
1026 3590 3668
580 156 118
592 145 204
583 133 288
580 76 431
536 68 630
497 99 806
458 138 1030
429 158 1260
445 159 1473
480 156 1696
515 147 1931
556 147 2172
594 158 2410
638 178 2666
682 203 2930
791 270 3200
992 379 3447
579 281 134
599 274 220
588 265 305
563 214 442
510 178 656
448 205 844
423 240 1066
413 251 1295
443 251 1515
479 244 1749
509 239 1983
541 243 2220
571 257 2460
609 278 2717
675 326 2995
793 406 3240
