src/luts/Captain_America_Civil_War_-_Rec709.3dl
# Created by Benjamin (IWLTBAP) : http://luts.iwltbap.com
# Copyright: (C) Copyright 2016 Triune Films and IWLTBAP
# Blockbuster LUTs Pack
0 128 256 384 512 640 768 896 1023
5 8 2
13 22 214
20 57 593
24 141 1012
94 155 1462
160 140 2001
220 159 2450
278 203 2983
481 367 3453
14 340 30
22 347 252
15 410 587
7 497 976
55 548 1389
125 536 1946
175 499 2434
243 567 2939
457 723 3393
0 737 64
1 737 359
0 760 651
0 805 983
2 888 1352
31 954 1804
95 868 2310
167 920 2817
403 1071 3317
0 1146 171
2 1147 489
0 1152 827
0 1163 1121
3 1199 1430
78 1330 1852
143 1404 2261
222 1462 2765
388 1454 3307
14 1593 327
1 1581 642
2 1558 982
23 1583 1308
77 1613 1599
143 1730 1950
172 1792 2298
218 1908 2768
370 2015 3237
81 2060 518
85 2064 814
95 2046 1125
131 2053 1445
164 2099 1746
206 2170 2093
234 2189 2416
289 2258 2822
439 2383 3267
220 2516 695
226 2512 966
236 2513 1229
243 2514 1555
281 2540 1893
316 2575 2239
342 2579 2567
419 2656 2951
560 2748 3335
323 2914 836
330 2918 1086
343 2919 1327
361 2928 1648
376 2934 2022
431 2997 2411
477 3001 2737
582 3069 3095
703 3162 3484
409 3301 1013
424 3295 1271
451 3311 1522
483 3325 1808
514 3333 2168
586 3399 2542
654 3417 2892
731 3478 3258
817 3568 3642
374 106 78
380 57 256
313 61 625
270 140 1044
331 159 1470
398 144 1936
464 158 2423
538 202 2949
797 363 3443
359 397 91
294 399 339
198 416 670
198 451 1038
286 372 1521
360 337 2010
417 364 2506
498 428 3010
770 633 3465
194 801 80
191 807 386
188 813 735
189 832 1028
190 910 1392
238 902 1862
320 784 2432
455 848 2913
720 990 3383
188 1202 184
188 1208 477
189 1201 854
188 1196 1146
191 1230 1459
257 1315 1839
324 1404 2304
402 1432 2813
654 1438 3342
222 1638 350
211 1642 638
199 1616 981
225 1627 1326
282 1660 1615
330 1725 1935
365 1813 2325
411 1916 2788
587 2033 3250
278 2084 546
285 2106 812
297 2109 1111
327 2100 1452
362 2141 1764
395 2165 2077
434 2212 2435
496 2282 2838
660 2401 3275
413 2517 724
426 2528 960
444 2534 1226
454 2538 1550
480 2556 1899
505 2567 2227
547 2606 2589
635 2681 2970
779 2765 3350
514 2914 872
523 2931 1093
539 2939 1335
560 2946 1639
583 2957 2022
630 2996 2399
699 3033 2747
804 3088 3106
913 3182 3496
614 3290 1066
635 3306 1303
660 3321 1548
695 3341 1823
736 3361 2170
787 3388 2529
872 3443 2901
937 3493 3264
1026 3590 3668
797 211 157
800 187 328
773 89 637
702 131 989
623 163 1474
640 149 1950
735 160 2418
854 210 2938
1200 401 3473
781 458 184
801 450 357
744 413 676
597 346 1077
572 345 1569
615 335 2037
687 359 2519
832 460 3033
1155 648 3496
747 795 133
710 816 362
539 853 807
440 852 1132
413 883 1538
468 800 2058
588 715 2574
781 749 3066
1079 919 3496
423 1297 107
420 1272 446
392 1256 874
380 1267 1237
393 1283 1545
455 1344 1928
502 1408 2402
648 1462 2886
963 1470 3406
457 1771 326
440 1771 657
425 1753 1006
454 1736 1386
498 1749 1686
535 1800 2005
565 1868 2389
643 1965 2854
856 2069 3297
494 2173 571
510 2200 835
529 2205 1133
543 2192 1481
577 2213 1819
609 2228 2134
652 2268 2497
734 2338 2891
919 2448 3318
631 2570 742
644 2583 979
668 2595 1246
681 2601 1548
696 2612 1928
724 2627 2287
774 2668 2638
882 2739 3013
1024 2817 3395
723 2962 916
735 2976 1143
751 2983 1380
782 3004 1684
812 3016 2051
864 3051 2430
944 3086 2781
1045 3145 3152
1138 3237 3546
838 3327 1120
860 3344 1354
889 3364 1606
922 3382 1869
971 3413 2192
1024 3435 2558
1097 3480 2928
1168 3556 3324
1257 3636 3711
1245 312 228
1275 308 413
1159 266 608
1195 139 974
1119 176 1389
1043 159 1896
1079 165 2425
1243 268 2988
1591 474 3582
1181 572 244
1227 533 425
1220 552 664
1111 419 1045
1017 362 1480
1002 342 1958
1049 367 2512
1236 519 3059
1552 692 3589
1210 883 306
1250 851 470
1249 888 746
1128 864 1118
965 655 1644
918 616 2108
947 640 2659
1174 793 3124
1480 943 3597
1245 1273 186
1235 1269 389
1133 1240 811
844 1244 1249
753 1227 1640
665 1291 2048
744 1409 2535
1001 1479 3010
1329 1472 3549
1044 1762 138
982 1828 420
842 1771 952
697 1735 1351
716 1775 1733
743 1876 2113
791 1937 2512
945 2035 2959
1166 2125 3374
747 2243 462
755 2256 783
777 2270 1108
790 2296 1485
814 2320 1894
845 2324 2235
904 2365 2602
1027 2430 2986
1202 2521 3399
865 2670 779
868 2678 1019
886 2688 1274
914 2705 1592
933 2711 1989
973 2733 2374
1050 2771 2730
1165 2827 3098
1285 2911 3493
961 3044 995
975 3057 1234
991 3069 1475
1030 3088 1767
1071 3112 2108
1125 3131 2489
1219 3176 2865
1298 3235 3243
1384 3330 3650
1080 3392 1189
1105 3413 1431
1128 3428 1675
1170 3453 1957
1226 3486 2265
1274 3507 2617
1339 3564 3005
1402 3626 3392
1511 3696 3760
1794 507 344
1824 486 527
1818 480 747
1568 369 963
1598 187 1339
1564 176 1834
1621 185 2359
1877 371 2967
2040 571 3634
1708 738 349
1780 684 533
1831 675 760
1580 617 979
1548 447 1430
1438 359 1911
1563 395 2381
1866 608 3020
2009 782 3671
1701 1050 404
1781 1026 586
1821 1042 866
1705 1032 1172
1628 863 1531
1491 699 2026
1511 654 2418
1746 836 3037
1939 992 3710
1809 1407 505
1872 1425 685
1875 1427 960
1733 1374 1299
1649 1313 1628
1483 1165 2145
1500 1203 2569
1578 1300 3130
1778 1412 3738
1884 1808 388
1917 1858 570
1893 1870 781
1614 1738 1381
1409 1744 1781
1278 1773 2161
1253 1876 2561
1360 2046 3066
1521 2158 3562
1774 2236 210
1709 2358 406
1607 2346 931
1353 2256 1508
1231 2277 1847
1174 2343 2244
1210 2433 2676
1357 2511 3094
1499 2625 3550
1330 2762 428
1246 2671 963
1201 2675 1295
1169 2701 1597
1195 2750 1962
1254 2834 2429
1364 2883 2830
1462 2949 3226
1558 3044 3650
1209 3106 1032
1215 3115 1279
1231 3122 1521
1283 3179 1846
1347 3217 2178
1410 3240 2572
1493 3293 2983
1565 3373 3393
1652 3438 3758
1346 3490 1267
1373 3508 1501
1396 3520 1753
1439 3550 2042
1501 3595 2372
1541 3622 2715
1592 3672 3113
1672 3733 3502
1803 3780 3841
2306 716 464
2329 693 640
2344 669 829
2195 645 1114
2141 532 1422
2281 321 1893
2410 388 2386
2596 555 2955
2650 666 3495
2275 956 492
2322 924 663
2329 925 917
2266 903 1206
2139 844 1457
2232 578 1906
2376 600 2396
2577 761 2956
2645 870 3526
2239 1229 536
2330 1227 712
2330 1229 1064
2299 1198 1329
2181 1162 1555
2307 977 2014
2328 933 2445
2503 981 2943
2564 1061 3493
2335 1573 622
2422 1612 801
2409 1647 1165
2357 1628 1533
2294 1610 1807
2341 1448 2142
2414 1412 2577
2434 1376 3022
2452 1365 3540
2451 1972 722
2512 2035 900
2497 2066 1233
2409 2021 1632
2337 1997 1915
2335 1960 2216
2351 1877 2687
2356 1819 3267
2297 1891 3800
2501 2383 464
2559 2470 625
2555 2511 970
2467 2426 1518
2307 2341 1988
2193 2410 2375
2167 2456 2772
2128 2532 3198
2048 2643 3651
2466 2776 269
2493 2869 559
2409 2892 1088
2257 2799 1611
2138 2799 2060
1966 2856 2452
1985 2939 2888
1886 3038 3318
1879 3152 3780
2112 3218 621
2123 3185 1028
2026 3129 1459
1942 3155 1810
1881 3211 2193
1750 3277 2570
1785 3375 3035
1890 3490 3511
1978 3557 3883
1710 3502 1159
1702 3495 1422
1738 3510 1698
1710 3550 2014
1765 3640 2380
1809 3729 2788
1874 3798 3235
1989 3847 3631
2129 3875 3943
2695 908 536
2719 884 715
2732 895 924
2694 904 1305
2580 881 1633
2901 610 2042
3017 606 2528
3101 679 3036
3157 724 3530
2710 1148 573
2739 1119 737
2744 1152 1037
2719 1151 1418
2629 1121 1695
2897 893 2095
3005 842 2547
3098 886 3049
3158 928 3580
2738 1411 614
2804 1425 804
2768 1447 1196
2749 1450 1563
2729 1430 1821
2887 1268 2162
2965 1222 2563
3084 1177 3054
3157 1154 3604
2806 1738 690
2872 1774 895
2849 1800 1304
2811 1788 1703
2810 1762 1959
2841 1685 2222
2999 1618 2640
3066 1590 3100
3148 1571 3678
2890 2108 771
2946 2160 1017
2906 2152 1428
2868 2157 1786
2859 2155 2080
2866 2180 2373
3010 2070 2734
3096 2073 3229
3126 2082 3751
2940 2482 881
2968 2515 1179
2943 2501 1561
2931 2521 1865
2912 2534 2177
2917 2579 2486
2971 2598 2839
3047 2601 3306
3055 2695 3790
2981 2860 557
2988 2869 974
2991 2881 1407
2979 2917 1725
2958 2926 2102
2933 2939 2574
2921 3050 3011
2886 3158 3470
2867 3266 3891
2909 3230 618
2913 3239 975
2944 3260 1297
2888 3300 1699
2855 3329 2161
2838 3392 2636
2726 3495 3142
2758 3601 3614
2800 3664 3970
2813 3585 893
2785 3594 1173
2802 3621 1464
2713 3628 1922
2688 3705 2326
2656 3795 2771
2571 3858 3279
2691 3929 3705
2838 3968 4018
2921 1018 560
2943 998 746
2954 1031 1021
2929 1035 1422
2912 1050 1773
3262 788 2206
3399 708 2633
3489 756 3113
3590 808 3652
2988 1273 596
3021 1275 802
3013 1293 1139
3011 1308 1539
3011 1314 1856
3245 1077 2231
3388 946 2634
3502 989 3143
3605 1083 3691
3028 1541 642
3098 1568 897
3060 1578 1290
3066 1607 1673
3096 1601 1962
3159 1465 2244
3392 1327 2678
3502 1339 3168
3637 1458 3735
3100 1850 699
3160 1890 1007
3130 1897 1415
3129 1902 1767
3148 1896 2053
3173 1869 2318
3411 1706 2718
3508 1742 3193
3654 1855 3746
3198 2194 755
3199 2201 1096
3191 2205 1497
3213 2216 1822
3223 2221 2157
3273 2224 2441
3387 2187 2770
3545 2228 3267
3656 2344 3747
3285 2553 894
3251 2528 1135
3252 2528 1564
3288 2572 1894
3306 2627 2249
3344 2673 2594
3383 2725 2924
3554 2703 3376
3660 2826 3821
3323 2881 1129
3308 2862 1329
3297 2855 1549
3354 2931 1955
3381 3005 2332
3383 3059 2697
3411 3136 3053
3500 3193 3496
3594 3260 3917
3371 3241 715
3361 3234 965
3364 3239 1220
3401 3308 1641
3410 3410 2110
3407 3467 2580
3401 3509 3137
3430 3617 3653
3491 3687 3994
3303 3641 694
3300 3647 916
3314 3659 1140
3323 3701 1494
3340 3773 2076
3337 3843 2659
3314 3906 3235
3371 3970 3734
3498 3992 4039
3190 1172 665
3177 1161 873
3147 1138 1190
3158 1194 1570
3180 1219 1889
3462 1021 2288
3645 929 2721
3752 932 3215
3868 1109 3740
3278 1445 748
3258 1433 999
3212 1401 1319
3241 1465 1673
3260 1461 1962
3355 1360 2277
3641 1181 2721
3760 1216 3235
3881 1364 3760
3315 1713 823
3312 1724 1171
3290 1701 1453
3315 1738 1764
3356 1740 2051
3363 1710 2318
3653 1486 2749
3766 1530 3253
3893 1713 3761
3364 1999 893
3337 1987 1246
3355 1987 1541
3376 2005 1840
3405 2018 2136
3456 2043 2430
3643 1878 2773
3780 1891 3296
3902 2078 3766
3413 2286 984
3383 2267 1302
3417 2275 1599
3457 2306 1902
3477 2339 2241
3533 2359 2540
3577 2340 2825
3807 2329 3337
3916 2493 3789
3480 2602 1069
3449 2571 1304
3472 2592 1649
3525 2658 1976
3558 2708 2322
3604 2749 2678
3670 2794 2993
3842 2784 3423
3945 2893 3871
3537 2940 1249
3532 2934 1429
3525 2928 1636
3590 3001 2009
3647 3077 2401
3671 3145 2772
3724 3217 3134
3820 3276 3530
3964 3279 3953
3609 3286 1168
3607 3286 1376
3616 3297 1612
3643 3326 1831
3719 3424 2351
3766 3530 2798
3805 3577 3218
3858 3652 3633
3941 3699 4011
3638 3642 741
3639 3642 969
3655 3664 1236
3672 3701 1469
3719 3760 1773
3813 3866 2464
3864 3936 3082
3912 3987 3696
3948 4022 4062
