src/luts/Casino_Royale_2_-_Rec709.3dl
# Created by Benjamin (IWLTBAP) : http://luts.iwltbap.com
# Copyright: (C) Copyright 2016 Triune Films and IWLTBAP
# Blockbuster LUTs Pack
0 256 512 768 1023
19 19 83
29 29 92
48 48 110
65 65 126
78 78 138
63 63 124
87 87 146
102 102 161
176 176 229
243 243 291
134 134 190
242 242 290
378 378 416
460 460 493
574 574 600
307 307 350
436 436 471
638 638 659
831 831 839
976 976 973
516 516 545
702 702 718
919 919 920
1169 1169 1153
1439 1439 1403
57 57 118
146 146 201
229 229 278
281 281 326
393 393 431
292 292 337
473 473 506
616 616 638
774 774 785
918 918 919
584 584 608
844 844 850
1125 1125 1111
1314 1314 1287
1528 1528 1486
951 951 949
1280 1280 1256
1586 1586 1540
1884 1884 1818
2093 2093 2012
1359 1359 1329
1761 1761 1703
2061 2061 1982
2390 2390 2288
2702 2702 2578
369 369 409
554 554 581
763 763 775
937 937 936
1132 1132 1118
852 852 858
1171 1171 1154
1471 1471 1433
1682 1682 1630
1910 1910 1842
1373 1373 1342
1816 1816 1754
2213 2213 2124
2446 2446 2340
2671 2671 2550
1927 1927 1857
2352 2352 2253
2743 2743 2616
3005 3005 2860
3164 3164 3008
2374 2374 2274
2786 2786 2657
3136 3136 2982
3334 3334 3166
3486 3486 3308
928 928 928
1200 1200 1181
1529 1529 1488
1796 1796 1736
2013 2013 1938
1601 1601 1555
1995 1995 1921
2319 2319 2222
2629 2629 2511
2817 2817 2685
2249 2249 2157
2642 2642 2522
2983 2983 2840
3185 3185 3028
3337 3337 3169
2815 2815 2683
3127 3127 2974
3373 3373 3203
3542 3542 3360
3642 3642 3452
3192 3192 3035
3438 3438 3263
3615 3615 3428
3744 3744 3547
3812 3812 3611
1620 1620 1572
1943 1943 1872
2260 2260 2168
2575 2575 2461
2817 2817 2685
2355 2355 2256
2761 2761 2633
3012 3012 2867
3220 3220 3060
3379 3379 3208
2952 2952 2811
3247 3247 3085
3457 3457 3280
3583 3583 3398
3670 3670 3479
3348 3348 3179
3542 3542 3359
3690 3690 3497
3786 3786 3587
3849 3849 3645
3592 3592 3406
3738 3738 3542
3828 3828 3625
3890 3890 3683
3918 3918 3709
