src/luts/Casino_Royale_1_-_Rec709.3dl
# Created by Benjamin (IWLTBAP) : http://luts.iwltbap.com
# Copyright: (C) Copyright 2016 Triune Films and IWLTBAP
# Blockbuster LUTs Pack
0 128 256 384 512 640 768 896 1023
0 0 0
1 1 1
4 3 3
6 5 6
10 8 9
14 12 13
19 16 17
24 21 22
29 26 27
33 30 31
46 42 43
54 50 51
62 58 59
72 68 68
83 78 79
94 89 89
104 98 98
117 111 112
118 112 112
137 131 130
161 155 154
176 170 169
193 186 185
212 204 203
226 219 217
244 236 234
264 257 254
254 246 243
285 277 273
316 308 304
350 342 337
373 365 359
395 387 380
421 412 405
441 432 424
469 460 451
439 430 422
477 467 459
518 509 499
562 552 542
604 594 582
636 627 614
661 651 638
696 686 672
724 714 699
670 660 647
716 706 692
766 756 740
815 805 788
870 860 841
918 908 888
958 948 927
988 978 956
1029 1019 996
943 933 912
990 980 958
1056 1046 1022
1105 1095 1070
1166 1156 1129
1227 1217 1188
1287 1277 1247
1320 1310 1279
1362 1352 1320
1244 1234 1205
1301 1291 1261
1362 1353 1321
1430 1420 1386
1495 1486 1450
1556 1547 1509
1618 1609 1570
1674 1665 1625
1717 1708 1668
1580 1571 1533
1632 1623 1585
1702 1693 1653
1767 1759 1716
1833 1825 1781
1895 1887 1841
1965 1957 1910
2032 2024 1976
2085 2077 2028
73 68 69
7 6 6
9 7 8
12 10 11
17 15 16
23 20 21
28 25 26
35 32 33
42 38 39
76 71 72
150 143 143
167 160 159
185 178 177
200 193 191
215 208 206
235 227 225
254 247 244
274 267 263
184 177 176
305 297 293
341 332 327
363 355 349
383 374 368
409 400 394
433 424 417
457 448 440
485 476 467
350 342 337
501 492 483
550 541 531
595 585 574
623 613 601
653 643 630
681 671 657
713 704 689
739 729 714
562 552 542
750 740 724
806 796 779
853 843 825
909 899 879
945 935 914
980 970 948
1014 1004 981
1048 1038 1015
816 806 788
1034 1024 1001
1093 1083 1058
1155 1145 1119
1209 1199 1171
1266 1257 1227
1304 1294 1263
1342 1333 1301
1386 1377 1344
1103 1093 1068
1351 1341 1309
1411 1401 1368
1477 1468 1432
1536 1527 1490
1597 1588 1550
1664 1655 1615
1700 1691 1651
1746 1738 1696
1420 1411 1377
1683 1674 1633
1749 1740 1698
1818 1810 1766
1878 1870 1825
1947 1939 1892
2006 1997 1950
2077 2070 2021
2115 2109 2060
1772 1763 1721
2025 2017 1969
2096 2089 2040
2155 2149 2102
2216 2210 2167
2277 2272 2229
2333 2328 2286
2388 2383 2341
2446 2441 2398
263 256 253
102 97 97
19 17 18
21 18 19
27 24 25
33 30 31
40 37 38
48 44 45
56 52 53
263 255 252
396 387 381
210 203 201
216 209 207
234 226 224
253 245 242
269 261 258
290 282 279
310 302 298
276 269 265
422 413 406
572 562 551
599 590 578
628 618 606
661 651 638
692 682 668
723 713 698
751 742 726
460 451 443
638 628 616
836 826 808
895 885 866
929 919 899
962 952 931
998 988 966
1034 1023 1000
1065 1055 1031
696 686 672
906 896 876
1128 1118 1092
1196 1186 1159
1256 1246 1217
1290 1281 1251
1332 1322 1291
1365 1355 1323
1409 1399 1366
975 965 943
1213 1203 1175
1450 1441 1406
1518 1508 1473
1588 1579 1541
1647 1638 1599
1689 1680 1639
1728 1719 1678
1771 1762 1720
1277 1267 1237
1539 1530 1493
1789 1781 1738
1865 1857 1812
1928 1919 1873
1996 1988 1941
2055 2047 2000
2100 2093 2045
2139 2133 2086
1618 1609 1570
1881 1873 1828
2136 2129 2083
2201 2195 2151
2259 2253 2210
2323 2317 2275
2379 2374 2331
2433 2428 2385
2468 2463 2421
1963 1955 1908
2217 2211 2168
2443 2438 2395
2511 2507 2464
2564 2559 2516
2618 2614 2571
2676 2672 2628
2726 2722 2679
2780 2777 2733
565 555 544
317 309 304
138 132 132
37 33 34
38 35 36
46 42 43
54 50 51
63 58 59
73 69 69
574 564 553
750 740 725
475 465 457
261 254 251
266 258 255
283 275 272
307 298 294
326 317 313
349 341 336
577 567 556
773 764 747
968 958 936
687 678 664
693 683 669
721 711 696
753 743 728
785 775 758
818 808 790
595 586 574
798 788 772
1021 1011 988
1226 1216 1187
1261 1251 1222
1299 1290 1259
1338 1329 1297
1378 1368 1336
1414 1404 1371
844 833 815
1069 1059 1035
1312 1302 1271
1560 1551 1514
1628 1619 1580
1676 1667 1627
1710 1701 1661
1750 1741 1700
1801 1792 1749
1136 1126 1100
1387 1377 1344
1647 1638 1599
1899 1890 1845
1980 1972 1925
2042 2034 1986
2084 2077 2029
2123 2116 2069
2156 2150 2104
1461 1451 1417
1722 1713 1672
1996 1988 1940
2238 2233 2189
2306 2300 2258
2361 2356 2314
2417 2412 2369
2457 2452 2409
2496 2491 2448
1803 1794 1751
2073 2066 2018
2319 2314 2271
2542 2537 2494
2609 2605 2561
2663 2659 2615
2716 2712 2669
2762 2759 2716
2798 2795 2751
2142 2135 2088
2384 2378 2336
2620 2616 2572
2826 2823 2780
2885 2882 2839
2937 2934 2891
2984 2982 2939
3033 3031 2989
3079 3076 3035
975 965 943
643 633 621
377 368 363
178 171 170
59 55 56
60 56 57
70 66 67
80 75 76
91 86 87
983 973 951
1204 1194 1166
859 849 831
547 537 527
318 310 306
324 315 311
342 334 329
364 356 350
388 379 373
987 977 955
1223 1213 1185
1445 1435 1401
1091 1081 1056
767 757 741
776 766 749
808 798 781
840 830 812
870 859 841
993 983 961
1237 1227 1198
1487 1478 1442
1710 1701 1661
1372 1362 1330
1384 1374 1341
1420 1410 1377
1462 1452 1418
1500 1491 1455
1020 1009 987
1262 1252 1223
1517 1507 1471
1782 1773 1731
2015 2007 1960
2046 2038 1991
2085 2078 2031
2125 2118 2070
2162 2155 2109
1316 1306 1275
1573 1564 1526
1834 1825 1782
2103 2096 2048
2337 2332 2290
2403 2398 2356
2442 2437 2394
2477 2473 2430
2511 2507 2464
1641 1632 1593
1917 1908 1862
2178 2172 2127
2417 2412 2369
2637 2633 2590
2703 2699 2656
2752 2748 2705
2787 2783 2740
2821 2818 2774
1991 1983 1936
2250 2244 2202
2487 2482 2439
2713 2709 2666
2911 2908 2866
2975 2972 2930
3022 3019 2977
3066 3063 3022
3097 3094 3053
2315 2310 2268
2556 2551 2508
2775 2771 2728
2983 2981 2938
3167 3165 3124
3219 3217 3177
3262 3260 3221
3306 3304 3266
3346 3344 3307
1455 1446 1411
1070 1060 1036
726 716 702
440 431 424
223 215 213
85 80 81
89 83 84
100 95 95
112 106 107
1467 1457 1423
1710 1701 1660
1321 1311 1280
948 938 917
623 613 601
375 367 361
383 374 368
404 395 389
430 421 414
1473 1463 1429
1730 1721 1680
1966 1958 1911
1589 1580 1542
1195 1185 1157
858 848 830
863 853 834
900 890 871
932 922 902
1483 1474 1438
1742 1733 1691
2011 2003 1956
2225 2218 2174
1862 1854 1810
1480 1470 1435
1491 1481 1446
1531 1521 1485
1568 1559 1521
1487 1478 1443
1749 1740 1698
2019 2012 1964
2272 2266 2224
2473 2468 2425
2158 2151 2106
2172 2166 2120
2209 2203 2158
2250 2244 2201
1516 1507 1471
1780 1772 1729
2051 2043 1996
2300 2295 2252
2535 2530 2487
2734 2730 2687
2757 2754 2710
2789 2786 2742
2820 2816 2773
1838 1829 1785
2105 2098 2050
2352 2347 2305
2583 2579 2536
2805 2801 2758
3001 2998 2956
3055 3053 3011
3084 3082 3040
3114 3111 3070
2175 2169 2124
2418 2413 2370
2649 2645 2602
2866 2863 2820
3065 3063 3021
3243 3241 3202
3292 3290 3252
3335 3334 3296
3362 3361 3324
2487 2482 2439
2711 2707 2664
2923 2920 2878
3121 3119 3078
3302 3301 3262
3460 3459 3424
3505 3504 3471
3541 3540 3508
3578 3577 3546
1985 1977 1930
1564 1555 1518
1165 1155 1128
814 804 787
511 502 493
276 268 265
117 112 112
123 117 117
135 129 128
1989 1981 1933
2223 2217 2172
1836 1827 1784
1425 1416 1382
1045 1035 1012
703 693 679
437 428 420
448 439 431
473 464 456
1992 1984 1937
2253 2248 2205
2464 2459 2416
2108 2101 2055
1697 1688 1648
1299 1289 1258
937 927 907
959 949 928
991 981 959
2006 1999 1951
2262 2257 2214
2497 2492 2449
2690 2686 2642
2365 2360 2317
1975 1967 1920
1583 1574 1536
1597 1588 1550
1641 1632 1593
2019 2011 1964
2266 2261 2218
2501 2497 2454
2729 2725 2682
2904 2901 2858
2603 2599 2556
2260 2254 2210
2273 2267 2224
2313 2308 2265
2021 2013 1965
2273 2268 2226
2512 2507 2464
2736 2732 2689
2947 2944 2902
3111 3109 3068
2844 2841 2798
2859 2856 2813
2892 2889 2846
2052 2045 1996
2299 2294 2251
2530 2526 2483
2753 2749 2706
2963 2960 2918
3157 3155 3115
3324 3323 3285
3339 3338 3300
3365 3364 3327
2355 2349 2307
2584 2580 2537
2808 2804 2761
3010 3008 2965
3200 3198 3158
3373 3371 3334
3529 3528 3495
3568 3567 3536
3592 3592 3561
2651 2647 2604
2863 2860 2817
3065 3062 3021
3254 3253 3213
3422 3420 3385
3578 3577 3546
3712 3711 3685
3748 3748 3724
3777 3777 3755
2472 2467 2424
2087 2080 2032
1670 1661 1622
1271 1261 1231
900 890 870
585 575 564
332 323 319
149 143 142
161 154 154
2481 2476 2433
2688 2684 2640
2348 2343 2300
1953 1945 1899
1529 1520 1484
1141 1131 1105
792 782 765
503 494 485
522 513 503
2487 2482 2439
2707 2703 2660
2891 2888 2846
2581 2577 2533
2213 2207 2163
1806 1798 1754
1400 1390 1357
1029 1019 996
1049 1039 1016
2490 2485 2442
2717 2713 2669
2926 2923 2880
3093 3091 3050
2810 2806 2763
2462 2457 2414
2081 2074 2027
1682 1673 1633
1705 1696 1656
2498 2493 2450
2720 2716 2673
2936 2933 2890
3129 3126 3085
3281 3280 3241
3022 3019 2977
2696 2692 2649
2348 2343 2301
2375 2370 2328
2506 2501 2458
2731 2727 2683
2942 2939 2896
3134 3132 3091
3315 3313 3275
3454 3453 3418
3216 3214 3175
2923 2920 2877
2943 2940 2898
2514 2510 2467
2735 2731 2688
2945 2942 2900
3144 3142 3101
3319 3318 3280
3483 3482 3448
3615 3614 3584
3402 3401 3365
3421 3420 3384
2531 2527 2483
2749 2745 2702
2959 2956 2914
3155 3153 3112
3332 3331 3293
3493 3492 3458
3641 3641 3612
3770 3769 3746
3784 3784 3762
2806 2803 2760
3012 3010 2967
3202 3200 3160
3376 3375 3338
3533 3532 3500
3679 3678 3651
3806 3806 3785
3920 3920 3906
3948 3948 3936
2907 2904 2861
2558 2554 2511
2189 2183 2137
1781 1772 1730
1371 1362 1329
1001 991 968
660 650 637
395 386 380
184 177 176
2906 2903 2860
3090 3088 3047
2794 2791 2747
2443 2438 2396
2062 2054 2007
1636 1627 1588
1239 1229 1201
877 867 848
561 551 541
2914 2911 2868
3114 3112 3071
3273 3271 3233
3004 3002 2959
2672 2668 2625
2314 2308 2266
1920 1912 1866
1507 1497 1461
1116 1106 1080
2921 2918 2875
3117 3115 3074
3299 3297 3259
3441 3440 3405
3200 3198 3158
2899 2896 2853
2559 2555 2511
2188 2181 2136
1769 1760 1718
2928 2925 2882
3126 3124 3083
3306 3304 3266
3471 3470 3435
3596 3596 3565
3378 3377 3340
3100 3098 3057
2786 2782 2739
2432 2427 2385
2933 2930 2887
3133 3131 3090
3310 3309 3271
3476 3475 3441
3623 3623 3593
3739 3739 3714
3540 3539 3507
3287 3285 3247
3001 2999 2956
2944 2941 2898
3135 3133 3092
3318 3317 3278
3480 3479 3444
3628 3628 3599
3763 3763 3740
3869 3869 3852
3689 3688 3661
3461 3460 3426
2943 2940 2898
3146 3143 3103
3320 3318 3281
3484 3483 3449
3633 3632 3603
3767 3767 3744
3887 3887 3871
3987 3987 3978
3821 3820 3800
2959 2956 2913
3147 3145 3104
3325 3324 3286
3490 3489 3455
3638 3638 3609
3771 3771 3748
3891 3891 3875
3998 3998 3989
4095 4095 4095
