src/luts/Casino_Royale_1_-_Rec709.3dl
# Created by Benjamin (IWLTBAP) : http://luts.iwltbap.com
# Copyright: (C) Copyright 2016 Triune Films and IWLTBAP
# Blockbuster LUTs Pack
0 256 512 768 1023
0 0 0
4 3 3
10 8 9
19 16 17
29 26 27
118 112 112
161 155 154
193 186 185
226 219 217
264 257 254
439 430 422
518 509 499
604 594 582
661 651 638
724 714 699
943 933 912
1056 1046 1022
1166 1156 1129
1287 1277 1247
1362 1352 1320
1580 1571 1533
1702 1693 1653
1833 1825 1781
1965 1957 1910
2085 2077 2028
263 256 253
19 17 18
27 24 25
40 37 38
56 52 53
276 269 265
572 562 551
628 618 606
692 682 668
751 742 726
696 686 672
1128 1118 1092
1256 1246 1217
1332 1322 1291
1409 1399 1366
1277 1267 1237
1789 1781 1738
1928 1919 1873
2055 2047 2000
2139 2133 2086
1963 1955 1908
2443 2438 2395
2564 2559 2516
2676 2672 2628
2780 2777 2733
975 965 943
377 368 363
59 55 56
70 66 67
91 86 87
987 977 955
1445 1435 1401
767 757 741
808 798 781
870 859 841
1020 1009 987
1517 1507 1471
2015 2007 1960
2085 2078 2031
2162 2155 2109
1641 1632 1593
2178 2172 2127
2637 2633 2590
2752 2748 2705
2821 2818 2774
2315 2310 2268
2775 2771 2728
3167 3165 3124
3262 3260 3221
3346 3344 3307
1985 1977 1930
1165 1155 1128
511 502 493
117 112 112
135 129 128
1992 1984 1937
2464 2459 2416
1697 1688 1648
937 927 907
991 981 959
2019 2011 1964
2501 2497 2454
2904 2901 2858
2260 2254 2210
2313 2308 2265
2052 2045 1996
2530 2526 2483
2963 2960 2918
3324 3323 3285
3365 3364 3327
2651 2647 2604
3065 3062 3021
3422 3420 3385
3712 3711 3685
3777 3777 3755
2907 2904 2861
2189 2183 2137
1371 1362 1329
660 650 637
184 177 176
2914 2911 2868
3273 3271 3233
2672 2668 2625
1920 1912 1866
1116 1106 1080
2928 2925 2882
3306 3304 3266
3596 3596 3565
3100 3098 3057
2432 2427 2385
2944 2941 2898
3318 3317 3278
3628 3628 3599
3869 3869 3852
3461 3460 3426
2959 2956 2913
3325 3324 3286
3638 3638 3609
3891 3891 3875
4095 4095 4095
