src/luts/Casino_Royale_1_-_Rec709.3dl
# Created by Benjamin (IWLTBAP) : http://luts.iwltbap.com
# Copyright: (C) Copyright 2016 Triune Films and IWLTBAP
# Blockbuster LUTs Pack
0 64 128 192 256 320 384 448 512 576 640 704 768 832 896 960 1023
0 0 0
1 0 1
1 1 1
3 2 2
4 3 3
5 4 5
6 5 6
8 7 7
10 8 9
11 10 10
14 12 13
16 14 15
19 16 17
21 18 19
24 21 22
27 24 25
29 26 27
11 9 10
14 12 13
16 14 15
20 17 18
22 19 20
25 22 23
28 25 26
31 28 29
34 30 31
37 34 35
41 38 39
46 42 43
48 44 45
54 50 51
57 53 54
62 58 59
67 62 63
33 30 31
39 36 37
46 42 43
50 46 47
54 50 51
57 53 54
62 58 59
67 63 63
72 68 68
77 73 73
83 78 79
89 84 84
94 89 89
100 95 95
104 98 98
110 104 104
117 111 112
69 65 66
77 72 73
85 80 81
93 88 88
100 94 95
106 100 101
113 107 107
120 115 115
126 120 120
131 125 125
139 133 133
146 140 139
154 147 147
159 152 152
167 161 160
173 167 166
181 174 173
118 112 112
126 121 120
137 131 130
150 144 143
161 155 154
169 163 162
176 170 169
186 179 178
193 186 185
201 194 193
212 204 203
218 211 209
226 219 217
235 227 225
244 236 234
257 249 246
264 257 254
180 173 172
190 183 182
205 198 196
216 209 207
233 226 223
246 239 236
255 247 245
263 255 253
277 269 266
286 278 275
295 287 283
303 295 291
314 306 302
324 316 312
339 330 325
346 337 332
359 351 345
254 246 243
265 257 254
285 277 273
300 292 288
316 308 304
330 321 317
350 342 337
361 352 347
373 365 359
385 376 370
395 387 380
405 396 389
421 412 405
431 422 415
441 432 424
453 444 436
469 460 451
340 331 326
360 351 346
375 367 361
395 386 380
409 400 394
430 421 414
449 440 432
468 459 451
479 470 461
494 485 476
508 499 490
524 515 505
536 527 517
547 537 527
564 555 544
575 565 554
587 577 566
439 430 422
455 446 438
477 467 459
501 492 483
518 509 499
539 529 519
562 552 542
586 576 565
604 594 582
618 608 596
636 627 614
651 642 629
661 651 638
682 672 658
696 686 672
706 696 682
724 714 699
548 538 528
566 557 546
590 580 569
618 608 596
634 624 612
660 650 637
684 674 660
708 698 684
730 720 705
758 748 732
773 763 746
789 779 762
806 796 779
820 810 792
836 826 808
850 840 821
868 858 839
670 660 647
696 686 672
716 706 692
738 728 713
766 756 740
789 779 762
815 805 788
841 831 813
870 860 841
894 884 865
918 908 888
938 928 908
958 948 927
970 960 939
988 978 956
1009 999 976
1029 1019 996
796 786 769
829 819 801
851 841 822
879 869 850
902 891 872
935 924 904
962 952 930
984 974 953
1012 1002 979
1043 1033 1009
1074 1064 1040
1096 1086 1061
1118 1108 1083
1132 1122 1097
1151 1141 1114
1166 1156 1129
1189 1180 1152
943 933 912
966 956 935
990 980 958
1027 1017 994
1056 1046 1022
1077 1067 1043
1105 1095 1070
1141 1131 1104
1166 1156 1129
1194 1184 1156
1227 1217 1188
1258 1248 1219
1287 1277 1247
1299 1289 1259
1320 1310 1279
1346 1336 1304
1362 1352 1320
1093 1083 1058
1113 1103 1078
1145 1135 1109
1181 1171 1144
1211 1201 1173
1231 1221 1193
1272 1262 1232
1291 1281 1251
1327 1317 1286
1357 1348 1316
1387 1378 1345
1421 1412 1378
1448 1438 1404
1479 1470 1435
1500 1491 1455
1527 1517 1481
1544 1535 1498
1244 1234 1205
1272 1262 1233
1301 1291 1261
1342 1332 1301
1362 1353 1321
1403 1394 1360
1430 1420 1386
1455 1446 1412
1495 1486 1450
1515 1506 1470
1556 1547 1509
1585 1576 1538
1618 1609 1570
1651 1642 1603
1674 1665 1625
1696 1687 1647
1717 1708 1668
1412 1402 1369
1442 1432 1398
1475 1466 1431
1499 1489 1454
1528 1519 1482
1565 1556 1518
1596 1587 1549
1626 1617 1578
1659 1650 1611
1699 1690 1650
1724 1715 1674
1757 1749 1706
1784 1775 1733
1828 1820 1776
1852 1844 1799
1878 1869 1825
1911 1903 1857
1580 1571 1533
1613 1604 1565
1632 1623 1585
1677 1668 1628
1702 1693 1653
1729 1720 1679
1767 1759 1716
1805 1797 1753
1833 1825 1781
1866 1858 1813
1895 1887 1841
1926 1918 1872
1965 1957 1910
1995 1987 1940
2032 2024 1976
2066 2058 2009
2085 2077 2028
22 20 20
3 2 2
3 3 3
4 4 4
6 5 5
8 6 7
10 8 9
11 10 10
13 11 12
16 14 14
18 16 17
20 18 19
23 21 22
27 24 25
29 27 27
32 29 30
35 32 33
22 20 21
42 38 39
47 43 44
52 48 49
56 52 52
59 55 56
64 59 60
69 65 65
75 71 71
79 74 74
85 80 81
91 86 86
97 92 92
103 98 98
106 100 101
113 107 108
122 116 116
52 49 49
81 77 77
93 88 88
99 93 94
104 98 98
109 104 104
117 111 111
122 116 116
130 124 124
137 131 131
143 137 136
150 144 143
158 151 151
164 158 157
171 165 164
179 173 171
188 181 180
95 89 90
135 129 128
148 142 141
157 151 150
166 160 159
174 168 167
183 176 175
190 183 182
197 190 189
204 197 195
216 209 207
224 217 215
234 226 224
239 232 230
248 241 238
261 253 251
271 264 260
147 141 141
198 191 189
215 208 206
230 223 221
242 235 232
253 245 242
260 252 249
270 263 259
280 272 269
290 282 279
300 292 288
312 303 299
323 315 310
333 325 320
342 333 328
357 348 343
367 358 353
216 209 207
280 272 269
295 287 283
313 305 301
331 322 318
342 334 329
356 348 342
368 359 354
378 369 363
393 385 378
400 391 385
412 403 397
425 416 409
438 429 422
451 442 434
464 454 446
474 465 457
298 290 286
366 358 352
385 376 370
408 399 393
423 414 407
445 436 428
464 455 447
475 465 457
490 481 472
502 492 484
518 509 499
529 519 510
544 535 524
554 545 535
566 557 546
584 574 563
599 590 578
390 381 375
469 460 452
493 484 475
511 502 493
530 521 511
557 547 537
577 568 557
596 587 575
616 606 594
630 621 608
644 634 621
657 647 634
674 664 650
689 680 666
704 694 680
719 709 694
737 727 711
500 490 481
580 570 559
607 598 586
629 620 607
655 646 633
676 667 653
701 692 677
728 718 703
753 743 728
765 755 739
785 775 759
797 787 770
809 799 782
829 819 801
846 836 818
858 848 829
878 868 849
610 600 589
711 701 687
733 723 708
759 749 733
788 778 761
811 801 784
835 825 808
861 851 833
890 880 861
916 906 886
930 920 899
948 938 917
966 956 934
988 977 955
997 987 965
1018 1008 985
1037 1027 1004
739 729 714
844 834 816
874 864 845
896 886 866
925 915 895
951 941 920
980 970 948
1002 992 969
1032 1022 999
1061 1051 1027
1090 1080 1055
1108 1098 1073
1122 1112 1087
1150 1140 1114
1161 1151 1124
1179 1169 1142
1204 1194 1166
877 867 848
984 974 952
1017 1007 984
1042 1032 1009
1076 1066 1041
1102 1092 1067
1131 1121 1095
1159 1149 1123
1185 1175 1148
1215 1206 1177
1251 1241 1212
1272 1262 1233
1294 1285 1254
1319 1309 1278
1335 1326 1294
1348 1339 1307
1371 1361 1329
1022 1012 989
1139 1129 1103
1169 1159 1132
1195 1185 1157
1228 1218 1189
1261 1251 1222
1285 1275 1245
1320 1310 1279
1350 1340 1309
1379 1370 1337
1405 1396 1363
1439 1430 1396
1468 1459 1424
1485 1475 1440
1513 1503 1467
1536 1527 1490
1547 1538 1501
1174 1164 1137
1302 1292 1261
1330 1320 1289
1357 1347 1316
1395 1385 1352
1415 1406 1372
1452 1442 1408
1488 1479 1443
1517 1507 1471
1544 1534 1498
1576 1566 1529
1613 1604 1566
1640 1631 1591
1666 1657 1618
1697 1688 1647
1716 1707 1666
1727 1718 1677
1333 1323 1292
1460 1450 1416
1488 1479 1444
1520 1511 1475
1554 1545 1508
1595 1586 1548
1626 1617 1578
1648 1639 1600
1683 1674 1634
1721 1712 1671
1744 1735 1694
1783 1774 1731
1812 1803 1760
1847 1838 1794
1881 1872 1827
1902 1894 1848
1916 1908 1862
1502 1492 1457
1629 1620 1581
1665 1656 1616
1696 1687 1646
1724 1715 1674
1755 1746 1704
1798 1790 1747
1825 1816 1773
1856 1847 1803
1886 1878 1833
1925 1916 1870
1960 1952 1905
1982 1974 1927
2019 2011 1963
2052 2044 1995
2077 2069 2020
2108 2102 2053
1671 1662 1622
1795 1786 1744
1836 1828 1784
1864 1856 1811
1904 1895 1850
1933 1924 1878
1965 1957 1910
2006 1998 1950
2036 2028 1980
2060 2052 2004
2092 2084 2035
2128 2121 2074
2159 2152 2106
2180 2174 2128
2210 2204 2160
2239 2234 2192
2275 2270 2228
73 68 69
30 27 28
7 6 6
7 6 7
9 7 8
11 9 10
12 10 11
15 13 14
17 15 16
20 17 18
23 20 21
25 22 23
28 25 26
31 28 29
35 32 33
38 34 35
42 38 39
73 68 69
106 100 101
58 54 55
60 56 57
65 61 62
69 65 65
73 69 70
78 73 74
84 79 80
92 87 87
95 90 90
101 96 96
107 102 102
113 107 107
121 115 115
127 121 121
134 128 128
76 71 72
112 106 107
150 143 143
160 154 153
167 160 159
176 169 168
185 178 177
192 185 183
200 193 191
208 201 199
215 208 206
225 218 216
235 227 225
244 237 234
254 247 244
261 253 250
274 267 263
124 118 118
172 165 164
224 217 215
239 231 229
250 242 240
258 251 248
270 262 259
277 269 266
287 279 276
298 290 286
309 300 296
320 311 307
329 320 316
342 333 328
349 341 336
359 351 345
371 363 357
184 177 176
244 236 234
305 297 293
322 314 310
341 332 327
353 345 339
363 355 349
372 364 358
383 374 368
397 388 382
409 400 394
421 412 405
433 424 417
444 435 427
457 448 440
472 463 454
485 476 467
259 251 248
326 318 313
400 391 384
420 411 404
440 431 424
457 448 440
475 466 458
483 474 466
498 489 480
512 503 494
525 516 506
538 528 518
552 542 532
564 555 544
580 570 559
592 582 571
604 594 583
350 342 337
422 413 407
501 492 483
529 519 510
550 541 531
572 562 551
595 585 574
607 598 586
623 613 601
638 628 616
653 643 630
670 660 647
681 671 657
695 685 671
713 704 689
722 712 698
739 729 714
445 436 429
532 523 513
625 616 603
648 639 626
670 660 647
697 687 673
721 711 696
743 734 718
762 752 736
778 768 751
796 786 769
808 798 781
826 816 798
842 832 814
853 843 825
875 865 846
891 881 861
562 552 542
655 645 632
750 740 724
777 767 751
806 796 779
831 821 803
853 843 825
882 872 853
909 899 879
925 915 895
945 935 914
961 951 929
980 970 948
994 984 962
1014 1004 981
1032 1022 998
1048 1038 1015
684 674 660
780 770 754
885 875 856
918 908 887
947 937 916
973 963 942
997 987 965
1031 1021 997
1053 1043 1019
1083 1073 1048
1097 1087 1062
1124 1114 1088
1138 1128 1102
1153 1143 1116
1173 1163 1136
1192 1183 1155
1208 1198 1170
816 806 788
924 914 894
1034 1024 1001
1069 1059 1035
1093 1083 1058
1127 1117 1091
1155 1145 1119
1181 1171 1144
1209 1199 1171
1240 1230 1201
1266 1257 1227
1290 1281 1250
1304 1294 1263
1330 1320 1289
1342 1333 1301
1369 1359 1327
1386 1377 1344
952 942 921
1070 1060 1035
1189 1179 1152
1225 1215 1187
1250 1240 1211
1284 1275 1244
1310 1300 1270
1346 1336 1304
1373 1363 1331
1399 1390 1357
1437 1427 1393
1469 1459 1424
1483 1474 1439
1501 1492 1456
1523 1514 1478
1548 1538 1501
1559 1550 1513
1103 1093 1068
1227 1217 1188
1351 1341 1309
1382 1373 1340
1411 1401 1368
1444 1434 1400
1477 1468 1432
1510 1500 1464
1536 1527 1490
1574 1565 1527
1597 1588 1550
1632 1623 1584
1664 1655 1615
1687 1678 1638
1700 1691 1651
1723 1714 1673
1746 1738 1696
1266 1256 1227
1393 1383 1350
1509 1499 1464
1548 1539 1502
1581 1572 1534
1612 1603 1565
1647 1638 1598
1672 1662 1623
1706 1697 1657
1744 1735 1693
1772 1763 1720
1801 1792 1749
1843 1834 1790
1863 1855 1810
1892 1883 1838
1904 1896 1851
1935 1927 1881
1420 1411 1377
1558 1549 1512
1683 1674 1633
1714 1705 1664
1749 1740 1698
1788 1779 1736
1818 1810 1766
1846 1837 1793
1878 1870 1825
1915 1907 1861
1947 1939 1892
1979 1971 1924
2006 1997 1950
2040 2032 1984
2077 2070 2021
2100 2093 2044
2115 2109 2060
1595 1586 1547
1724 1715 1674
1855 1846 1802
1892 1884 1839
1922 1913 1868
1956 1948 1902
1991 1983 1936
2025 2017 1969
2050 2042 1994
2081 2073 2025
2112 2106 2057
2146 2140 2092
2177 2171 2126
2207 2201 2157
2232 2226 2184
2268 2263 2220
2284 2279 2236
1772 1763 1721
1899 1890 1845
2025 2017 1969
2071 2065 2015
2096 2089 2040
2129 2123 2075
2155 2149 2102
2188 2182 2137
2216 2210 2167
2250 2245 2202
2277 2272 2229
2304 2298 2256
2333 2328 2286
2360 2354 2312
2388 2383 2341
2418 2413 2370
2446 2441 2398
151 145 144
87 82 82
39 36 37
13 11 11
12 10 11
14 12 13
16 14 15
19 17 17
22 19 20
25 22 23
28 25 26
31 28 29
34 31 32
37 34 34
41 37 38
46 42 43
49 45 46
154 147 147
203 196 194
127 121 121
74 70 70
73 68 69
78 73 74
83 79 79
89 84 84
93 88 89
99 94 94
107 101 101
112 107 107
118 113 113
124 118 118
133 127 127
139 132 132
