src/luts/Casino_Royale_2_-_Rec709.3dl
# Created by Benjamin (IWLTBAP) : http://luts.iwltbap.com
# Copyright: (C) Copyright 2016 Triune Films and IWLTBAP
# Blockbuster LUTs Pack
0 64 128 192 256 320 384 448 512 576 640 704 768 832 896 960 1023
19 19 83
23 23 87
26 26 89
28 28 91
29 29 92
32 32 96
37 37 100
38 38 101
48 48 110
44 44 106
53 53 115
54 54 115
65 65 126
63 63 124
61 61 122
67 67 128
78 78 138
30 30 94
34 34 97
40 40 103
43 43 105
50 50 112
46 46 108
52 52 113
53 53 115
65 65 125
63 63 124
65 65 125
64 64 125
70 70 130
79 79 139
87 87 147
89 89 148
87 87 146
41 41 103
39 39 102
54 54 116
50 50 112
58 58 119
61 61 122
63 63 124
68 68 128
72 72 132
80 80 139
83 83 143
90 90 149
86 86 146
102 102 160
102 102 160
127 127 183
130 130 186
54 54 115
60 60 121
64 64 124
68 68 129
75 75 135
73 73 133
83 83 143
84 84 144
90 90 149
94 94 153
106 106 164
104 104 162
120 120 176
137 137 193
150 150 205
169 169 223
181 181 234
63 63 124
69 69 129
78 78 138
84 84 143
87 87 146
88 88 147
97 97 155
96 96 155
102 102 161
114 114 172
134 134 190
156 156 211
176 176 229
194 194 246
214 214 264
230 230 279
243 243 291
72 72 132
84 84 144
85 85 144
91 91 150
113 113 171
119 119 176
131 131 188
136 136 192
155 155 210
171 171 225
197 197 248
216 216 266
230 230 280
258 258 306
282 282 328
301 301 345
327 327 370
95 95 154
91 91 150
103 103 161
130 130 186
144 144 199
175 175 228
189 189 241
206 206 257
221 221 271
244 244 292
262 262 309
291 291 336
306 306 350
332 332 374
349 349 390
368 368 408
406 406 443
105 105 163
116 116 173
139 139 195
163 163 217
196 196 247
230 230 279
246 246 294
269 269 316
295 295 340
326 326 368
340 340 382
366 366 406
372 372 412
400 400 437
429 429 464
462 462 495
481 481 513
134 134 190
141 141 197
182 182 234
209 209 260
242 242 290
282 282 328
309 309 352
340 340 381
378 378 416
398 398 436
410 410 447
431 431 466
460 460 493
480 480 512
505 505 535
530 530 558
574 574 600
159 159 213
192 192 244
224 224 274
255 255 302
290 290 335
324 324 367
362 362 402
400 400 437
438 438 472
471 471 504
502 502 532
521 521 550
538 538 566
565 565 591
594 594 617
627 627 649
650 650 670
206 206 257
245 245 294
279 279 325
298 298 343
331 331 373
368 368 408
417 417 453
466 466 498
500 500 530
540 540 568
581 581 605
600 600 623
629 629 650
664 664 683
681 681 699
715 715 730
750 750 763
261 261 308
298 298 343
327 327 369
345 345 386
373 373 412
420 420 456
466 466 499
514 514 543
569 569 594
604 604 627
641 641 661
694 694 711
725 725 740
756 756 769
785 785 795
831 831 838
876 876 880
307 307 350
351 351 392
362 362 402
406 406 443
436 436 471
489 489 520
530 530 558
583 583 608
638 638 659
678 678 696
727 727 742
774 774 786
831 831 839
871 871 876
909 909 911
936 936 935
976 976 973
347 347 388
394 394 432
420 420 456
455 455 488
509 509 538
556 556 583
609 609 632
648 648 668
690 690 707
737 737 751
798 798 808
856 856 862
924 924 925
981 981 978
1011 1011 1006
1064 1064 1055
1114 1114 1102
392 392 430
442 442 476
476 476 508
517 517 546
563 563 589
611 611 634
661 661 680
713 713 729
769 769 781
819 819 827
880 880 884
946 946 945
1013 1013 1007
1076 1076 1066
1119 1119 1106
1170 1170 1154
1214 1214 1195
451 451 485
501 501 531
540 540 567
572 572 598
633 633 654
672 672 690
727 727 741
787 787 797
833 833 840
892 892 895
956 956 954
1020 1020 1014
1095 1095 1084
1162 1162 1147
1222 1222 1202
1282 1282 1258
1326 1326 1298
516 516 545
544 544 572
591 591 615
644 644 664
702 702 718
749 749 762
808 808 817
844 844 851
919 919 920
990 990 986
1044 1044 1037
1111 1111 1098
1169 1169 1153
1239 1239 1218
1311 1311 1285
1369 1369 1338
1439 1439 1403
24 24 87
27 27 91
36 36 99
37 37 99
39 39 102
44 44 106
43 43 105
46 46 108
59 59 120
61 61 122
60 60 121
66 66 127
65 65 126
74 74 134
85 85 145
97 97 155
91 91 150
31 31 94
45 45 107
42 42 105
48 48 110
54 54 116
59 59 120
59 59 121
66 66 126
71 71 131
75 75 135
79 79 138
91 91 150
101 101 159
118 118 175
136 136 192
148 148 203
168 168 222
48 48 110
56 56 117
53 53 114
66 66 126
65 65 126
70 70 130
77 77 137
87 87 146
91 91 150
107 107 164
121 121 178
137 137 193
153 153 207
180 180 232
190 190 242
209 209 260
224 224 274
57 57 118
69 69 130
66 66 127
85 85 144
84 84 144
97 97 155
111 111 169
122 122 179
131 131 187
153 153 208
170 170 223
201 201 253
222 222 272
242 242 290
261 261 308
270 270 317
293 293 338
76 76 136
76 76 137
93 93 152
114 114 172
144 144 200
156 156 211
169 169 222
179 179 232
199 199 251
227 227 276
247 247 295
274 274 321
294 294 339
311 311 354
334 334 376
359 359 399
361 361 401
86 86 145
101 101 159
136 136 192
168 168 222
200 200 251
222 222 272
235 235 284
249 249 297
271 271 317
291 291 336
317 317 361
353 353 393
365 365 405
398 398 436
417 417 454
440 440 474
446 446 480
119 119 176
143 143 199
184 184 236
214 214 265
256 256 304
278 278 324
308 308 352
332 332 374
350 350 391
384 384 422
405 405 442
427 427 462
450 450 484
481 481 512
498 498 529
521 521 549
540 540 567
164 164 218
202 202 253
243 243 291
275 275 321
313 313 356
347 347 388
379 379 418
408 408 445
431 431 466
464 464 497
487 487 519
517 517 546
536 536 564
565 565 591
582 582 606
613 613 636
642 642 662
212 212 263
258 258 305
297 297 342
336 336 378
373 373 412
404 404 441
438 438 473
475 475 507
518 518 547
545 545 572
572 572 597
596 596 620
618 618 641
639 639 659
672 672 690
722 722 736
744 744 757
269 269 315
311 311 355
354 354 395
379 379 418
421 421 457
465 465 498
502 502 532
546 546 573
578 578 603
619 619 641
659 659 678
675 675 693
696 696 713
730 730 745
766 766 778
809 809 818
849 849 855
330 330 372
370 370 410
410 410 447
432 432 467
473 473 505
514 514 544
558 558 584
600 600 623
651 651 671
698 698 714
745 745 758
778 778 789
810 810 819
842 842 848
887 887 890
947 947 946
993 993 989
387 387 425
428 428 463
464 464 497
489 489 520
527 527 556
571 571 596
627 627 648
676 676 694
727 727 741
779 779 790
832 832 839
888 888 891
925 925 925
989 989 985
1026 1026 1020
1089 1089 1078
1131 1131 1117
447 447 481
486 486 517
514 514 544
557 557 583
598 598 621
644 644 664
703 703 719
750 750 763
810 810 819
878 878 882
934 934 934
996 996 992
1073 1073 1063
1108 1108 1096
1159 1159 1144
1209 1209 1190
1264 1264 1241
505 505 535
535 535 563
594 594 618
632 632 653
670 670 688
725 725 739
779 779 790
834 834 841
902 902 905
971 971 969
1038 1038 1030
1114 1114 1101
1169 1169 1153
1244 1244 1222
1288 1288 1264
1321 1321 1294
1358 1358 1329
538 538 566
608 608 631
642 642 663
704 704 720
747 747 760
808 808 817
862 862 867
932 932 932
991 991 987
1065 1065 1056
1125 1125 1112
1197 1197 1179
1250 1250 1228
1316 1316 1289
1387 1387 1355
1431 1431 1396
1482 1482 1444
615 615 637
656 656 676
722 722 737
769 769 781
840 840 847
891 891 894
944 944 944
1028 1028 1022
1085 1085 1075
1171 1171 1154
1228 1228 1208
1289 1289 1264
1359 1359 1329
1433 1433 1398
1488 1488 1449
1560 1560 1516
1612 1612 1565
686 686 704
749 749 762
797 797 806
857 857 862
924 924 924
982 982 978
1057 1057 1048
1121 1121 1108
1198 1198 1179
1261 1261 1239
1334 1334 1306
1400 1400 1367
1455 1455 1418
1506 1506 1466
1585 1585 1540
1668 1668 1617
1724 1724 1669
30 30 93
35 35 98
44 44 106
46 46 109
47 47 109
51 51 113
56 56 117
61 61 122
66 66 127
77 77 137
91 91 150
93 93 152
112 112 169
126 126 182
147 147 202
165 165 219
178 178 231
44 44 106
46 46 108
59 59 120
57 57 119
69 69 129
76 76 136
81 81 141
96 96 155
112 112 169
133 133 189
138 138 193
158 158 212
182 182 234
193 193 245
228 228 277
246 246 295
256 256 304
51 51 113
59 59 120
76 76 136
95 95 154
104 104 162
123 123 179
144 144 200
154 154 209
175 175 228
192 192 244
213 213 264
238 238 286
250 250 298
286 286 331
300 300 345
327 327 370
335 335 376
77 77 137
91 91 150
118 118 175
146 146 202
167 167 221
184 184 236
205 205 256
226 226 275
244 244 292
270 270 317
283 283 329
305 305 349
332 332 374
367 367 406
378 378 417
409 409 446
418 418 454
110 110 167
137 137 193
174 174 227
205 205 256
238 238 287
256 256 304
283 283 328
289 289 335
318 318 361
350 350 391
376 376 415
407 407 444
434 434 469
455 455 489
477 477 509
495 495 526
519 519 548
155 155 209
188 188 240
231 231 280
267 267 313
300 300 344
323 323 366
352 352 393
369 369 409
403 403 440
428 428 463
466 466 499
496 496 526
527 527 556
551 551 578
568 568 594
593 593 617
624 624 645
201 201 252
250 250 298
293 293 338
329 329 372
369 369 409
400 400 437
428 428 463
459 459 492
500 500 530
537 537 565
565 565 590
606 606 629
630 630 652
643 643 663
673 673 692
692 692 709
726 726 741
270 270 317
310 310 354
353 353 393
397 397 435
432 432 467
464 464 496
508 508 538
555 555 581
595 595 618
632 632 653
666 666 684
694 694 711
725 725 740
748 748 761
772 772 783
802 802 812
844 844 851
333 333 375
370 370 409
423 423 458
461 461 494
499 499 530
539 539 567
575 575 600
629 629 650
685 685 702
718 718 733
758 758 770
784 784 795
803 803 812
843 843 849
882 882 886
923 923 924
968 968 965
389 389 428
434 434 469
481 481 512
516 516 545
566 566 592
599 599 623
649 649 669
701 701 717
748 748 761
812 812 821
847 847 853
881 881 885
902 902 905
943 943 942
1002 1002 998
1062 1062 1053
1100 1100 1088
448 448 482
509 509 539
554 554 581
582 582 607
624 624 646
675 675 693
728 728 742
784 784 794
843 843 850
896 896 899
948 948 947
989 989 985
1031 1031 1024
1081 1081 1071
1140 1140 1126
1207 1207 1188
1252 1252 1230
520 520 549
563 563 589
615 615 637
652 652 672
709 709 725
762 762 774
814 814 823
864 864 869
924 924 925
995 995 990
1063 1063 1054
1131 1131 1117
1186 1186 1168
1235 1235 1214
1296 1296 1271
1359 1359 1329
1400 1400 1367
589 589 613
640 640 660
684 684 702
730 730 745
787 787 797
845 845 852
899 899 902
963 963 961
1038 1038 1031
1106 1106 1094
1184 1184 1166
1250 1250 1228
1329 1329 1302
1384 1384 1353
1452 1452 1416
1499 1499 1459
1523 1523 1482
657 657 676
706 706 722
767 767 779
817 817 825
875 875 879
938 938 938
992 992 988
1068 1068 1059
1144 1144 1129
1221 1221 1201
1297 1297 1272
1375 1375 1344
1429 1429 1394
1504 1504 1464
1571 1571 1527
1613 1613 1565
1657 1657 1606
718 718 733
794 794 804
841 841 847
913 913 915
965 965 963
1034 1034 1027
1103 1103 1091
1187 1187 1169
1249 1249 1227
1336 1336 1308
1395 1395 1363
1472 1472 1435
1540 1540 1498
1596 1596 1550
1663 1663 1612
1710 1710 1655
1762 1762 1704
796 796 805
878 878 882
947 947 946
1024 1024 1018
1069 1069 1060
1151 1151 1136
1215 1215 1196
1308 1308 1282
1377 1377 1346
1449 1449 1413
1502 1502 1463
1566 1566 1522
1635 1635 1586
1711 1711 1657
1772 1772 1714
1834 1834 1772
1897 1897 1830
866 866 871
957 957 955
1029 1029 1023
1107 1107 1095
1188 1188 1170
1272 1272 1248
1339 1339 1311
1409 1409 1376
1471 1471 1433
1540 1540 1498
1603 1603 1556
1687 1687 1634
1751 1751 1694
1813 1813 1751
1890 1890 1824
1966 1966 1894
2032 2032 1955
42 42 104
39 39 101
43 43 105
58 58 119
68 68 128
90 90 149
99 99 157
121 121 178
138 138 194
142 142 197
158 158 213
168 168 221
188 188 240
211 211 262
242 242 291
260 260 307
279 279 325
55 55 116
66 66 127
79 79 139
114 114 171
130 130 186
145 145 201
165 165 218
195 195 246
208 208 258
226 226 276
236 236 285
247 247 295
274 274 321
303 303 347
335 335 377
340 340 382
