src/luts/Casino_Royale_2_-_Rec709.3dl
# Created by Benjamin (IWLTBAP) : http://luts.iwltbap.com
# Copyright: (C) Copyright 2016 Triune Films and IWLTBAP
# Blockbuster LUTs Pack
0 128 256 384 512 640 768 896 1023
19 19 83
26 26 89
29 29 92
37 37 100
48 48 110
53 53 115
65 65 126
61 61 122
78 78 138
41 41 103
54 54 116
58 58 119
63 63 124
72 72 132
83 83 143
86 86 146
102 102 160
130 130 186
63 63 124
78 78 138
87 87 146
97 97 155
102 102 161
134 134 190
176 176 229
214 214 264
243 243 291
95 95 154
103 103 161
144 144 199
189 189 241
221 221 271
262 262 309
306 306 350
349 349 390
406 406 443
134 134 190
182 182 234
242 242 290
309 309 352
378 378 416
410 410 447
460 460 493
505 505 535
574 574 600
206 206 257
279 279 325
331 331 373
417 417 453
500 500 530
581 581 605
629 629 650
681 681 699
750 750 763
307 307 350
362 362 402
436 436 471
530 530 558
638 638 659
727 727 742
831 831 839
909 909 911
976 976 973
392 392 430
476 476 508
563 563 589
661 661 680
769 769 781
880 880 884
1013 1013 1007
1119 1119 1106
1214 1214 1195
516 516 545
591 591 615
702 702 718
808 808 817
919 919 920
1044 1044 1037
1169 1169 1153
1311 1311 1285
1439 1439 1403
30 30 93
44 44 106
47 47 109
56 56 117
66 66 127
91 91 150
112 112 169
147 147 202
178 178 231
51 51 113
76 76 136
104 104 162
144 144 200
175 175 228
213 213 264
250 250 298
300 300 345
335 335 376
110 110 167
174 174 227
238 238 287
283 283 328
318 318 361
376 376 415
434 434 469
477 477 509
519 519 548
201 201 252
293 293 338
369 369 409
428 428 463
500 500 530
565 565 590
630 630 652
673 673 692
726 726 741
333 333 375
423 423 458
499 499 530
575 575 600
685 685 702
758 758 770
803 803 812
882 882 886
968 968 965
448 448 482
554 554 581
624 624 646
728 728 742
843 843 850
948 948 947
1031 1031 1024
1140 1140 1126
1252 1252 1230
589 589 613
684 684 702
787 787 797
899 899 902
1038 1038 1031
1184 1184 1166
1329 1329 1302
1452 1452 1416
1523 1523 1482
718 718 733
841 841 847
965 965 963
1103 1103 1091
1249 1249 1227
1395 1395 1363
1540 1540 1498
1663 1663 1612
1762 1762 1704
866 866 871
1029 1029 1023
1188 1188 1170
1339 1339 1311
1471 1471 1433
1603 1603 1556
1751 1751 1694
1890 1890 1824
2032 2032 1955
57 57 118
92 92 151
146 146 201
190 190 242
229 229 278
252 252 300
281 281 326
342 342 383
393 393 431
161 161 215
222 222 271
294 294 339
346 346 387
399 399 436
443 443 477
498 498 528
565 565 590
640 640 661
292 292 337
378 378 417
473 473 506
541 541 568
616 616 638
702 702 718
774 774 785
852 852 857
918 918 919
425 425 460
526 526 555
641 641 662
758 758 771
871 871 876
977 977 974
1062 1062 1053
1135 1135 1121
1234 1234 1213
584 584 608
712 712 727
844 844 850
981 981 978
1125 1125 1111
1219 1219 1199
1314 1314 1287
1431 1431 1396
1528 1528 1486
752 752 764
910 910 912
1071 1071 1062
1185 1185 1167
1345 1345 1316
1501 1501 1462
1602 1602 1556
1717 1717 1662
1810 1810 1749
951 951 949
1120 1120 1107
1280 1280 1256
1409 1409 1376
1586 1586 1540
1749 1749 1692
1884 1884 1818
2009 2009 1934
2093 2093 2012
1165 1165 1149
1332 1332 1304
1513 1513 1472
1656 1656 1605
1824 1824 1762
1986 1986 1912
2127 2127 2044
2280 2280 2186
2394 2394 2292
1359 1359 1329
1556 1556 1513
1761 1761 1703
1912 1912 1844
2061 2061 1982
2225 2225 2135
2390 2390 2288
2562 2562 2448
2702 2702 2578
188 188 240
253 253 301
328 328 370
394 394 432
454 454 487
508 508 538
581 581 606
633 633 654
713 713 728
330 330 372
437 437 471
524 524 552
627 627 649
704 704 720
782 782 793
873 873 878
955 955 954
1055 1055 1047
520 520 549
651 651 671
790 790 800
907 907 909
1008 1008 1003
1112 1112 1100
1203 1203 1185
1323 1323 1296
1424 1424 1390
735 735 748
887 887 890
1061 1061 1052
1230 1230 1209
1338 1338 1310
1441 1441 1406
1562 1562 1518
1677 1677 1626
1787 1787 1728
948 948 947
1135 1135 1121
1321 1321 1294
1490 1490 1451
1657 1657 1607
1777 1777 1718
1892 1892 1825
1993 1993 1919
2116 2116 2034
1197 1197 1179
1386 1386 1354
1574 1574 1529
1754 1754 1697
1936 1936 1866
2097 2097 2016
2203 2203 2114
2314 2314 2218
2407 2407 2304
1427 1427 1392
1620 1620 1572
1821 1821 1759
2021 2021 1945
2184 2184 2096
2344 2344 2245
2498 2498 2389
2613 2613 2495
2690 2690 2567
1643 1643 1593
1843 1843 1780
2062 2062 1983
2255 2255 2163
2432 2432 2327
2584 2584 2469
2722 2722 2597
2854 2854 2720
2946 2946 2805
1855 1855 1790
2074 2074 1994
2280 2280 2186
2489 2489 2380
2663 2663 2542
2802 2802 2671
2941 2941 2801
3061 3061 2912
3177 3177 3020
369 369 409
455 455 489
554 554 581
660 660 679
763 763 775
856 856 861
937 937 936
1027 1027 1020
1132 1132 1118
581 581 606
716 716 731
847 847 853
972 972 970
1109 1109 1097
1217 1217 1198
1299 1299 1273
1413 1413 1380
1521 1521 1480
852 852 858
1012 1012 1007
1171 1171 1154
1322 1322 1295
1471 1471 1433
1570 1570 1525
1682 1682 1630
1814 1814 1753
1910 1910 1842
1105 1105 1093
1294 1294 1269
1491 1491 1452
1669 1669 1618
1830 1830 1768
1950 1950 1879
2063 2063 1984
2210 2210 2120
2319 2319 2222
1373 1373 1342
1591 1591 1545
1816 1816 1754
2009 2009 1934
2213 2213 2124
2329 2329 2232
2446 2446 2340
2567 2567 2452
2671 2671 2550
1664 1664 1613
1880 1880 1814
2104 2104 2022
2307 2307 2211
2506 2506 2396
2657 2657 2537
2767 2767 2639
2852 2852 2718
2930 2930 2790
1927 1927 1857
2145 2145 2060
2352 2352 2253
2560 2560 2447
2743 2743 2616
2881 2881 2745
3005 3005 2860
3077 3077 2927
3164 3164 3008
2162 2162 2076
2375 2375 2274
2579 2579 2464
2771 2771 2642
2953 2953 2812
3060 3060 2911
3157 3157 3001
3259 3259 3097
3342 3342 3174
2374 2374 2274
2605 2605 2488
2786 2786 2657
2970 2970 2828
3136 3136 2982
3232 3232 3072
3334 3334 3166
3416 3416 3242
3486 3486 3308
612 612 635
731 731 745
866 866 871
987 987 983
1122 1122 1109
1248 1248 1226
1337 1337 1309
1454 1454 1417
1575 1575 1530
902 902 904
1070 1070 1060
1215 1215 1196
1361 1361 1331
1511 1511 1470
1665 1665 1614
1772 1772 1713
1891 1891 1824
1985 1985 1911
1226 1226 1206
1388 1388 1356
1570 1570 1525
1733 1733 1677
1903 1903 1835
2062 2062 1983
2177 2177 2090
2313 2313 2216
2407 2407 2304
1490 1490 1451
1694 1694 1641
1913 1913 1845
2103 2103 2021
2283 2283 2188
2430 2430 2325
2556 2556 2442
2669 2669 2548
2763 2763 2635
1809 1809 1748
2044 2044 1966
2251 2251 2159
2456 2456 2349
2646 2646 2526
2777 2777 2648
2879 2879 2743
2978 2978 2835
3080 3080 2930
2129 2129 2045
2355 2355 2255
2574 2574 2459
2754 2754 2626
2902 2902 2764
3056 3056 2908
3143 3143 2988
3234 3234 3073
3304 3304 3139
2418 2418 2314
2599 2599 2483
2802 2802 2671
2967 2967 2824
3115 3115 2963
3232 3232 3071
3327 3327 3159
3389 3389 3217
3454 3454 3278
2652 2652 2532
2822 2822 2690
2995 2995 2851
3154 3154 2999
3278 3278 3114
3389 3389 3217
3452 3452 3276
3528 3528 3347
3580 3580 3395
2851 2851 2717
3023 3023 2877
3184 3184 3027
3323 3323 3156
3425 3425 3251
3516 3516 3336
3578 3578 3393
3634 3634 3445
3678 3678 3487
928 928 928
1052 1052 1044
1200 1200 1181
1370 1370 1340
1529 1529 1488
1655 1655 1605
1796 1796 1736
1900 1900 1833
2013 2013 1938
1254 1254 1232
1454 1454 1417
1603 1603 1556
1765 1765 1707
1936 1936 1865
2103 2103 2022
2249 2249 2157
2350 2350 2251
2448 2448 2342
1601 1601 1555
1799 1799 1738
1995 1995 1921
2144 2144 2060
2319 2319 2222
2489 2489 2381
2629 2629 2511
2729 2729 2603
2817 2817 2685
1920 1920 1851
2141 2141 2057
2340 2340 2242
2503 2503 2393
2673 2673 2551
2807 2807 2676
2923 2923 2784
3020 3020 2874
3113 3113 2961
2249 2249 2157
2467 2467 2360
2642 2642 2522
2822 2822 2690
2983 2983 2840
3083 3083 2933
3185 3185 3028
3262 3262 3099
3337 3337 3169
2550 2550 2437
2739 2739 2612
2912 2912 2773
3069 3069 2920
3205 3205 3046
3319 3319 3153
3392 3392 3220
3455 3455 3279
3504 3504 3324
2815 2815 2683
2975 2975 2832
3127 3127 2974
3262 3262 3099
3373 3373 3203
3467 3467 3290
3542 3542 3360
3599 3599 3412
3642 3642 3452
3013 3013 2867
3170 3170 3014
3305 3305 3139
3404 3404 3232
3493 3493 3314
3584 3584 3399
3658 3658 3467
3704 3704 3510
3730 3730 3534
3192 3192 3035
3323 3323 3156
3438 3438 3263
3524 3524 3343
3615 3615 3428
3680 3680 3488
3744 3744 3547
3778 3778 3579
3812 3812 3611
1269 1269 1245
1420 1420 1386
1582 1582 1537
1750 1750 1693
1901 1901 1833
2065 2065 1986
2210 2210 2121
2356 2356 2257
2462 2462 2355
1626 1626 1578
1834 1834 1771
2007 2007 1932
2155 2155 2070
2332 2332 2234
2488 2488 2379
2602 2602 2485
2747 2747 2621
2841 2841 2708
1995 1995 1921
2208 2208 2119
2413 2413 2310
2552 2552 2439
2690 2690 2567
2823 2823 2691
2937 2937 2797
3032 3032 2886
3120 3120 2967
2336 2336 2238
2550 2550 2437
2723 2723 2598
2894 2894 2757
2995 2995 2851
3111 3111 2959
3210 3210 3051
3285 3285 3120
3353 3353 3184
2631 2631 2513
2814 2814 2682
2981 2981 2838
3130 3130 2976
3250 3250 3088
3332 3332 3164
3404 3404 3232
3473 3473 3296
3528 3528 3346
2890 2890 2753
3044 3044 2897
3193 3193 3035
3321 3321 3154
3417 3417 3244
3506 3506 3327
3568 3568 3384
3621 3621 3433
3663 3663 3472
3098 3098 2946
3241 3241 3080
3358 3358 3188
3461 3461 3285
3560 3560 3376
3622 3622 3434
3688 3688 3496
3728 3728 3532
3760 3760 3562
3292 3292 3127
3406 3406 3233
3506 3506 3326
3582 3582 3397
3652 3652 3462
3723 3723 3528
3772 3772 3574
3810 3810 3608
3846 3846 3642
3431 3431 3256
3518 3518 3337
3612 3612 3424
3680 3680 3488
3749 3749 3552
3787 3787 3588
3835 3835 3633
3861 3861 3656
3883 3883 3676
1620 1620 1572
1785 1785 1726
1943 1943 1872
2084 2084 2004
2260 2260 2168
2430 2430 2325
2575 2575 2461
2705 2705 2581
2817 2817 2685
1993 1993 1919
2231 2231 2141
2385 2385 2284
2525 2525 2413
2676 2676 2554
2814 2814 2683
2925 2925 2785
3037 3037 2890
3150 3150 2995
2355 2355 2256
2573 2573 2458
2761 2761 2633
2904 2904 2766
3012 3012 2867
3128 3128 2975
3220 3220 3060
3297 3297 3132
3379 3379 3208
2673 2673 2552
2881 2881 2745
3047 3047 2900
3177 3177 3020
3262 3262 3099
3341 3341 3173
3417 3417 3244
3482 3482 3304
3541 3541 3358
2952 2952 2811
3112 3112 2960
3247 3247 3085
3364 3364 3194
3457 3457 3280
3519 3519 3338
3583 3583 3398
3633 3633 3444
3670 3670 3479
3167 3167 3011
3299 3299 3134
3402 3402 3229
3503 3503 3323
3576 3576 3391
3655 3655 3465
3703 3703 3509
3748 3748 3551
3777 3777 3578
3348 3348 3179
3447 3447 3272
3542 3542 3359
3616 3616 3428
3690 3690 3497
3733 3733 3537
3786 3786 3587
3820 3820 3619
3849 3849 3645
3490 3490 3311
3579 3579 3394
3642 3642 3453
3718 3718 3523
3764 3764 3566
3807 3807 3606
3847 3847 3643
3870 3870 3664
3883 3883 3677
3592 3592 3406
3680 3680 3487
3738 3738 3542
3787 3787 3588
3828 3828 3625
3867 3867 3662
3890 3890 3683
3906 3906 3698
3918 3918 3709
