src/luts/Drive_-_Rec709.3dl
# Created by Benjamin (IWLTBAP) : http://luts.iwltbap.com
# Copyright: (C) Copyright 2016 Triune Films and IWLTBAP
# Blockbuster LUTs Pack
0 128 256 384 512 640 768 896 1023
0 0 4
0 0 299
0 9 614
0 85 954
0 180 1297
3 244 1636
9 278 1991
13 347 2359
16 424 2700
5 349 41
0 353 369
0 380 705
0 429 1040
0 494 1374
0 568 1721
0 606 2057
12 660 2415
26 741 2764
40 686 81
4 726 443
0 732 782
0 752 1120
0 804 1468
0 877 1813
6 944 2157
28 1028 2523
39 1108 2858
84 1034 134
53 1079 500
1 1119 883
0 1105 1218
0 1130 1561
0 1194 1894
17 1287 2250
31 1390 2617
41 1480 2954
148 1387 201
122 1439 559
58 1499 994
0 1509 1334
0 1506 1658
11 1557 1994
27 1667 2367
38 1763 2727
59 1840 3058
206 1773 291
173 1832 644
138 1918 1092
116 1999 1502
60 1989 1816
28 2008 2150
36 2062 2496
50 2123 2840
86 2180 3154
265 2190 427
227 2244 755
236 2334 1149
268 2433 1619
242 2476 1987
172 2452 2292
102 2456 2625
114 2475 2942
158 2521 3246
387 2596 546
370 2641 859
382 2707 1211
409 2795 1663
439 2861 2090
365 2858 2425
293 2856 2755
257 2854 3050
250 2868 3335
556 2964 625
534 2994 934
529 3046 1267
542 3120 1697
579 3193 2138
538 3215 2488
472 3214 2820
418 3220 3148
405 3224 3425
272 0 0
263 0 309
220 2 629
211 62 959
209 121 1288
230 160 1630
242 213 1994
250 295 2360
258 401 2701
303 344 4
239 370 395
204 390 735
201 448 1067
201 513 1401
210 563 1740
217 589 2086
220 650 2439
235 743 2778
294 697 50
256 736 432
199 754 822
194 771 1151
195 828 1497
204 898 1843
220 964 2195
232 1032 2551
250 1124 2886
331 1048 96
305 1084 475
224 1141 904
191 1129 1248
194 1154 1587
209 1225 1929
229 1326 2296
255 1429 2662
290 1522 2996
405 1414 168
375 1447 540
312 1524 993
243 1553 1371
207 1547 1696
226 1607 2040
259 1713 2413
284 1803 2769
315 1878 3093
487 1816 289
444 1853 632
401 1941 1067
376 2040 1520
323 2050 1867
271 2061 2197
278 2101 2537
304 2160 2879
349 2220 3190
565 2239 435
512 2264 752
504 2348 1127
530 2456 1610
513 2515 2016
440 2498 2341
369 2493 2664
380 2515 2981
426 2564 3282
706 2646 541
661 2668 855
656 2720 1195
670 2802 1625
706 2880 2096
634 2897 2455
569 2897 2791
548 2900 3088
534 2915 3375
885 3009 633
835 3029 936
807 3058 1261
809 3131 1667
845 3218 2134
825 3255 2502
756 3262 2842
697 3257 3172
682 3259 3451
682 23 0
712 12 295
673 23 622
517 75 972
498 131 1298
510 167 1631
521 203 1993
526 267 2368
547 354 2714
759 353 0
699 380 368
583 390 727
460 412 1069
459 446 1388
473 470 1729
481 524 2085
485 637 2451
501 741 2780
772 694 3
738 728 334
479 788 862
434 807 1198
430 859 1540
435 910 1884
443 958 2228
468 1034 2574
517 1143 2917
759 1081 58
665 1124 408
527 1164 892
439 1170 1301
433 1196 1636
455 1264 1981
486 1363 2350
516 1471 2715
563 1566 3041
778 1471 124
711 1514 485
611 1546 948
529 1619 1415
475 1611 1755
494 1673 2103
518 1770 2472
545 1854 2823
583 1925 3139
826 1890 231
750 1921 616
674 1965 1027
648 2079 1522
593 2110 1909
532 2117 2249
529 2145 2583
568 2206 2925
627 2269 3232
942 2309 364
844 2322 752
793 2368 1104
793 2469 1563
793 2552 2036
714 2543 2382
651 2536 2704
656 2562 3021
697 2609 3321
1103 2724 484
1001 2717 860
953 2746 1185
952 2809 1576
976 2900 2089
910 2930 2474
852 2933 2814
836 2940 3116
837 2957 3407
1240 3066 623
1179 3080 969
1127 3105 1284
1093 3148 1649
1120 3243 2113
1127 3298 2513
1046 3309 2859
980 3295 3192
967 3295 3476
1159 59 0
1188 63 280
1202 71 585
1047 82 949
810 141 1305
787 178 1634
804 208 1978
808 269 2348
828 355 2706
1193 393 0
1194 415 344
1229 440 661
971 438 1041
770 446 1399
771 469 1734
772 509 2089
784 594 2455
813 727 2809
1253 717 0
1268 747 337
1189 814 768
890 829 1190
736 809 1556
714 860 1905
712 941 2253
734 1026 2584
787 1145 2933
1336 1082 46
1356 1119 331
1329 1179 692
777 1224 1346
701 1228 1687
715 1294 2041
749 1405 2411
790 1512 2764
840 1601 3082
1441 1523 139
1412 1580 433
1200 1644 821
851 1677 1421
765 1694 1834
762 1747 2184
783 1835 2544
814 1907 2880
856 1972 3187
1582 1985 267
1507 2034 563
1258 2090 960
979 2122 1469
916 2201 1969
843 2197 2326
825 2213 2653
866 2267 2982
923 2322 3280
1696 2384 350
1554 2441 658
1252 2455 1117
1116 2492 1510
1106 2587 2031
1025 2605 2429
988 2609 2762
1006 2633 3073
1011 2665 3369
1753 2814 430
1595 2842 804
1376 2815 1236
1276 2839 1568
1257 2918 2053
1220 2977 2493
1148 2974 2835
1143 2984 3144
1149 2998 3435
1908 3213 558
1704 3180 988
1549 3178 1346
1456 3208 1680
1408 3265 2092
1443 3352 2533
1347 3353 2878
1281 3341 3220
1260 3338 3508
1687 127 0
1720 136 272
1747 153 579
1684 145 881
1494 171 1253
1131 186 1646
1103 212 1975
1117 263 2322
1138 349 2672
1666 457 24
1763 442 284
1789 455 599
1757 509 956
1392 493 1351
1090 487 1740
1092 528 2082
1113 623 2464
1144 745 2827
1752 790 22
1775 823 348
1792 889 747
1858 964 1139
1515 934 1513
1117 862 1910
1109 938 2275
1134 1046 2632
1151 1155 2964
1917 1133 64
1970 1161 331
2024 1236 694
1869 1383 1301
1509 1362 1713
1081 1305 2095
1055 1404 2440
1112 1540 2811
1162 1634 3135
2105 1522 122
2156 1585 405
2182 1673 717
2090 1793 1199
1290 1824 1926
1135 1828 2278
1105 1905 2626
1142 1975 2954
1190 2037 3254
2219 2023 248
2228 2091 532
2192 2189 853
1961 2248 1384
1456 2290 1993
1260 2297 2399
1243 2302 2716
1281 2351 3039
1269 2392 3340
2254 2464 336
2273 2518 605
2207 2613 957
2038 2647 1534
1807 2684 2035
1482 2695 2466
1424 2692 2801
1434 2708 3108
1387 2729 3413
2326 2856 391
2341 2906 684
2289 2986 1144
2155 3009 1649
2083 3061 2095
1827 3091 2521
1596 3071 2874
1536 3064 3193
1514 3067 3483
2430 3243 486
2419 3279 814
2352 3322 1306
2281 3368 1759
2268 3434 2150
2091 3469 2562
1792 3454 2922
1652 3420 3269
1634 3412 3561
2244 232 15
2274 232 296
2299 245 585
2312 262 874
2197 246 1172
1973 270 1557
1645 238 1974
1532 289 2331
1529 379 2673
2269 527 29
2317 529 304
2354 536 601
2370 563 913
2290 601 1250
2060 624 1642
1709 580 2068
1557 657 2456
1541 795 2851
2290 881 84
2303 927 393
2395 949 693
2448 993 1062
2420 1094 1479
2271 1105 1849
1862 1049 2273
1636 1118 2668
1593 1218 3028
2430 1212 100
2476 1253 368
2520 1349 732
2466 1544 1363
2454 1620 1784
2365 1626 2112
1987 1563 2493
1711 1583 2876
1637 1645 3207
2580 1586 150
2632 1647 423
2697 1752 742
2574 1946 1430
2480 2045 1958
2441 2085 2313
2209 2070 2660
1907 2089 3014
1720 2119 3325
2695 2021 221
2744 2104 503
2772 2205 817
2724 2336 1303
2650 2419 1888
2537 2511 2445
2351 2524 2810
2096 2526 3129
1856 2517 3420
2720 2502 308
2743 2565 584
2762 2654 909
2725 2745 1455
2671 2787 1926
2620 2868 2448
2373 2909 2917
2182 2894 3221
1960 2867 3497
2735 2921 391
2748 2959 673
2762 3040 1072
2749 3100 1576
2741 3164 2017
2719 3237 2488
2477 3283 2966
2237 3245 3305
2100 3213 3573
2800 3278 487
2801 3303 784
2815 3367 1204
2818 3435 1642
2825 3506 2080
2813 3576 2518
2657 3633 3003
2276 3571 3356
2231 3546 3643
2711 311 54
2751 324 333
2777 338 607
2788 348 886
2756 366 1186
2681 399 1514
2601 436 1857
2478 465 2271
2409 528 2645
2753 619 72
2785 624 343
2812 635 624
2822 683 960
2802 730 1309
2768 779 1633
2717 827 1988
2570 883 2429
2504 956 2820
2756 1001 163
2775 1040 437
2847 1076 723
2888 1124 1129
2876 1184 1513
2852 1229 1860
2779 1284 2235
2698 1336 2623
2540 1343 2989
2897 1311 142
2936 1369 418
2964 1478 774
2902 1645 1409
2930 1693 1810
2900 1747 2169
2870 1773 2479
2782 1770 2819
2554 1764 3198
3006 1679 180
3052 1752 454
3094 1863 796
2960 2050 1526
2929 2151 2021
2934 2214 2384
2947 2241 2685
2875 2219 2992
2660 2237 3367
3090 2078 225
3129 2156 512
3146 2250 878
3066 2387 1505
3036 2499 2029
3026 2597 2476
3020 2648 2833
2977 2669 3157
2839 2695 3498
3134 2509 293
3143 2564 595
3143 2635 1002
3129 2731 1457
3123 2835 1901
3121 2928 2383
3091 3017 2902
3012 3060 3298
2902 3073 3600
3131 2943 434
3126 2969 717
3129 3024 1078
3129 3125 1518
3131 3216 1980
3137 3274 2407
3128 3348 2910
3008 3408 3388
2967 3400 3662
3116 3305 530
3116 3332 817
3128 3385 1176
3161 3477 1602
3179 3545 2048
3194 3605 2473
3181 3670 2948
3101 3723 3402
3023 3712 3718
3100 385 91
3127 394 356
3150 413 627
3158 446 930
3148 488 1262
3115 521 1595
3102 559 1909
3074 605 2241
3002 677 2635
3157 708 103
3174 709 365
3193 732 653
3208 807 1032
3197 880 1423
3177 919 1749
3155 954 2069
3107 1033 2457
3054 1093 2821
3172 1106 202
3194 1158 479
3215 1216 820
3254 1257 1219
3259 1330 1629
3227 1356 1967
3202 1386 2294
3160 1441 2644
3106 1459 2975
3298 1423 192
3330 1490 478
3315 1619 899
3266 1736 1465
3297 1756 1847
3280 1801 2206
3265 1826 2508
3231 1857 2825
3166 1882 3166
3383 1786 217
3411 1858 517
3407 1954 910
3302 2118 1579
3314 2203 2042
3334 2258 2411
3330 2300 2725
3317 2305 3016
3254 2319 3338
3450 2162 277
3456 2217 583
3443 2299 996
3376 2459 1613
3384 2571 2084
3387 2669 2527
3390 2719 2885
3374 2737 3190
3324 2738 3494
3475 2540 358
3475 2581 669
3467 2645 1057
3467 2755 1509
3475 2876 1998
3464 2983 2494
3465 3060 2907
3444 3110 3300
3404 3127 3606
3462 2919 474
3462 2958 768
3465 3013 1108
3472 3098 1501
3499 3205 1951
3502 3300 2377
3510 3376 2842
3486 3442 3354
3465 3466 3684
3429 3298 542
3424 3328 811
3434 3381 1154
3453 3471 1573
3489 3571 2024
3512 3628 2427
3538 3680 2864
3532 3734 3347
3512 3762 3717
3451 460 123
3468 472 391
3472 491 679
3472 527 1007
3464 580 1357
3445 607 1675
3451 643 1981
3443 702 2325
3406 765 2689
3519 792 147
3518 793 412
3524 827 727
3528 900 1115
3534 992 1520
3517 1022 1846
3515 1061 2166
3475 1110 2513
3442 1160 2861
3530 1208 268
3532 1262 571
3516 1339 944
3583 1335 1263
3590 1397 1675
3577 1446 2046
3556 1473 2363
3521 1502 2680
3490 1531 3008
3651 1531 259
3652 1588 576
3579 1738 1052
3599 1797 1488
3634 1814 1859
3635 1873 2252
3615 1903 2569
3588 1916 2861
3555 1951 3185
3708 1877 303
3710 1931 609
3654 2053 1074
3622 2169 1604
3662 2244 2045
3687 2286 2422
3688 2327 2746
3669 2344 3037
3630 2370 3354
3752 2224 364
3746 2268 666
3723 2360 1084
3685 2507 1637
3710 2621 2113
3717 2713 2563
3726 2756 2920
3724 2775 3215
3694 2770 3506
3763 2570 436
3761 2612 734
3761 2679 1089
3763 2802 1575
3780 2927 2077
3783 3030 2545
3780 3113 2985
3770 3141 3326
3754 3144 3613
3749 2923 502
3752 2966 793
3756 3022 1133
3766 3112 1551
3793 3214 1997
3820 3312 2444
3843 3397 2911
3829 3456 3345
3811 3487 3689
3724 3280 550
3721 3311 822
3729 3365 1168
3747 3441 1548
3767 3515 1931
3801 3601 2370
3827 3676 2817
3861 3742 3295
3853 3784 3706
