src/luts/Drive_-_Rec709.3dl
# Created by Benjamin (IWLTBAP) : http://luts.iwltbap.com
# Copyright: (C) Copyright 2016 Triune Films and IWLTBAP
# Blockbuster LUTs Pack
0 64 128 192 256 320 384 448 512 576 640 704 768 832 896 960 1023
0 0 4
0 0 137
0 0 299
0 0 453
0 9 614
0 51 789
0 85 954
0 134 1129
0 180 1297
0 219 1467
3 244 1636
7 256 1811
9 278 1991
10 308 2175
13 347 2359
16 386 2531
16 424 2700
0 165 22
0 156 167
0 169 332
0 189 495
0 213 666
0 245 837
0 271 999
0 307 1170
0 344 1335
0 381 1506
0 411 1675
1 423 1843
3 443 2017
6 467 2199
10 500 2383
16 542 2558
19 579 2728
5 349 41
0 354 207
0 353 369
0 360 533
0 380 705
0 407 878
0 429 1040
0 460 1206
0 494 1374
0 532 1548
0 568 1721
0 585 1886
0 606 2057
5 630 2236
12 660 2415
21 701 2589
26 741 2764
26 517 54
8 531 232
0 545 409
0 542 573
0 549 750
0 570 922
0 586 1078
0 612 1243
0 648 1420
0 685 1596
0 722 1769
0 747 1936
1 777 2111
10 804 2288
19 836 2463
29 876 2632
34 916 2804
40 686 81
27 702 252
4 726 443
0 736 618
0 732 782
0 742 961
0 752 1120
0 773 1291
0 804 1468
0 841 1643
0 877 1813
0 905 1980
6 944 2157
19 987 2341
28 1028 2523
36 1069 2690
39 1108 2858
58 857 110
46 873 277
27 902 468
1 921 656
0 926 829
0 924 997
0 924 1168
0 938 1343
0 964 1515
0 999 1687
0 1034 1854
1 1068 2025
11 1114 2204
22 1161 2390
31 1207 2571
38 1251 2737
40 1295 2906
84 1034 134
73 1049 297
53 1079 500
23 1107 701
1 1119 883
0 1115 1051
0 1105 1218
0 1109 1392
0 1130 1561
0 1161 1728
0 1194 1894
5 1235 2067
17 1287 2250
26 1338 2435
31 1390 2617
38 1437 2786
41 1480 2954
117 1211 164
105 1226 323
85 1255 529
55 1284 744
20 1307 938
1 1310 1112
0 1299 1269
0 1294 1437
0 1305 1604
0 1330 1770
3 1364 1936
12 1414 2115
22 1470 2302
29 1527 2492
34 1579 2672
41 1623 2838
46 1663 3006
148 1387 201
138 1404 357
122 1439 559
94 1471 785
58 1499 994
22 1517 1178
0 1509 1334
0 1502 1493
0 1506 1658
1 1522 1822
11 1557 1994
19 1610 2179
27 1667 2367
32 1719 2551
38 1763 2727
47 1802 2892
59 1840 3058
179 1573 241
169 1592 394
152 1630 600
125 1671 825
95 1703 1044
72 1736 1242
36 1747 1420
14 1741 1574
5 1739 1733
9 1748 1896
19 1776 2067
25 1820 2249
30 1865 2431
36 1906 2610
44 1945 2784
55 1976 2945
71 2012 3108
206 1773 291
192 1796 452
173 1832 644
152 1874 861
138 1918 1092
135 1965 1311
116 1999 1502
89 2002 1668
60 1989 1816
35 1991 1979
28 2008 2150
30 2034 2321
36 2062 2496
43 2091 2670
50 2123 2840
64 2148 2997
86 2180 3154
229 1981 359
213 2004 515
192 2040 699
183 2086 898
182 2132 1119
184 2179 1360
187 2227 1570
170 2245 1746
138 2241 1903
107 2232 2058
78 2236 2224
48 2246 2394
46 2256 2558
55 2275 2727
72 2298 2892
94 2321 3045
117 2351 3200
265 2190 427
243 2211 584
227 2244 755
228 2290 945
236 2334 1149
250 2382 1394
268 2433 1619
269 2465 1814
242 2476 1987
207 2468 2143
172 2452 2292
133 2456 2466
102 2456 2625
99 2460 2782
114 2475 2942
134 2493 3093
158 2521 3246
319 2396 495
306 2417 648
300 2448 813
301 2486 992
309 2528 1182
320 2573 1416
338 2622 1653
353 2659 1860
344 2681 2048
304 2678 2213
267 2659 2363
229 2656 2530
192 2659 2695
167 2651 2840
168 2659 2994
178 2671 3140
198 2693 3290
387 2596 546
377 2616 698
370 2641 859
371 2672 1029
382 2707 1211
393 2747 1424
409 2795 1663
430 2833 1890
439 2861 2090
409 2870 2267
365 2858 2425
330 2852 2589
293 2856 2755
272 2857 2908
257 2854 3050
251 2854 3189
250 2868 3335
469 2785 588
459 2798 738
458 2824 900
456 2849 1064
461 2881 1242
465 2913 1442
480 2959 1674
499 2999 1913
514 3027 2117
502 3043 2297
452 3042 2466
419 3040 2633
388 3036 2795
359 3044 2961
346 3043 3105
338 3038 3238
331 3049 3383
556 2964 625
541 2972 775
534 2994 934
531 3018 1094
529 3046 1267
529 3076 1468
542 3120 1697
560 3161 1932
579 3193 2138
581 3211 2318
538 3215 2488
500 3221 2662
472 3214 2820
442 3211 2986
418 3220 3148
408 3216 3283
405 3224 3425
102 0 0
101 0 144
101 0 304
101 0 459
101 0 619
100 21 785
98 57 949
96 95 1118
98 135 1286
103 169 1456
109 194 1626
113 223 1808
116 250 1991
118 280 2172
120 324 2358
121 372 2538
122 414 2699
107 158 14
99 161 180
99 167 343
99 184 507
100 206 676
99 237 842
97 271 1007
97 307 1177
98 342 1340
101 375 1509
106 397 1679
110 413 1852
113 430 2030
115 459 2211
117 495 2394
119 537 2568
124 577 2728
127 346 34
114 358 209
98 361 382
98 367 548
98 385 718
98 409 886
95 438 1052
92 472 1220
92 505 1388
94 541 1561
99 568 1731
106 582 1898
110 601 2073
113 623 2251
116 655 2429
122 698 2603
132 743 2774
145 517 46
130 533 228
104 554 418
97 552 589
97 557 765
94 574 931
91 595 1091
90 623 1256
90 658 1431
90 697 1609
94 730 1782
102 756 1951
109 781 2126
114 803 2300
121 832 2474
128 873 2645
138 918 2814
158 686 69
143 703 249
120 732 441
95 747 631
93 741 799
91 745 971
90 759 1133
90 784 1305
90 815 1481
90 851 1656
93 886 1826
104 917 1997
115 956 2176
123 994 2358
130 1031 2536
137 1072 2708
143 1115 2871
173 858 98
158 874 273
140 904 458
104 930 661
90 936 842
90 930 1007
90 932 1181
90 947 1354
90 973 1527
90 1010 1699
96 1044 1868
108 1081 2041
119 1129 2224
128 1175 2409
135 1220 2589
140 1266 2760
145 1310 2923
199 1037 124
186 1053 297
168 1080 484
137 1113 701
101 1130 894
90 1124 1062
90 1116 1231
90 1119 1403
90 1140 1572
92 1173 1741
102 1208 1910
113 1253 2086
122 1305 2271
129 1355 2454
136 1408 2638
142 1457 2812
155 1499 2974
232 1217 155
219 1230 323
199 1256 515
172 1291 736
131 1316 945
98 1322 1125
90 1313 1284
90 1308 1451
91 1317 1618
98 1346 1786
109 1383 1955
118 1437 2137
127 1491 2325
132 1547 2514
142 1599 2694
158 1644 2863
174 1682 3023
265 1396 197
252 1410 357
236 1441 547
210 1478 774
174 1510 996
144 1532 1189
110 1530 1351
97 1522 1510
99 1523 1675
106 1542 1840
115 1579 2014
123 1634 2201
132 1689 2389
144 1740 2572
158 1783 2747
172 1823 2915
188 1858 3075
301 1588 241
290 1599 393
274 1633 586
249 1676 812
227 1716 1040
205 1753 1249
176 1775 1439
145 1770 1600
122 1765 1755
116 1773 1917
122 1802 2089
132 1845 2273
144 1887 2453
157 1926 2631
168 1964 2803
182 1997 2969
199 2030 3125
339 1792 292
325 1807 449
306 1840 634
283 1881 850
270 1931 1082
261 1977 1309
245 2019 1513
218 2030 1690
191 2020 1843
164 2019 2003
143 2035 2174
142 2056 2343
154 2082 2517
164 2111 2690
177 2141 2860
196 2170 3020
216 2200 3171
365 2002 362
352 2014 513
334 2049 695
315 2093 891
309 2140 1110
309 2189 1353
318 2242 1575
303 2267 1762
272 2268 1927
239 2261 2084
204 2262 2252
175 2267 2417
171 2275 2578
185 2293 2746
205 2316 2910
228 2343 3068
252 2370 3218
405 2212 432
386 2221 581
368 2251 754
361 2293 937
367 2340 1139
378 2391 1380
398 2444 1617
402 2481 1824
374 2495 2004
341 2490 2164
305 2477 2319
263 2475 2489
234 2473 2642
231 2478 2800
246 2494 2961
268 2517 3116
291 2541 3263
468 2419 497
450 2428 644
441 2455 811
437 2493 986
443 2534 1174
448 2579 1394
465 2628 1641
485 2668 1860
480 2695 2058
441 2697 2230
402 2683 2389
362 2677 2552
327 2677 2714
307 2672 2859
306 2680 3013
316 2696 3164
335 2715 3309
540 2622 547
519 2629 697
508 2649 856
511 2681 1025
518 2714 1204
523 2753 1407
538 2799 1648
560 2840 1884
572 2870 2093
543 2884 2276
500 2879 2443
465 2872 2608
429 2875 2773
411 2877 2925
401 2876 3068
398 2882 3214
391 2891 3355
632 2811 589
609 2819 740
597 2829 895
596 2857 1062
598 2886 1234
600 2920 1430
609 2962 1656
629 3005 1902
646 3038 2117
638 3056 2302
588 3063 2480
553 3058 2646
524 3053 2808
497 3062 2973
486 3063 3121
483 3065 3262
472 3070 3402
717 2991 625
692 2998 776
673 3001 928
669 3023 1090
667 3052 1264
667 3084 1460
673 3125 1682
690 3168 1919
709 3204 2136
718 3227 2323
679 3237 2497
640 3243 2671
613 3238 2832
581 3231 2997
557 3238 3161
548 3239 3302
545 3242 3438
272 0 0
277 0 140
263 0 309
231 0 467
220 2 629
218 28 795
211 62 959
207 94 1124
209 121 1288
221 143 1457
230 160 1630
237 184 1810
242 213 1994
246 250 2177
250 295 2360
253 349 2538
258 401 2701
294 159 0
277 174 177
244 175 353
217 172 515
207 189 682
203 219 844
202 246 1002
202 275 1164
203 308 1331
208 343 1504
213 368 1676
218 387 1856
221 409 2036
225 442 2216
228 484 2398
229 529 2571
237 575 2730
303 344 4
282 364 202
239 370 395
209 372 569
204 390 735
202 415 901
201 448 1067
200 481 1234
201 513 1401
204 544 1571
210 563 1740
214 571 1911
217 589 2086
218 615 2264
220 650 2439
225 696 2612
235 743 2778
297 523 30
280 539 219
244 563 421
208 563 609
204 571 787
201 587 950
198 611 1112
196 638 1276
197 671 1448
201 708 1624
205 738 1798
210 760 1968
215 780 2143
218 799 2315
223 828 2485
231 873 2657
243 923 2827
294 697 50
283 710 244
256 736 432
212 759 645
199 754 822
196 757 991
194 771 1151
193 797 1322
195 828 1497
199 866 1673
204 898 1843
212 928 2017
220 964 2195
226 997 2374
232 1032 2551
239 1077 2722
250 1124 2886
308 871 70
297 883 270
275 906 447
235 939 664
196 948 860
192 942 1028
191 943 1198
191 960 1370
193 988 1543
197 1025 1716
206 1058 1887
216 1098 2065
226 1145 2249
233 1188 2431
240 1232 2609
251 1278 2779
269 1326 2941
331 1048 96
324 1064 295
305 1084 475
273 1121 690
224 1141 904
194 1136 1079
191 1129 1248
191 1132 1417
194 1154 1587
199 1188 1758
209 1225 1929
219 1274 2110
229 1326 2296
242 1376 2480
255 1429 2662
271 1478 2835
290 1522 2996
366 1230 126
356 1243 325
336 1261 509
312 1299 721
262 1327 949
224 1339 1142
198 1331 1302
195 1326 1468
198 1334 1634
205 1365 1805
214 1406 1976
226 1460 2161
242 1515 2350
256 1569 2537
272 1621 2717
288 1665 2887
307 1704 3045
405 1414 168
394 1426 357
375 1447 540
354 1486 757
312 1524 993
276 1550 1202
243 1553 1371
216 1547 1531
207 1547 1696
213 1566 1862
226 1607 2040
243 1660 2226
259 1713 2413
271 1760 2593
284 1803 2769
298 1843 2936
315 1878 3093
447 1610 225
433 1621 396
414 1644 579
390 1685 795
363 1732 1031
337 1774 1256
311 1802 1455
280 1802 1623
252 1796 1780
239 1802 1941
246 1831 2115
260 1870 2296
270 1908 2474
281 1946 2651
292 1984 2824
308 2018 2990
326 2050 3143
487 1816 289
465 1833 455
444 1853 632
420 1893 837
401 1941 1067
390 1992 1304
376 2040 1520
350 2058 1707
323 2050 1867
295 2048 2028
271 2061 2197
268 2079 2365
278 2101 2537
289 2129 2709
304 2160 2879
324 2191 3040
349 2220 3190
513 2027 365
490 2038 520
471 2062 693
448 2104 885
440 2150 1096
440 2203 1342
451 2257 1576
441 2290 1776
412 2297 1948
378 2290 2107
341 2286 2275
309 2288 2439
302 2294 2599
316 2312 2766
337 2336 2931
360 2364 3088
386 2392 3236
565 2239 435
537 2249 587
512 2264 752
502 2302 933
504 2348 1127
512 2401 1363
530 2456 1610
540 2498 1828
513 2515 2016
478 2512 2184
440 2498 2341
397 2496 2511
369 2493 2664
367 2498 2820
380 2515 2981
401 2538 3135
426 2564 3282
636 2447 497
609 2455 646
588 2472 809
578 2503 982
580 2541 1164
581 2586 1372
595 2634 1620
618 2678 1855
618 2709 2064
580 2716 2244
540 2704 2409
500 2698 2575
466 2698 2734
450 2696 2880
451 2705 3034
457 2720 3183
472 2738 3329
706 2646 541
679 2654 695
661 2668 855
653 2688 1019
656 2720 1195
662 2758 1389
670 2802 1625
691 2847 1875
706 2880 2096
680 2898 2283
634 2897 2455
602 2891 2625
569 2897 2791
554 2900 2944
548 2900 3088
544 2906 3234
534 2915 3375
804 2836 583
778 2845 738
755 2854 897
740 2865 1055
739 2893 1227
739 2924 1414
745 2966 1637
760 3012 1890
778 3048 2117
775 3069 2308
725 3079 2487
692 3079 2657
665 3075 2820
639 3081 2985
628 3083 3135
624 3084 3275
615 3090 3416
885 3009 633
859 3022 784
835 3029 936
814 3037 1089
807 3058 1261
806 3089 1452
809 3131 1667
824 3177 1907
845 3218 2134
858 3245 2328
825 3255 2502
783 3264 2678
756 3262 2842
721 3252 3006
697 3257 3172
688 3258 3314
682 3259 3451
472 0 0
477 0 137
490 0 301
463 1 462
391 11 636
365 36 803
357 68 966
350 99 1132
350 125 1294
359 145 1460
371 161 1632
378 177 1811
381 198 1996
382 230 2182
386 265 2369
391 316 2543
402 370 2706
503 173 0
481 184 172
470 194 347
428 192 511
362 191 690
342 212 850
332 235 1008
330 257 1166
332 278 1330
342 296 1498
351 311 1671
360 333 1850
363 364 2031
366 404 2214
368 458 2399
370 520 2574
