src/luts/Drive_-_Rec709.3dl
# Created by Benjamin (IWLTBAP) : http://luts.iwltbap.com
# Copyright: (C) Copyright 2016 Triune Films and IWLTBAP
# Blockbuster LUTs Pack
0 256 512 768 1023
0 0 4
0 9 614
0 180 1297
9 278 1991
16 424 2700
40 686 81
0 732 782
0 804 1468
6 944 2157
39 1108 2858
148 1387 201
58 1499 994
0 1506 1658
27 1667 2367
59 1840 3058
265 2190 427
236 2334 1149
242 2476 1987
102 2456 2625
158 2521 3246
556 2964 625
529 3046 1267
579 3193 2138
472 3214 2820
405 3224 3425
682 23 0
673 23 622
498 131 1298
521 203 1993
547 354 2714
772 694 3
479 788 862
430 859 1540
443 958 2228
517 1143 2917
778 1471 124
611 1546 948
475 1611 1755
518 1770 2472
583 1925 3139
942 2309 364
793 2368 1104
793 2552 2036
651 2536 2704
697 2609 3321
1240 3066 623
1127 3105 1284
1120 3243 2113
1046 3309 2859
967 3295 3476
1687 127 0
1747 153 579
1494 171 1253
1103 212 1975
1138 349 2672
1752 790 22
1792 889 747
1515 934 1513
1109 938 2275
1151 1155 2964
2105 1522 122
2182 1673 717
1290 1824 1926
1105 1905 2626
1190 2037 3254
2254 2464 336
2207 2613 957
1807 2684 2035
1424 2692 2801
1387 2729 3413
2430 3243 486
2352 3322 1306
2268 3434 2150
1792 3454 2922
1634 3412 3561
2711 311 54
2777 338 607
2756 366 1186
2601 436 1857
2409 528 2645
2756 1001 163
2847 1076 723
2876 1184 1513
2779 1284 2235
2540 1343 2989
3006 1679 180
3094 1863 796
2929 2151 2021
2947 2241 2685
2660 2237 3367
3134 2509 293
3143 2635 1002
3123 2835 1901
3091 3017 2902
2902 3073 3600
3116 3305 530
3128 3385 1176
3179 3545 2048
3181 3670 2948
3023 3712 3718
3451 460 123
3472 491 679
3464 580 1357
3451 643 1981
3406 765 2689
3530 1208 268
3516 1339 944
3590 1397 1675
3556 1473 2363
3490 1531 3008
3708 1877 303
3654 2053 1074
3662 2244 2045
3688 2327 2746
3630 2370 3354
3763 2570 436
3761 2679 1089
3780 2927 2077
3780 3113 2985
3754 3144 3613
3724 3280 550
3729 3365 1168
3767 3515 1931
3827 3676 2817
3853 3784 3706
