src/luts/Game_of_Thrones_-_Rec709.3dl
# Created by Benjamin (IWLTBAP) : http://luts.iwltbap.com
# Copyright: (C) Copyright 2016 Triune Films and IWLTBAP
# Blockbuster LUTs Pack
0 128 256 384 512 640 768 896 1023
0 0 0
17 1 246
17 12 580
32 21 891
54 37 1200
79 84 1499
104 137 1788
153 179 2068
198 221 2337
32 281 2
60 319 296
82 391 651
107 456 993
139 512 1319
188 566 1632
237 621 1931
301 665 2216
346 714 2487
108 681 5
126 774 364
162 854 746
200 929 1098
250 998 1438
324 1062 1765
398 1121 2076
453 1184 2374
510 1240 2657
185 1118 45
223 1218 444
259 1313 851
295 1406 1234
367 1494 1577
459 1569 1912
536 1644 2231
602 1717 2542
670 1783 2839
277 1551 117
311 1667 527
355 1782 952
420 1892 1360
484 1997 1746
553 2096 2089
648 2183 2416
743 2260 2733
818 2340 3031
354 1990 191
398 2119 602
468 2256 1058
541 2387 1478
618 2501 1889
681 2613 2272
746 2709 2618
835 2792 2936
910 2865 3230
432 2425 268
491 2568 674
581 2726 1158
655 2860 1594
711 2980 1996
767 3079 2383
805 3171 2737
843 3251 3060
900 3321 3346
510 2868 340
574 3009 735
652 3167 1221
718 3295 1661
765 3408 2064
804 3507 2442
835 3591 2796
855 3657 3132
857 3672 3423
572 3292 393
627 3426 787
702 3569 1258
754 3694 1699
791 3799 2111
798 3838 2500
798 3850 2846
798 3859 3186
793 3866 3487
275 11 1
294 25 257
344 35 605
402 40 941
451 63 1261
496 119 1567
555 163 1858
584 217 2136
629 259 2400
307 290 16
348 344 372
427 422 715
505 492 1047
569 560 1377
644 615 1697
715 666 2001
772 719 2290
816 772 2566
386 710 24
448 810 460
529 899 863
621 979 1215
707 1054 1549
787 1125 1867
864 1191 2172
937 1251 2467
997 1312 2746
495 1158 115
570 1272 560
654 1380 982
733 1480 1380
827 1568 1734
914 1653 2066
993 1735 2380
1073 1807 2684
1149 1874 2974
592 1617 211
684 1742 657
778 1867 1101
861 1984 1515
945 2092 1913
1043 2187 2272
1132 2279 2603
1215 2363 2918
1292 2438 3216
691 2074 307
794 2211 750
890 2356 1215
979 2483 1649
1058 2599 2053
1132 2698 2436
1209 2783 2775
1278 2859 3081
1342 2923 3372
806 2527 393
901 2669 818
991 2820 1302
1062 2946 1733
1121 3055 2136
1171 3149 2516
1224 3233 2869
1286 3304 3191
1342 3366 3474
901 2967 459
983 3100 868
1061 3246 1355
1121 3367 1788
1169 3470 2189
1200 3564 2557
1228 3641 2906
1252 3696 3234
1293 3707 3530
979 3384 513
1071 3510 940
1132 3643 1404
1178 3756 1831
1215 3850 2225
1226 3872 2602
1232 3882 2959
1235 3893 3279
1236 3899 3562
641 42 1
721 43 280
774 58 639
833 68 982
882 102 1309
938 159 1621
996 209 1919
1040 261 2202
1100 301 2471
707 321 5
788 374 386
859 458 780
943 533 1123
1036 594 1461
1110 658 1775
1182 718 2074
1242 775 2366
1296 829 2647
811 746 74
883 849 546
951 950 986
1049 1036 1346
1140 1118 1687
1226 1193 2016
1306 1264 2328
1379 1331 2622
1446 1394 2900
939 1202 181
1010 1327 657
1089 1444 1118
1178 1549 1525
1278 1645 1886
1369 1736 2225
1459 1819 2553
1543 1895 2866
1618 1969 3157
1062 1669 279
1143 1808 767
1234 1944 1243
1330 2065 1676
1419 2176 2083
1513 2275 2437
1597 2360 2769
1672 2433 3080
1732 2501 3365
1183 2140 378
1271 2289 869
1367 2434 1357
1452 2558 1791
1527 2663 2200
1589 2758 2580
1659 2837 2912
1720 2908 3215
1777 2967 3502
1294 2611 469
1366 2750 936
1455 2892 1430
1530 3008 1866
1590 3110 2268
1642 3198 2647
1683 3276 3000
1731 3341 3308
1779 3396 3590
1367 3048 541
1428 3175 988
1510 3309 1478
1569 3422 1907
1617 3518 2305
1659 3600 2678
1691 3671 3026
1722 3723 3356
1749 3738 3629
1443 3473 655
1508 3592 1090
1570 3707 1541
1614 3808 1953
1647 3891 2335
1672 3907 2702
1680 3915 3056
1684 3924 3388
1684 3928 3661
1041 61 0
1113 73 303
1180 87 671
1253 97 1022
1311 138 1356
1381 194 1675
1454 244 1980
1526 288 2269
1571 340 2543
1120 342 8
1215 407 393
1306 490 803
1389 565 1199
1475 638 1542
1555 709 1858
1631 774 2161
1706 829 2458
1769 887 2729
1256 774 95
1333 886 572
1407 994 1025
1494 1089 1430
1591 1175 1785
1683 1256 2121
1767 1332 2440
1844 1404 2742
1921 1467 3034
1364 1253 236
1453 1379 730
1530 1505 1220
1615 1619 1665
1724 1720 2035
1826 1814 2387
1918 1900 2721
2001 1980 3035
2077 2046 3331
1503 1729 348
1597 1874 847
1687 2015 1364
1773 2138 1823
1861 2244 2226
1953 2334 2578
2032 2413 2905
2102 2482 3213
2163 2543 3500
1647 2215 448
1734 2360 939
1813 2501 1468
1891 2617 1921
1961 2717 2328
2023 2804 2707
2090 2878 3033
2149 2943 3335
2200 2998 3618
1766 2681 525
1841 2809 996
1902 2949 1537
1969 3058 1981
2027 3152 2384
2074 3233 2762
2113 3303 3115
2159 3362 3416
2203 3410 3687
1856 3109 583
1911 3228 1035
1958 3360 1573
2014 3463 2010
2059 3550 2409
2097 3623 2783
2127 3685 3134
2150 3736 3460
2173 3772 3704
1919 3512 635
1973 3626 1105
2004 3742 1605
2045 3835 2029
2084 3909 2425
2104 3939 2791
2114 3948 3135
2117 3956 3464
2115 3959 3733
1415 88 0
1509 95 326
1586 109 702
1659 127 1060
1743 169 1402
1829 225 1729
1900 282 2040
1962 337 2335
2009 394 2616
1515 367 21
1636 434 421
1741 521 828
1830 604 1226
1903 688 1600
1991 758 1944
2074 826 2254
2151 889 2549
2222 948 2830
1681 808 110
1767 926 591
1859 1035 1055
1951 1137 1471
2038 1232 1866
2134 1318 2214
2228 1397 2544
2314 1471 2854
2395 1539 3152
1809 1293 262
1902 1430 757
1992 1561 1261
2083 1679 1725
2180 1786 2135
2283 1878 2492
2373 1958 2826
2452 2027 3140
2519 2089 3430
1938 1791 408
2042 1937 915
2134 2075 1438
2208 2194 1921
2283 2295 2348
2373 2380 2699
2451 2453 3027
2518 2518 3333
2575 2575 3618
2093 2281 512
2181 2418 1001
2258 2551 1533
2318 2663 2017
2377 2758 2444
2439 2839 2818
2504 2906 3141
2560 2965 3441
2609 3016 3721
2217 2737 580
2286 2860 1044
2347 2990 1590
2391 3095 2073
2441 3182 2488
2485 3256 2866
2524 3319 3215
2571 3370 3513
2606 3414 3763
2305 3160 622
2359 3271 1074
2401 3394 1614
2432 3491 2097
2474 3568 2504
2509 3633 2878
2534 3689 3225
2559 3734 3553
2581 3771 3785
2365 3554 653
2412 3662 1127
2440 3765 1642
2461 3850 2114
2493 3918 2508
2519 3966 2877
2527 3974 3223
2529 3981 3556
2526 3990 3795
1779 115 0
1889 118 347
1974 134 732
2075 149 1098
2157 205 1448
2238 270 1782
2315 331 2099
2382 389 2402
2457 437 2688
1915 383 44
2046 460 451
2161 554 853
2254 646 1251
2347 725 1643
2422 807 2006
2502 880 2343
2585 948 2644
2659 1011 2927
2086 844 133
2190 964 614
2291 1080 1081
2396 1185 1506
2490 1286 1909
2581 1377 2299
2675 1462 2643
2767 1538 2960
2850 1603 3258
2230 1339 277
2337 1480 781
2441 1613 1295
2541 1730 1759
2635 1832 2174
2720 1919 2564
2807 1994 2899
2884 2060 3210
2951 2117 3500
2387 1849 428
2493 1989 933
2586 2120 1459
2660 2232 1945
2727 2329 2384
2798 2411 2766
2873 2479 3095
2937 2540 3400
2993 2592 3687
2525 2337 556
2612 2463 1047
2688 2590 1583
2744 2696 2069
2787 2786 2521
2837 2862 2916
2901 2924 3237
2955 2977 3537
3001 3022 3808
2645 2786 623
2711 2900 1085
2770 3022 1631
2813 3119 2116
2843 3200 2566
2878 3268 2959
2916 3324 3303
2960 3370 3597
2992 3410 3836
2732 3202 655
2781 3305 1105
2824 3416 1647
2853 3503 2133
2870 3577 2579
2897 3636 2960
2922 3684 3308
2941 3725 3628
2969 3754 3861
2790 3589 678
2833 3687 1159
2862 3778 1672
2876 3854 2150
2883 3916 2585
2903 3966 2950
2919 3999 3292
2920 4008 3619
2915 4014 3881
2144 136 0
2261 138 368
2364 150 761
2474 175 1136
2567 237 1493
2643 312 1834
2736 371 2158
2811 431 2467
2872 492 2759
2293 403 67
2431 492 478
2549 595 888
2667 684 1282
2764 772 1673
2853 853 2050
2928 935 2400
3009 1003 2738
3091 1069 3029
2469 881 161
2594 1004 632
2710 1124 1108
2819 1237 1536
2931 1336 1954
3026 1429 2345
3110 1509 2712
3190 1578 3040
3269 1636 3335
2637 1389 290
2764 1526 802
2874 1657 1320
2976 1769 1779
3073 1864 2195
3154 1948 2585
3224 2020 2952
3295 2083 3269
3359 2137 3556
2823 1896 442
2924 2031 940
3019 2154 1470
3093 2261 1956
3160 2352 2389
3225 2429 2778
3280 2496 3138
3342 2552 3445
3395 2600 3728
2959 2378 558
3044 2496 1044
3117 2617 1581
3173 2715 2068
3213 2800 2521
3252 2871 2930
3298 2930 3281
3349 2978 3581
3387 3020 3838
3055 2826 646
3121 2929 1108
3176 3044 1658
3215 3134 2145
3243 3207 2598
3260 3272 3019
3288 3322 3378
3329 3364 3671
3362 3395 3906
3136 3235 681
3183 3330 1132
3226 3429 1673
3250 3510 2158
3264 3576 2604
3272 3629 3022
3287 3673 3379
3307 3707 3694
3328 3735 3923
3193 3616 713
3235 3703 1197
3260 3784 1705
3267 3854 2173
3271 3908 2609
3269 3952 3014
3279 3986 3356
3285 4012 3681
3280 4033 3963
2501 156 14
2615 158 387
2729 172 789
2839 210 1171
2932 284 1536
3048 346 1884
3122 421 2216
3208 482 2531
3279 544 2829
2646 428 88
2784 531 504
2941 624 923
3053 726 1320
3163 818 1704
3262 903 2085
3350 983 2449
3434 1057 2797
3510 1126 3124
2843 915 188
2976 1045 645
3106 1169 1127
3234 1279 1568
3346 1377 1981
3445 1461 2371
3530 1535 2741
3602 1601 3084
3663 1661 3397
3044 1435 305
3172 1568 813
3284 1694 1334
3392 1798 1794
3488 1889 2208
3569 1967 2597
3635 2037 2961
3692 2097 3302
3744 2152 3601
3232 1938 446
3337 2062 943
3430 2182 1474
3502 2283 1958
3570 2367 2387
3631 2442 2772
3686 2502 3135
3728 2557 3473
3776 2601 3759
3369 2412 552
3451 2523 1031
3526 2636 1574
3577 2730 2057
3615 2808 2510
3657 2872 2913
3696 2926 3272
3728 2972 3604
3766 3008 3852
3464 2853 630
3522 2952 1086
3578 3057 1639
3617 3137 2127
3641 3206 2579
3656 3263 3001
3671 3311 3377
3697 3348 3697
3723 3378 3929
3523 3261 686
3573 3343 1145
3607 3437 1683
3630 3507 2173
3639 3567 2622
3639 3617 3037
3638 3657 3423
3647 3688 3747
3671 3709 3985
3561 3636 787
3593 3719 1275
3619 3789 1768
3632 3849 2209
3638 3893 2635
3633 3931 3036
3620 3962 3407
3620 3986 3723
3622 4007 3994
2862 168 36
2952 179 404
3081 190 816
3187 246 1206
3315 314 1578
3412 393 1933
3508 463 2271
3599 528 2593
3676 592 2897
2985 460 112
3139 560 527
3288 668 956
3422 767 1361
3545 861 1748
3659 947 2130
3755 1029 2495
3839 1102 2840
3916 1163 3165
3186 955 214
3342 1086 654
3496 1205 1150
3628 1312 1588
3740 1405 1999
3842 1484 2393
3927 1554 2760
3983 1616 3103
3989 1673 3423
3437 1471 321
3557 1603 816
3675 1721 1345
3784 1821 1801
3877 1907 2213
3959 1982 2602
3991 2050 2961
4003 2101 3308
4007 2150 3626
3621 1971 446
3721 2089 935
3815 2203 1471
3884 2299 1954
3954 2379 2378
4002 2445 2764
4012 2501 3128
4021 2548 3469
4028 2589 3769
3757 2439 544
3832 2544 1012
3906 2651 1557
3958 2737 2043
3994 2810 2495
4022 2868 2894
4031 2916 3253
4040 2956 3588
4050 2988 3861
3849 2874 613
3906 2965 1069
3959 3062 1617
3993 3138 2103
4017 3199 2554
4027 3253 2974
4044 3292 3346
4054 3329 3673
4062 3354 3938
3895 3275 690
3939 3351 1147
3979 3434 1670
4000 3502 2139
4009 3553 2590
4009 3595 3007
3999 3633 3392
3997 3661 3735
4005 3682 4002
3901 3655 876
3935 3729 1369
3955 3790 1845
3964 3840 2289
3970 3877 2696
3969 3909 3064
3948 3940 3419
3932 3959 3758
3927 3976 4033
