src/luts/Game_of_Thrones_-_Rec709.3dl
# Created by Benjamin (IWLTBAP) : http://luts.iwltbap.com
# Copyright: (C) Copyright 2016 Triune Films and IWLTBAP
# Blockbuster LUTs Pack
0 256 512 768 1023
0 0 0
17 12 580
54 37 1200
104 137 1788
198 221 2337
108 681 5
162 854 746
250 998 1438
398 1121 2076
510 1240 2657
277 1551 117
355 1782 952
484 1997 1746
648 2183 2416
818 2340 3031
432 2425 268
581 2726 1158
711 2980 1996
805 3171 2737
900 3321 3346
572 3292 393
702 3569 1258
791 3799 2111
798 3850 2846
793 3866 3487
641 42 1
774 58 639
882 102 1309
996 209 1919
1100 301 2471
811 746 74
951 950 986
1140 1118 1687
1306 1264 2328
1446 1394 2900
1062 1669 279
1234 1944 1243
1419 2176 2083
1597 2360 2769
1732 2501 3365
1294 2611 469
1455 2892 1430
1590 3110 2268
1683 3276 3000
1779 3396 3590
1443 3473 655
1570 3707 1541
1647 3891 2335
1680 3915 3056
1684 3928 3661
1415 88 0
1586 109 702
1743 169 1402
1900 282 2040
2009 394 2616
1681 808 110
1859 1035 1055
2038 1232 1866
2228 1397 2544
2395 1539 3152
1938 1791 408
2134 2075 1438
2283 2295 2348
2451 2453 3027
2575 2575 3618
2217 2737 580
2347 2990 1590
2441 3182 2488
2524 3319 3215
2606 3414 3763
2365 3554 653
2440 3765 1642
2493 3918 2508
2527 3974 3223
2526 3990 3795
2144 136 0
2364 150 761
2567 237 1493
2736 371 2158
2872 492 2759
2469 881 161
2710 1124 1108
2931 1336 1954
3110 1509 2712
3269 1636 3335
2823 1896 442
3019 2154 1470
3160 2352 2389
3280 2496 3138
3395 2600 3728
3055 2826 646
3176 3044 1658
3243 3207 2598
3288 3322 3378
3362 3395 3906
3193 3616 713
3260 3784 1705
3271 3908 2609
3279 3986 3356
3280 4033 3963
2862 168 36
3081 190 816
3315 314 1578
3508 463 2271
3676 592 2897
3186 955 214
3496 1205 1150
3740 1405 1999
3927 1554 2760
3989 1673 3423
3621 1971 446
3815 2203 1471
3954 2379 2378
4012 2501 3128
4028 2589 3769
3849 2874 613
3959 3062 1617
4017 3199 2554
4044 3292 3346
4062 3354 3938
3901 3655 876
3955 3790 1845
3970 3877 2696
3948 3940 3419
3927 3976 4033
