src/luts/Game_of_Thrones_-_Rec709.3dl
# Created by Benjamin (IWLTBAP) : http://luts.iwltbap.com
# Copyright: (C) Copyright 2016 Triune Films and IWLTBAP
# Blockbuster LUTs Pack
0 64 128 192 256 320 384 448 512 576 640 704 768 832 896 960 1023
0 0 0
9 0 123
17 1 246
14 9 401
17 12 580
25 17 733
32 21 891
55 17 1047
54 37 1200
82 52 1351
79 84 1499
95 108 1645
104 137 1788
130 157 1929
153 179 2068
178 198 2203
198 221 2337
19 140 2
20 145 124
24 148 262
40 149 437
45 170 610
71 184 779
72 217 944
82 245 1106
91 274 1264
112 296 1419
121 326 1570
146 348 1718
177 367 1862
188 396 2003
208 421 2141
243 436 2276
267 457 2407
32 281 2
58 279 136
60 319 296
62 360 474
82 391 651
90 426 824
107 456 993
131 480 1158
139 512 1319
151 545 1478
188 566 1632
204 598 1783
237 621 1931
269 643 2075
301 665 2216
327 688 2353
346 714 2487
72 462 3
76 507 141
92 546 328
109 584 519
123 622 696
130 661 872
142 696 1044
167 726 1213
194 755 1378
223 784 1539
249 815 1697
281 844 1851
314 870 2002
346 897 2150
391 915 2293
415 943 2434
440 968 2570
108 681 5
117 727 169
126 774 364
138 819 555
162 854 746
176 895 922
200 929 1098
231 960 1270
250 998 1438
288 1029 1603
324 1062 1765
354 1095 1922
398 1121 2076
426 1153 2227
453 1184 2374
481 1213 2518
510 1240 2657
138 903 14
160 947 201
170 998 402
196 1038 605
206 1085 795
223 1126 986
245 1168 1160
278 1204 1329
317 1241 1501
358 1277 1669
395 1313 1834
428 1350 1995
468 1381 2153
504 1413 2307
541 1442 2457
570 1475 2604
597 1506 2747
185 1118 45
199 1169 234
223 1218 444
239 1267 649
259 1313 851
276 1360 1045
295 1406 1234
327 1451 1411
367 1494 1577
414 1531 1747
459 1569 1912
504 1605 2071
536 1644 2231
566 1683 2389
602 1717 2542
640 1749 2693
670 1783 2839
236 1332 80
260 1379 275
273 1438 491
288 1494 699
305 1548 900
324 1600 1097
354 1650 1294
387 1698 1488
424 1744 1669
465 1788 1837
509 1831 1999
551 1874 2156
595 1914 2314
637 1951 2473
674 1989 2630
714 2024 2784
747 2059 2933
277 1551 117
293 1605 304
311 1667 527
330 1729 740
355 1782 952
387 1837 1159
420 1892 1360
450 1947 1552
484 1997 1746
516 2048 1924
553 2096 2089
597 2142 2251
648 2183 2416
699 2220 2578
743 2260 2733
782 2301 2881
818 2340 3031
314 1772 153
330 1830 340
355 1893 566
383 1955 792
412 2017 1007
443 2082 1212
481 2139 1418
516 2196 1620
548 2252 1814
579 2305 2005
617 2353 2190
656 2402 2358
703 2447 2523
748 2494 2681
802 2534 2844
841 2579 2993
883 2616 3143
354 1990 191
385 2043 390
398 2119 602
427 2189 834
468 2256 1058
504 2324 1269
541 2387 1478
582 2444 1687
618 2501 1889
650 2559 2082
681 2613 2272
710 2664 2451
746 2709 2618
782 2756 2774
835 2792 2936
876 2829 3088
910 2865 3230
399 2204 231
417 2271 422
443 2344 639
484 2420 882
526 2494 1108
569 2561 1330
610 2626 1546
643 2690 1751
679 2747 1956
703 2805 2145
731 2855 2334
751 2906 2513
779 2947 2693
808 2987 2853
831 3031 2996
875 3065 3149
916 3096 3299
432 2425 268
456 2496 464
491 2568 674
539 2650 926
581 2726 1158
620 2794 1381
655 2860 1594
683 2922 1797
711 2980 1996
737 3033 2190
767 3079 2383
782 3130 2558
805 3171 2737
817 3216 2901
843 3251 3060
865 3286 3204
900 3321 3346
467 2648 306
493 2721 504
541 2787 707
583 2875 961
619 2952 1192
657 3019 1417
687 3084 1628
716 3143 1834
743 3197 2036
767 3249 2229
790 3297 2417
807 3343 2596
820 3388 2767
838 3426 2939
850 3465 3100
857 3503 3244
879 3531 3387
510 2868 340
543 2936 537
574 3009 735
615 3093 982
652 3167 1221
686 3234 1445
718 3295 1661
743 3354 1866
765 3408 2064
789 3456 2260
804 3507 2442
815 3555 2616
835 3591 2796
846 3626 2963
855 3657 3132
851 3670 3274
857 3672 3423
546 3082 368
569 3153 566
610 3217 763
648 3296 1003
687 3368 1250
709 3440 1466
740 3498 1684
764 3554 1890
780 3610 2084
798 3659 2275
814 3703 2461
822 3728 2641
826 3747 2817
827 3757 2990
827 3760 3168
826 3765 3320
826 3770 3471
572 3292 393
603 3358 591
627 3426 787
674 3492 1015
702 3569 1258
735 3631 1489
754 3694 1699
775 3749 1904
791 3799 2111
794 3835 2296
798 3838 2500
799 3843 2683
798 3850 2846
798 3856 3014
798 3859 3186
795 3857 3374
793 3866 3487
135 8 1
141 9 124
148 10 248
145 19 416
154 21 588
172 23 756
178 32 920
219 24 1079
228 47 1236
250 75 1389
273 101 1537
303 122 1683
322 149 1825
350 169 1965
375 190 2102
387 218 2236
418 234 2367
149 150 3
150 151 146
163 152 283
191 148 458
188 177 629
204 203 801
230 231 968
251 264 1131
282 291 1291
315 316 1447
340 345 1600
361 373 1749
380 402 1895
420 418 2037
455 436 2176
471 463 2312
483 490 2444
176 283 10
167 300 149
184 331 330
198 371 495
228 403 672
251 439 847
286 469 1018
308 506 1185
348 533 1349
380 563 1508
400 597 1664
429 625 1817
475 643 1966
503 669 2111
547 686 2253
570 712 2391
596 734 2526
196 479 7
207 519 173
219 561 368
238 602 556
272 640 730
303 678 897
335 716 1071
389 741 1242
416 778 1409
454 809 1572
496 835 1731
529 865 1887
557 896 2040
589 923 2188
620 950 2333
644 979 2475
669 1005 2612
230 702 12
246 743 206
255 793 402
285 834 605
315 876 799
357 915 974
401 953 1145
451 984 1319
495 1018 1485
532 1054 1645
568 1089 1803
603 1122 1960
630 1157 2116
655 1191 2268
692 1219 2416
727 1246 2561
758 1272 2701
266 926 36
278 974 234
308 1018 452
330 1069 651
372 1111 858
413 1153 1055
456 1195 1231
501 1236 1401
542 1276 1564
582 1316 1725
624 1352 1885
670 1383 2047
709 1417 2201
740 1454 2350
775 1486 2502
805 1518 2649
834 1549 2793
300 1151 74
329 1195 279
363 1242 505
393 1297 711
428 1350 913
466 1399 1113
504 1447 1305
549 1490 1485
599 1529 1658
647 1568 1827
685 1612 1984
726 1651 2143
768 1688 2298
806 1725 2450
843 1761 2597
881 1795 2743
912 1829 2888
360 1360 129
382 1416 320
412 1474 544
448 1535 757
485 1591 965
525 1643 1172
565 1692 1374
604 1742 1567
647 1789 1745
695 1833 1915
741 1877 2081
783 1921 2241
825 1962 2399
871 1999 2559
914 2035 2713
951 2073 2860
987 2110 3002
405 1583 166
429 1641 355
467 1707 585
512 1767 812
556 1824 1029
589 1886 1232
627 1942 1436
663 1995 1635
699 2048 1827
744 2097 2008
795 2143 2179
844 2187 2347
890 2231 2510
934 2274 2668
980 2313 2827
1016 2355 2974
1055 2393 3121
444 1809 198
481 1866 397
530 1933 634
574 2002 862
616 2066 1081
654 2130 1291
691 2191 1498
731 2246 1704
765 2304 1900
802 2357 2095
846 2407 2278
896 2455 2447
947 2500 2615
988 2546 2773
1034 2583 2932
1070 2622 3081
1111 2655 3231
498 2025 245
541 2089 445
587 2163 674
634 2237 911
675 2308 1133
719 2373 1352
761 2435 1566
799 2495 1773
834 2554 1973
866 2609 2167
896 2661 2356
929 2710 2532
975 2750 2699
1017 2791 2856
1054 2829 3009
1091 2863 3158
1123 2897 3301
547 2250 281
594 2317 486
644 2392 713
694 2471 960
742 2541 1193
781 2612 1410
819 2676 1624
850 2737 1827
881 2793 2027
908 2846 2219
939 2892 2410
958 2942 2586
980 2986 2758
1021 3022 2921
1061 3059 3072
1099 3092 3222
1128 3127 3363
601 2473 322
644 2547 525
698 2618 749
747 2699 1003
785 2775 1230
825 2842 1452
857 2905 1663
888 2964 1868
920 3016 2072
943 3069 2262
965 3118 2446
987 3162 2628
1005 3205 2801
1026 3242 2973
1050 3281 3122
1086 3315 3268
1124 3344 3414
649 2699 357
703 2766 571
742 2839 774
786 2922 1030
823 2997 1262
859 3063 1484
895 3121 1702
921 3179 1905
945 3234 2101
970 3282 2296
988 3331 2478
1006 3375 2658
1023 3415 2832
1039 3453 3001
1043 3495 3154
1060 3525 3302
1097 3554 3446
696 2917 392
737 2989 595
784 3052 807
818 3137 1050
858 3208 1290
894 3270 1516
921 3331 1727
943 3390 1928
967 3441 2128
989 3488 2320
1003 3536 2501
1019 3578 2681
1032 3617 2852
1047 3647 3022
1048 3681 3175
1055 3683 3337
1059 3686 3490
733 3129 417
771 3199 618
809 3264 823
848 3339 1065
887 3407 1312
919 3470 1537
937 3534 1742
962 3587 1949
982 3638 2146
997 3686 2333
1011 3727 2517
1022 3749 2698
1025 3765 2867
1029 3775 3032
1029 3778 3203
1028 3779 3379
1027 3786 3505
762 3334 434
805 3397 643
846 3464 852
886 3532 1088
915 3601 1330
936 3667 1548
955 3726 1758
978 3777 1964
994 3825 2163
996 3854 2341
1003 3858 2529
1005 3858 2739
1005 3866 2895
1009 3870 3072
1008 3872 3247
1009 3876 3408
1007 3879 3539
275 11 1
272 20 124
294 25 257
330 24 431
344 35 605
385 31 775
402 40 941
415 51 1103
451 63 1261
471 93 1415
496 119 1567
526 142 1714
555 163 1858
565 193 1998
584 217 2136
621 231 2269
629 259 2400
279 158 3
303 153 145
322 163 301
352 172 471
392 189 648
413 220 822
451 248 991
485 277 1156
506 311 1318
539 338 1476
555 372 1630
584 399 1781
627 416 1928
647 444 2072
683 463 2211
702 489 2348
726 511 2481
307 290 16
316 309 164
348 344 372
389 382 547
427 422 715
471 455 887
505 492 1047
543 524 1214
569 560 1377
607 588 1539
644 615 1697
678 642 1851
715 666 2001
738 696 2148
772 719 2290
791 747 2430
816 772 2566
338 485 13
368 528 207
395 576 419
433 619 613
472 663 785
521 697 963
563 734 1130
606 768 1297
650 800 1462
684 835 1615
722 867 1769
764 894 1928
800 923 2079
823 956 2227
851 985 2373
877 1014 2516
904 1040 2654
386 710 24
413 761 241
448 810 460
488 855 666
529 899 863
576 939 1043
621 979 1215
666 1016 1386
707 1054 1549
749 1089 1711
787 1125 1867
825 1160 2020
864 1191 2172
899 1222 2321
937 1251 2467
969 1282 2607
997 1312 2746
434 937 60
469 987 288
512 1038 512
553 1088 722
590 1138 924
631 1184 1121
677 1228 1299
722 1270 1472
765 1311 1639
810 1349 1806
851 1387 1967
892 1423 2124
930 1460 2277
967 1495 2425
1005 1527 2573
1042 1558 2718
1071 1593 2852
495 1158 115
524 1216 333
570 1272 560
613 1327 774
654 1380 982
693 1431 1184
733 1480 1380
780 1524 1561
827 1568 1734
871 1611 1902
914 1653 2066
955 1694 2226
993 1735 2380
1034 1772 2534
1073 1807 2684
1111 1842 2831
1149 1874 2974
547 1385 164
582 1444 379
628 1507 608
672 1567 826
718 1622 1042
759 1677 1248
798 1730 1450
839 1782 1645
885 1829 1826
930 1877 1996
974 1923 2164
1018 1966 2328
1063 2007 2491
1105 2047 2649
1148 2085 2804
1184 2125 2950
1222 2162 3096
592 1617 211
631 1677 418
684 1742 657
733 1806 884
778 1867 1101
818 1927 1309
861 1984 1515
903 2038 1718
945 2092 1913
992 2141 2097
1043 2187 2272
1087 2235 2438
1132 2279 2603
1171 2324 2760
1215 2363 2918
1252 2403 3066
1292 2438 3216
641 1845 264
688 1905 472
737 1978 704
785 2048 936
831 2114 1156
877 2177 1371
923 2237 1583
970 2293 1792
1012 2349 1992
1052 2404 2187
1096 2454 2367
1140 2500 2535
1181 2544 2698
1222 2582 2858
1259 2620 3012
1292 2655 3159
1323 2689 3300
691 2074 307
741 2138 514
794 2211 750
840 2289 985
890 2356 1215
936 2421 1436
979 2483 1649
1019 2544 1853
1058 2599 2053
1095 2651 2247
1132 2698 2436
1169 2743 2612
1209 2783 2775
1244 2822 2930
1278 2859 3081
1310 2893 3228
1342 2923 3372
750 2298 354
800 2366 560
853 2441 790
903 2520 1037
948 2592 1266
986 2660 1483
1023 2721 1696
1056 2779 1900
1090 2831 2101
1122 2882 2293
1156 2929 2481
1186 2974 2661
1222 3012 2837
1254 3052 2990
1288 3086 3142
1319 3119 3289
1346 3151 3428
806 2527 393
855 2596 601
901 2669 818
952 2748 1073
991 2820 1302
1028 2886 1521
1062 2946 1733
1095 3000 1941
1121 3055 2136
1149 3102 2331
1171 3149 2516
1195 3193 2694
1224 3233 2869
1252 3270 3038
1286 3304 3191
1313 3338 3333
1342 3366 3474
857 2750 430
901 2821 634
946 2886 843
990 2967 1098
1030 3038 1332
1067 3100 1555
1096 3160 1765
1122 3216 1968
1151 3265 2169
1172 3313 2359
1190 3360 2541
1206 3403 2718
1225 3440 2893
1246 3478 3060
1272 3512 3225
1297 3543 3369
1327 3570 3509
901 2967 459
941 3036 662
983 3100 868
1027 3175 1121
1061 3246 1355
1094 3309 1578
1121 3367 1788
1148 3419 1994
1169 3470 2189
1188 3516 2379
1200 3564 2557
1218 3603 2738
1228 3641 2906
1241 3669 3073
1252 3696 3234
1271 3700 3395
1293 3707 3530
935 3177 480
979 3239 688
1020 3300 894
1056 3374 1134
1090 3443 1374
1116 3507 1593
1142 3562 1805
1163 3615 2009
1178 3667 2200
1193 3712 2387
1207 3750 2569
1222 3768 2752
1224 3783 2920
1229 3791 3086
1230 3794 3249
1230 3797 3411
1237 3800 3555
979 3384 513
1030 3446 731
1071 3510 940
1107 3576 1168
1132 3643 1404
1153 3705 1619
1178 3756 1831
1195 3808 2028
1215 3850 2225
1219 3870 2409
1226 3872 2602
1231 3877 2785
1232 3882 2959
1235 3887 3123
1235 3893 3279
1237 3896 3442
1236 3899 3562
442 29 1
497 20 124
508 33 268
539 38 447
570 42 622
583 54 794
616 55 961
632 68 1125
662 85 1285
690 112 1441
720 137 1594
739 167 1743
765 192 1888
803 209 2030
821 235 2169
835 262 2304
856 284 2435
474 166 3
500 174 133
544 172 309
561 189 488
602 208 667
640 233 842
668 267 1013
697 301 1181
730 331 1344
764 359 1504
792 389 1660
832 411 1812
852 442 1961
876 469 2106
925 482 2247
955 505 2385
