src/luts/Gone_Girl_-_Rec709.3dl
# Created by Benjamin (IWLTBAP) : http://luts.iwltbap.com
# Copyright: (C) Copyright 2016 Triune Films and IWLTBAP
# Blockbuster LUTs Pack
0 128 256 384 512 640 768 896 1023
27 26 10
78 92 322
136 100 774
234 135 1172
418 166 1653
560 236 2077
709 300 2446
881 341 2838
1036 391 3252
78 438 54
61 431 289
86 476 708
167 492 1127
317 490 1619
476 494 2060
651 514 2486
842 542 2896
1058 551 3350
108 936 185
105 930 394
108 970 765
152 1008 1214
274 1010 1709
416 1005 2116
553 1018 2505
701 1021 2922
899 1031 3310
183 1444 322
183 1453 495
192 1497 850
216 1526 1278
273 1553 1785
351 1569 2200
472 1581 2589
647 1565 3000
776 1578 3356
268 1941 462
271 1965 610
278 2017 936
287 2053 1352
303 2076 1841
354 2104 2254
423 2139 2671
527 2152 3113
693 2147 3428
349 2404 609
358 2440 746
373 2495 1045
381 2538 1444
396 2564 1921
413 2597 2321
457 2642 2751
516 2675 3207
608 2696 3556
443 2863 756
451 2903 894
467 2954 1171
477 2992 1559
485 3036 2001
505 3068 2393
523 3098 2806
565 3136 3263
624 3167 3631
537 3301 922
549 3350 1053
565 3407 1317
574 3454 1690
588 3501 2110
599 3541 2479
613 3566 2898
635 3591 3313
667 3626 3706
628 3752 1087
636 3795 1217
684 3819 1490
729 3839 1848
787 3862 2249
843 3880 2605
882 3897 3007
934 3915 3386
974 3930 3750
614 218 167
570 157 374
562 103 752
628 141 1200
780 175 1679
886 250 2100
1025 306 2484
1181 352 2861
1332 399 3277
374 432 61
386 416 280
417 471 687
481 500 1133
629 503 1626
789 513 2078
954 531 2517
1124 554 2927
1340 555 3382
346 940 155
341 919 375
334 949 742
383 994 1187
500 997 1680
624 1006 2112
776 1031 2515
979 1042 2936
1174 1063 3323
284 1473 322
296 1470 513
317 1505 862
349 1531 1285
439 1548 1785
540 1563 2194
656 1577 2588
800 1571 3012
984 1592 3361
328 1977 469
347 1992 625
356 2042 943
372 2075 1369
390 2104 1862
455 2137 2274
546 2159 2681
675 2156 3114
820 2154 3440
410 2443 627
426 2475 769
440 2531 1062
448 2579 1471
465 2611 1948
482 2642 2350
533 2676 2781
604 2701 3229
700 2715 3575
498 2916 780
511 2953 915
526 3004 1196
540 3043 1587
547 3084 2024
563 3113 2421
577 3138 2834
628 3171 3285
715 3187 3643
590 3367 943
603 3413 1079
618 3467 1346
625 3508 1715
638 3550 2134
646 3588 2503
657 3607 2923
681 3628 3337
709 3662 3734
684 3800 1114
733 3818 1271
782 3839 1545
826 3859 1896
883 3881 2290
937 3898 2644
975 3914 3039
1028 3931 3407
1063 3944 3771
1660 494 450
1526 424 586
1380 264 903
1280 168 1246
1332 200 1693
1420 258 2122
1517 318 2512
1639 367 2894
1758 416 3306
1099 619 243
1100 608 431
1045 559 756
1022 500 1126
1136 502 1643
1263 510 2103
1406 529 2547
1572 544 2971
1753 558 3410
962 944 149
933 914 344
924 933 709
948 985 1144
1049 1008 1667
1169 1029 2107
1296 1057 2522
1448 1068 2964
1608 1088 3347
946 1444 240
897 1439 431
856 1458 799
824 1491 1226
877 1528 1742
991 1552 2169
1141 1578 2567
1313 1590 3004
1476 1624 3348
874 1975 419
811 1993 574
686 2053 930
627 2091 1363
644 2113 1847
719 2142 2262
869 2142 2650
1091 2139 3077
1320 2148 3424
801 2491 621
712 2532 762
588 2600 1091
584 2637 1511
601 2661 1972
636 2679 2369
723 2697 2785
860 2696 3211
1087 2684 3538
773 2986 805
692 3025 937
630 3076 1238
657 3100 1625
661 3139 2054
677 3164 2449
703 3180 2859
776 3203 3302
907 3202 3650
796 3457 978
728 3498 1115
709 3541 1387
710 3577 1751
723 3615 2166
726 3648 2537
740 3663 2957
770 3677 3368
817 3706 3763
952 3828 1230
944 3845 1375
941 3865 1631
975 3884 1968
1033 3905 2348
1085 3921 2701
1123 3936 3082
1178 3952 3437
1216 3964 3801
2468 785 711
2379 743 808
2253 596 1118
2083 445 1441
1992 311 1794
1981 301 2163
2023 364 2553
2107 405 2950
2187 457 3341
1983 876 499
2002 865 629
1950 819 981
1837 676 1311
1799 522 1726
1873 504 2160
1940 556 2581
2086 553 3051
2184 596 3437
1779 1177 377
1777 1155 492
1757 1163 882
1700 1128 1277
1662 1030 1684
1738 1050 2120
1826 1084 2548
1934 1096 3011
2063 1115 3387
1630 1522 281
1592 1500 415
1559 1494 784
1548 1522 1224
1581 1546 1709
1662 1591 2149
1749 1636 2581
1860 1663 3040
1969 1697 3399
1547 2004 369
1523 2002 498
1483 2023 855
1477 2039 1290
1487 2055 1762
1552 2109 2191
1645 2152 2625
1753 2185 3095
1889 2217 3457
1520 2493 563
1490 2514 666
1441 2550 1006
1428 2568 1438
1429 2584 1880
1446 2608 2274
1535 2647 2707
1662 2674 3156
1783 2710 3533
1502 2970 734
1459 3002 842
1384 3056 1176
1379 3072 1586
1340 3106 2010
1338 3134 2399
1432 3127 2792
1542 3165 3218
1688 3186 3612
1419 3479 951
1345 3532 1084
1308 3574 1388
1267 3608 1783
1216 3646 2181
1168 3692 2564
1266 3679 2952
1410 3660 3320
1558 3676 3720
1465 3867 1294
1468 3883 1457
1485 3901 1748
1504 3918 2089
1511 3938 2444
1543 3953 2789
1601 3967 3143
1696 3981 3469
1793 3993 3816
3097 1020 946
3086 1017 1037
3006 893 1332
2847 740 1666
2727 576 2009
2622 463 2295
2561 424 2594
2616 453 2989
2683 500 3372
2790 1121 753
2743 1107 855
2718 1069 1199
2592 909 1541
2504 713 1936
2469 598 2263
2487 561 2651
2591 573 3099
2677 616 3466
2544 1417 611
2537 1398 701
2523 1412 1094
2460 1379 1503
2348 1213 1868
2309 1109 2195
2349 1097 2592
2434 1107 3052
2554 1118 3420
2384 1764 502
2361 1750 586
2320 1751 965
2284 1761 1415
2259 1719 1863
2217 1646 2186
2270 1670 2593
2355 1688 3059
2443 1715 3412
2208 2106 420
2179 2102 519
2112 2105 874
2092 2106 1335
2119 2129 1815
2145 2166 2213
2232 2201 2643
2325 2231 3107
2420 2258 3480
2165 2555 530
2142 2571 622
2093 2599 979
2079 2607 1429
2096 2616 1886
2110 2633 2263
2181 2673 2695
2278 2708 3143
2360 2741 3535
2175 3006 706
2141 3036 800
2091 3075 1138
2096 3083 1561
2106 3101 1990
2099 3124 2371
2148 3118 2768
2226 3162 3193
2310 3192 3611
2147 3485 883
2110 3523 981
2104 3547 1290
2084 3571 1699
2111 3586 2102
2086 3618 2471
2135 3606 2873
2188 3606 3245
2230 3650 3666
2167 3893 1094
2162 3917 1229
2172 3937 1537
2194 3954 1901
2232 3974 2306
2254 3987 2668
2271 3998 3056
2318 4009 3397
2335 4017 3806
3625 1227 1123
3628 1234 1191
3561 1151 1454
3425 979 1817
3313 813 2163
3229 679 2459
3131 580 2728
3088 507 3021
3128 526 3384
3512 1331 1007
3504 1330 1078
3500 1303 1406
3377 1132 1772
3265 942 2161
3220 783 2498
3149 672 2800
3123 594 3125
3189 620 3492
3327 1637 857
3329 1625 911
3327 1643 1278
3283 1604 1728
3161 1432 2093
3073 1297 2395
3026 1182 2710
3020 1087 3090
3115 1098 3454
3149 1982 737
3146 1972 780
3122 1980 1138
3094 1990 1638
3053 1954 2074
2954 1835 2359
2898 1738 2672
2912 1685 3071
2987 1712 3433
2996 2318 633
2990 2321 669
2914 2324 1031
2887 2325 1516
2884 2335 1984
2859 2327 2360
2831 2246 2682
2859 2240 3092
2942 2266 3479
2853 2645 563
2820 2648 639
2747 2651 982
2715 2645 1452
2710 2649 1903
2721 2677 2299
2768 2700 2711
2839 2724 3133
2909 2762 3546
2778 3029 652
2749 3055 737
2706 3085 1075
2692 3089 1532
2694 3102 1960
2693 3128 2350
2730 3124 2753
2796 3171 3174
2864 3214 3595
2747 3499 846
2720 3528 934
2711 3547 1252
2690 3565 1664
2705 3580 2070
2706 3602 2454
2732 3596 2863
2776 3596 3218
2819 3640 3655
2789 3887 1070
2784 3912 1173
2785 3935 1486
2803 3949 1855
2816 3979 2256
2843 3995 2652
2864 4002 3036
2908 4007 3386
2909 4011 3801
3868 1419 1326
3878 1433 1387
3853 1372 1613
3777 1185 1992
3700 1025 2331
3653 897 2616
3591 787 2882
3556 671 3145
3551 607 3425
3830 1515 1248
3831 1519 1300
3825 1509 1564
3746 1318 1960
3677 1135 2337
3647 995 2642
3598 870 2934
3587 738 3234
3589 686 3508
3721 1809 1052
3726 1804 1099
3724 1828 1429
3694 1775 1920
3614 1607 2277
3568 1472 2573
3521 1330 2882
3513 1178 3215
3547 1110 3503
3596 2160 924
3605 2160 966
3617 2177 1292
3599 2190 1825
3576 2158 2265
3515 2037 2546
3445 1906 2840
3417 1781 3153
3425 1723 3448
3532 2509 834
3542 2520 870
3525 2531 1203
3497 2539 1725
3499 2554 2195
3477 2549 2560
3415 2429 2858
3377 2322 3162
3407 2272 3500
3475 2848 751
3470 2859 802
3440 2865 1145
3397 2866 1642
3395 2875 2092
3385 2889 2484
3385 2880 2885
3370 2797 3183
3386 2776 3549
3404 3145 729
3379 3155 803
3322 3162 1136
3285 3162 1584
3276 3167 2010
3270 3178 2405
3293 3189 2830
3335 3224 3204
3380 3236 3615
3313 3529 824
3295 3554 902
3276 3571 1228
3246 3589 1643
3252 3599 2056
3241 3617 2451
3262 3618 2860
3303 3622 3211
3353 3654 3659
3376 3908 1050
3370 3931 1148
3365 3953 1473
3369 3967 1857
3382 3994 2246
3396 4010 2646
3413 4016 3048
3452 4017 3398
3463 4009 3809
3990 1595 1502
3992 1612 1556
3979 1574 1759
3938 1411 2110
3898 1258 2447
3867 1145 2717
3838 1040 2983
3810 930 3211
3786 847 3420
3989 1702 1445
3989 1711 1499
3988 1713 1731
3946 1531 2112
3904 1356 2473
3872 1231 2756
3842 1118 3033
3814 1002 3265
3795 934 3478
3957 1979 1244
3959 1976 1294
3958 2003 1576
3941 1954 2077
3911 1779 2439
3884 1644 2732
3859 1506 3032
3829 1368 3290
3810 1292 3525
3890 2320 1091
3899 2323 1129
3905 2343 1428
3889 2356 1985
3880 2324 2426
3853 2203 2705
3821 2065 3006
3807 1926 3272
3801 1828 3538
3864 2664 996
3874 2676 1030
3876 2693 1322
3862 2700 1890
3853 2721 2353
3848 2716 2726
3818 2586 3034
3789 2463 3275
3786 2363 3558
3856 2998 915
3855 3008 973
3845 3017 1307
3824 3025 1805
3814 3041 2257
3815 3058 2648
3811 3046 3053
3782 2940 3288
3778 2842 3584
3823 3270 872
3818 3281 938
3792 3289 1283
3778 3296 1738
3762 3309 2161
3762 3319 2559
3758 3325 2972
3766 3328 3304
3765 3267 3637
3771 3578 899
3759 3597 963
3738 3609 1286
3714 3619 1687
3707 3631 2091
3688 3641 2479
3696 3637 2895
3722 3647 3252
3740 3666 3681
3801 3932 1070
3805 3953 1163
3807 3969 1490
3807 3989 1856
3814 4012 2253
3813 4024 2658
3816 4024 3061
3834 4028 3419
3836 4017 3831
4035 1777 1659
4038 1793 1708
4037 1790 1874
4016 1612 2242
3997 1465 2570
3983 1360 2827
3971 1267 3073
3959 1160 3283
3950 1078 3477
4040 1873 1638
4042 1885 1691
4045 1903 1881
4026 1715 2278
4009 1554 2621
3997 1449 2878
3987 1349 3134
3976 1238 3342
3970 1164 3534
4042 2140 1445
4044 2145 1493
4046 2175 1751
4044 2124 2250
4031 1968 2582
4020 1844 2858
4009 1709 3150
3999 1578 3376
3992 1491 3595
4049 2483 1245
4051 2490 1285
4052 2507 1593
4047 2520 2159
4031 2496 2575
4039 2371 2861
4030 2231 3160
4021 2106 3378
4016 2000 3617
4047 2823 1125
4051 2834 1172
4042 2844 1517
4036 2857 2057
4014 2884 2515
4031 2881 2883
4024 2751 3186
4000 2641 3384
4024 2502 3669
4046 3141 1072
4046 3152 1125
4034 3158 1485
4026 3172 1969
4007 3192 2422
4020 3213 2809
4021 3199 3212
3995 3109 3405
4017 2975 3695
4027 3371 1054
4024 3382 1129
4017 3393 1456
4010 3408 1902
3995 3430 2336
4011 3449 2719
4008 3459 3131
4001 3464 3434
4006 3383 3742
3994 3661 1066
3989 3680 1130
3978 3699 1435
3977 3715 1844
3980 3736 2263
3989 3753 2648
3998 3759 3045
4001 3771 3399
4005 3754 3792
4024 3996 1185
4030 4013 1288
4046 4030 1587
4046 4044 1992
4049 4057 2449
4054 4064 2856
4070 4069 3198
4075 4074 3575
4084 4074 3905
