src/luts/Gone_Girl_-_Rec709.3dl
# Created by Benjamin (IWLTBAP) : http://luts.iwltbap.com
# Copyright: (C) Copyright 2016 Triune Films and IWLTBAP
# Blockbuster LUTs Pack
0 64 128 192 256 320 384 448 512 576 640 704 768 832 896 960 1023
27 26 10
43 58 112
78 92 322
121 112 560
136 100 774
166 106 978
234 135 1172
321 154 1407
418 166 1653
494 194 1876
560 236 2077
634 270 2265
709 300 2446
796 321 2638
881 341 2838
960 365 3046
1036 391 3252
66 195 26
43 208 108
65 237 275
95 268 476
110 273 702
126 273 913
192 287 1117
277 291 1367
369 290 1617
451 305 1841
518 333 2050
603 359 2260
700 378 2464
799 390 2671
879 411 2873
962 429 3085
1047 447 3299
78 438 54
60 429 152
61 431 289
73 463 486
86 476 708
106 481 920
167 492 1127
236 496 1377
317 490 1619
399 487 1846
476 494 2060
554 504 2274
651 514 2486
749 528 2683
842 542 2896
951 545 3126
1058 551 3350
89 694 114
84 676 211
80 678 339
79 693 517
82 720 735
96 737 951
148 748 1173
208 754 1429
281 750 1663
370 741 1873
445 740 2078
507 750 2279
576 762 2482
659 770 2677
764 771 2895
879 770 3116
985 775 3325
108 936 185
106 923 274
105 930 394
107 948 564
108 970 765
118 993 982
152 1008 1214
212 1012 1470
274 1010 1709
342 1008 1918
416 1005 2116
479 1011 2309
553 1018 2505
628 1021 2707
701 1021 2922
795 1022 3128
899 1031 3310
140 1188 253
138 1179 329
139 1188 441
141 1206 608
144 1228 808
157 1246 1016
180 1264 1247
222 1273 1505
279 1273 1754
333 1276 1965
386 1282 2160
450 1285 2349
534 1286 2541
615 1284 2749
678 1286 2964
750 1287 3166
824 1297 3333
183 1444 322
182 1442 390
183 1453 495
186 1473 653
192 1497 850
202 1514 1057
216 1526 1278
237 1544 1537
273 1553 1785
316 1558 2000
351 1569 2200
401 1578 2390
472 1581 2589
566 1572 2800
647 1565 3000
713 1567 3194
776 1578 3356
225 1693 391
225 1695 452
227 1710 550
230 1733 700
235 1760 886
239 1783 1091
248 1794 1312
257 1807 1562
276 1825 1809
305 1837 2026
344 1846 2226
389 1857 2420
441 1870 2620
514 1868 2853
599 1860 3046
669 1862 3222
729 1873 3381
268 1941 462
269 1948 517
271 1965 610
274 1989 752
278 2017 936
282 2040 1134
287 2053 1352
292 2063 1599
303 2076 1841
327 2090 2052
354 2104 2254
387 2121 2457
423 2139 2671
463 2151 2915
527 2152 3113
607 2150 3276
693 2147 3428
308 2174 537
310 2188 588
313 2209 676
318 2237 811
325 2266 992
331 2289 1185
336 2304 1398
341 2314 1642
347 2325 1882
358 2337 2087
378 2355 2291
407 2375 2494
436 2393 2714
473 2406 2958
523 2413 3162
584 2418 3327
657 2418 3490
349 2404 609
353 2419 659
358 2440 746
364 2467 876
373 2495 1045
379 2520 1234
381 2538 1444
387 2552 1683
396 2564 1921
401 2578 2124
413 2597 2321
432 2621 2530
457 2642 2751
487 2657 2994
516 2675 3207
547 2693 3381
608 2696 3556
398 2632 682
401 2649 733
404 2671 819
410 2697 944
420 2724 1104
426 2746 1296
428 2763 1501
434 2779 1726
442 2797 1960
450 2812 2169
457 2830 2357
469 2850 2553
488 2871 2776
511 2890 3019
539 2908 3236
569 2927 3404
601 2941 3597
443 2863 756
447 2881 808
451 2903 894
457 2927 1017
467 2954 1171
474 2973 1355
477 2992 1559
479 3015 1776
485 3036 2001
495 3052 2207
505 3068 2393
513 3083 2586
523 3098 2806
542 3117 3044
565 3136 3263
590 3157 3433
624 3167 3631
491 3083 838
496 3106 892
501 3130 974
508 3156 1091
517 3184 1243
524 3206 1420
528 3227 1624
532 3249 1841
537 3272 2058
542 3290 2256
550 3307 2436
562 3318 2631
568 3329 2849
577 3343 3077
597 3364 3286
624 3383 3455
647 3395 3666
537 3301 922
542 3326 975
549 3350 1053
556 3378 1167
565 3407 1317
571 3430 1489
574 3454 1690
580 3478 1899
588 3501 2110
593 3522 2298
599 3541 2479
606 3556 2678
613 3566 2898
621 3576 3117
635 3591 3313
657 3610 3484
667 3626 3706
584 3526 1007
590 3549 1059
595 3571 1137
602 3596 1251
608 3623 1395
613 3645 1563
615 3668 1753
622 3693 1952
633 3715 2157
641 3736 2339
649 3756 2519
655 3772 2718
660 3785 2940
665 3801 3151
675 3816 3347
701 3825 3517
728 3834 3732
628 3752 1087
632 3774 1139
636 3795 1217
659 3808 1342
684 3819 1490
706 3829 1659
729 3839 1848
758 3851 2045
787 3862 2249
817 3871 2428
843 3880 2605
866 3889 2797
882 3897 3007
906 3906 3203
934 3915 3386
958 3922 3557
974 3930 3750
225 99 61
247 88 148
251 91 321
294 112 549
317 101 760
342 106 978
394 135 1198
477 156 1421
571 170 1664
639 204 1885
696 246 2089
768 277 2284
845 303 2466
931 325 2650
1014 345 2851
1092 368 3062
1168 394 3267
182 209 30
193 206 111
214 234 274
247 270 476
278 279 694
299 283 909
347 297 1139
425 299 1376
510 300 1618
585 316 1842
651 344 2060
732 367 2279
825 381 2483
921 393 2682
998 415 2886
1083 432 3100
1169 450 3313
186 442 56
197 421 153
201 423 288
214 458 486
231 478 705
254 484 919
301 494 1143
367 496 1382
445 493 1619
524 492 1844
603 502 2069
688 517 2291
787 528 2501
882 541 2697
971 553 2915
1079 552 3147
1185 556 3369
189 696 113
194 675 207
192 676 336
191 690 514
198 719 734
220 735 949
271 744 1169
335 746 1409
397 744 1647
470 740 1865
543 742 2079
609 757 2287
688 771 2491
786 779 2690
893 780 2913
1004 781 3136
1110 788 3340
178 952 170
183 933 266
184 938 390
194 950 558
205 967 761
220 989 981
262 1002 1202
326 1001 1449
385 1000 1692
445 999 1908
510 1001 2112
563 1014 2315
632 1024 2513
711 1027 2718
804 1029 2931
910 1035 3133
1013 1048 3313
186 1207 238
194 1192 329
199 1198 444
209 1211 609
220 1228 811
230 1247 1021
255 1266 1248
304 1271 1500
369 1268 1746
425 1269 1959
475 1278 2157
534 1287 2353
612 1289 2549
686 1289 2761
748 1292 2973
827 1296 3173
926 1309 3335
220 1461 318
224 1456 399
225 1467 503
234 1483 661
246 1502 858
257 1519 1065
272 1530 1284
293 1546 1539
337 1553 1789
391 1554 2001
436 1565 2197
485 1578 2389
561 1578 2588
642 1573 2806
713 1568 3008
773 1573 3201
834 1585 3363
257 1709 389
262 1709 460
263 1724 557
265 1747 703
277 1769 892
282 1791 1098
290 1801 1318
301 1814 1567
322 1833 1817
360 1843 2030
407 1853 2230
456 1866 2423
510 1877 2622
583 1873 2857
663 1866 3052
732 1866 3226
786 1878 3388
294 1957 464
297 1964 522
301 1979 615
305 2002 753
313 2026 939
319 2048 1141
323 2061 1360
329 2071 1606
339 2087 1851
366 2103 2061
398 2120 2265
437 2136 2465
473 2153 2680
517 2161 2922
591 2156 3117
671 2153 3278
751 2151 3435
331 2192 539
337 2204 597
343 2223 685
350 2249 815
358 2276 995
363 2299 1192
368 2314 1405
373 2326 1650
381 2338 1891
394 2354 2100
412 2377 2305
442 2395 2507
477 2409 2726
526 2415 2965
584 2417 3165
644 2421 3329
715 2421 3494
376 2418 616
385 2432 671
389 2452 756
395 2479 883
403 2508 1051
408 2533 1244
411 2553 1453
417 2569 1693
427 2585 1933
434 2602 2140
444 2621 2336
464 2642 2545
492 2659 2766
521 2674 3008
553 2689 3220
588 2705 3390
648 2706 3567
423 2648 691
430 2664 743
433 2686 827
438 2712 953
448 2739 1114
455 2762 1308
457 2783 1514
462 2804 1739
471 2822 1973
478 2837 2184
485 2854 2372
495 2872 2568
515 2892 2793
543 2907 3033
573 2923 3249
604 2942 3416
633 2956 3611
467 2883 766
474 2901 817
478 2923 903
484 2948 1026
494 2976 1182
502 2998 1369
505 3018 1573
506 3041 1789
513 3061 2013
521 3076 2221
530 3091 2407
538 3104 2600
547 3118 2820
566 3136 3058
589 3155 3276
616 3174 3445
662 3178 3639
516 3116 850
523 3138 904
528 3160 985
535 3186 1102
543 3213 1256
550 3235 1433
553 3254 1637
557 3274 1853
562 3295 2070
567 3313 2268
573 3329 2449
584 3339 2645
590 3349 2862
600 3362 3090
621 3382 3296
650 3400 3465
672 3411 3679
561 3334 932
568 3359 988
574 3382 1066
581 3409 1178
589 3437 1331
595 3460 1502
598 3482 1702
603 3504 1911
611 3526 2122
616 3546 2310
621 3564 2491
626 3577 2690
633 3586 2911
642 3595 3129
656 3609 3325
679 3628 3494
686 3644 3719
606 3556 1017
613 3578 1071
619 3600 1149
625 3625 1262
631 3651 1408
635 3672 1575
637 3695 1764
644 3718 1964
656 3739 2169
664 3760 2351
671 3779 2531
677 3794 2730
682 3806 2953
694 3817 3162
719 3825 3354
746 3833 3525
772 3841 3741
649 3780 1098
659 3798 1154
681 3808 1242
706 3818 1367
731 3829 1516
752 3839 1684
775 3849 1871
803 3860 2067
833 3872 2269
862 3881 2447
888 3889 2624
909 3897 2814
925 3905 3023
949 3914 3216
979 3923 3396
1001 3930 3570
1016 3937 3760
614 218 167
623 203 253
570 157 374
544 117 546
562 103 752
580 112 969
628 141 1200
700 160 1439
780 175 1679
831 212 1893
886 250 2100
955 279 2301
1025 306 2484
1104 330 2661
1181 352 2861
1256 375 3071
1332 399 3277
429 279 90
444 276 181
432 270 305
424 267 472
459 275 690
485 281 902
528 297 1135
607 298 1390
692 302 1633
761 321 1853
825 346 2073
906 364 2299
996 379 2506
1083 395 2694
1155 419 2895
1243 433 3114
1329 450 3326
374 432 61
379 413 153
386 416 280
396 447 472
417 471 687
441 486 901
481 500 1133
552 501 1383
629 503 1626
712 505 1853
789 513 2078
864 525 2305
954 531 2517
1040 544 2708
1124 554 2927
1237 549 3165
1340 555 3382
375 678 102
373 657 195
372 656 316
368 667 491
368 701 708
383 723 927
425 737 1149
484 742 1391
547 746 1639
625 747 1864
707 753 2082
782 770 2294
869 786 2500
966 792 2703
1065 795 2929
1168 797 3154
1270 806 3353
346 940 155
348 918 253
341 919 375
332 931 539
334 949 742
345 978 965
383 994 1187
446 995 1431
500 997 1680
554 1001 1904
624 1006 2112
694 1018 2317
776 1031 2515
877 1038 2722
979 1042 2936
1078 1049 3141
1174 1063 3323
300 1209 229
299 1191 325
300 1191 449
308 1205 601
321 1220 801
332 1240 1012
351 1264 1241
406 1269 1489
476 1265 1736
532 1267 1954
576 1279 2158
627 1290 2356
708 1292 2554
790 1294 2769
881 1299 2977
988 1308 3170
1092 1323 3336
284 1473 322
289 1464 403
296 1470 513
305 1486 667
317 1505 862
328 1521 1069
349 1531 1285
383 1544 1534
439 1548 1785
499 1549 1996
540 1563 2194
579 1578 2389
656 1577 2588
729 1573 2810
800 1571 3012
878 1579 3203
984 1592 3361
316 1718 391
325 1716 461
332 1727 562
331 1752 704
340 1776 893
345 1798 1105
354 1808 1325
366 1822 1572
386 1845 1826
431 1855 2039
483 1863 2234
535 1873 2425
591 1882 2622
664 1875 2857
737 1870 3056
805 1871 3231
863 1882 3394
328 1977 469
337 1981 529
347 1992 625
350 2016 760
356 2042 943
367 2061 1151
372 2075 1369
379 2086 1616
390 2104 1862
418 2122 2075
455 2137 2274
499 2149 2472
546 2159 2681
601 2162 2917
675 2156 3114
747 2155 3278
820 2154 3440
368 2215 546
377 2224 604
387 2240 697
393 2265 825
398 2294 1000
404 2317 1203
408 2334 1418
413 2348 1664
422 2361 1905
439 2375 2113
454 2398 2317
495 2410 2514
543 2417 2729
597 2419 2966
658 2420 3165
718 2423 3327
783 2424 3498
410 2443 627
419 2456 681
426 2475 769
432 2502 894
440 2531 1062
446 2557 1260
448 2579 1471
454 2596 1709
465 2611 1948
478 2622 2154
482 2642 2350
503 2661 2561
533 2676 2781
568 2688 3020
604 2701 3229
642 2714 3396
700 2715 3575
454 2677 705
462 2693 753
468 2713 839
473 2739 964
483 2767 1128
491 2789 1326
492 2810 1532
495 2831 1755
505 2847 1986
513 2862 2198
520 2877 2385
531 2892 2582
555 2909 2809
584 2923 3046
614 2939 3261
647 2956 3426
687 2964 3618
498 2916 780
506 2932 828
511 2953 915
517 2978 1038
526 3004 1196
536 3024 1383
540 3043 1587
537 3067 1804
547 3084 2024
555 3099 2234
563 3113 2421
569 3125 2614
577 3138 2834
597 3156 3073
628 3171 3285
664 3186 3450
715 3187 3643
546 3149 863
553 3169 915
559 3190 998
565 3215 1113
573 3242 1269
580 3261 1447
582 3279 1651
586 3299 1865
593 3318 2080
596 3336 2281
601 3351 2462
611 3361 2658
617 3370 2877
627 3381 3103
649 3401 3308
681 3418 3475
703 3428 3692
590 3367 943
597 3390 1001
603 3413 1079
610 3439 1191
618 3467 1346
623 3488 1516
625 3508 1715
630 3529 1923
638 3550 2134
642 3571 2322
646 3588 2503
651 3600 2701
657 3607 2923
666 3615 3141
681 3628 3337
704 3647 3506
709 3662 3734
631 3586 1026
640 3608 1084
645 3630 1161
650 3654 1274
657 3679 1423
662 3699 1589
664 3721 1777
671 3743 1977
682 3764 2182
690 3785 2364
701 3800 2545
718 3809 2744
729 3817 2966
747 3825 3172
772 3833 3360
796 3840 3536
821 3849 3751
684 3800 1114
711 3809 1183
733 3818 1271
758 3829 1394
782 3839 1545
802 3849 1712
826 3859 1896
853 3870 2090
883 3881 2290
912 3890 2467
937 3898 2644
958 3906 2833
975 3914 3039
999 3922 3230
1028 3931 3407
1050 3938 3582
1063 3944 3771
1094 361 294
1085 349 359
1016 294 474
951 224 625
906 148 788
877 121 974
917 145 1207
978 163 1447
1033 185 1684
1069 223 1897
1120 257 2109
1187 282 2317
1252 308 2502
1323 334 2671
1391 358 2875
1459 382 3085
1532 406 3289
783 388 188
798 384 266
788 380 394
742 334 526
732 287 703
751 278 906
786 297 1136
857 297 1392
923 306 1640
981 326 1861
1043 348 2086
1123 363 2316
1209 377 2526
1284 401 2701
1350 425 2905
1434 439 3127
