src/luts/Gone_Girl_-_Rec709.3dl
# Created by Benjamin (IWLTBAP) : http://luts.iwltbap.com
# Copyright: (C) Copyright 2016 Triune Films and IWLTBAP
# Blockbuster LUTs Pack
0 256 512 768 1023
27 26 10
136 100 774
418 166 1653
709 300 2446
1036 391 3252
108 936 185
108 970 765
274 1010 1709
553 1018 2505
899 1031 3310
268 1941 462
278 2017 936
303 2076 1841
423 2139 2671
693 2147 3428
443 2863 756
467 2954 1171
485 3036 2001
523 3098 2806
624 3167 3631
628 3752 1087
684 3819 1490
787 3862 2249
882 3897 3007
974 3930 3750
1660 494 450
1380 264 903
1332 200 1693
1517 318 2512
1758 416 3306
962 944 149
924 933 709
1049 1008 1667
1296 1057 2522
1608 1088 3347
874 1975 419
686 2053 930
644 2113 1847
869 2142 2650
1320 2148 3424
773 2986 805
630 3076 1238
661 3139 2054
703 3180 2859
907 3202 3650
952 3828 1230
941 3865 1631
1033 3905 2348
1123 3936 3082
1216 3964 3801
3097 1020 946
3006 893 1332
2727 576 2009
2561 424 2594
2683 500 3372
2544 1417 611
2523 1412 1094
2348 1213 1868
2349 1097 2592
2554 1118 3420
2208 2106 420
2112 2105 874
2119 2129 1815
2232 2201 2643
2420 2258 3480
2175 3006 706
2091 3075 1138
2106 3101 1990
2148 3118 2768
2310 3192 3611
2167 3893 1094
2172 3937 1537
2232 3974 2306
2271 3998 3056
2335 4017 3806
3868 1419 1326
3853 1372 1613
3700 1025 2331
3591 787 2882
3551 607 3425
3721 1809 1052
3724 1828 1429
3614 1607 2277
3521 1330 2882
3547 1110 3503
3532 2509 834
3525 2531 1203
3499 2554 2195
3415 2429 2858
3407 2272 3500
3404 3145 729
3322 3162 1136
3276 3167 2010
3293 3189 2830
3380 3236 3615
3376 3908 1050
3365 3953 1473
3382 3994 2246
3413 4016 3048
3463 4009 3809
4035 1777 1659
4037 1790 1874
3997 1465 2570
3971 1267 3073
3950 1078 3477
4042 2140 1445
4046 2175 1751
4031 1968 2582
4009 1709 3150
3992 1491 3595
4047 2823 1125
4042 2844 1517
4014 2884 2515
4024 2751 3186
4024 2502 3669
4027 3371 1054
4017 3393 1456
3995 3430 2336
4008 3459 3131
4006 3383 3742
4024 3996 1185
4046 4030 1587
4049 4057 2449
4070 4069 3198
4084 4074 3905
