src/luts/Gravity_-_Rec709.3dl
# Created by Benjamin (IWLTBAP) : http://luts.iwltbap.com
# Copyright: (C) Copyright 2016 Triune Films and IWLTBAP
# Blockbuster LUTs Pack
0 128 256 384 512 640 768 896 1023
4 5 27
41 41 303
122 122 849
342 210 1445
481 286 1961
648 358 2453
803 427 2929
940 484 3326
1014 516 3579
59 410 85
47 303 331
121 395 846
219 572 1415
346 524 1900
563 500 2418
728 569 2894
871 627 3302
976 666 3595
122 849 178
109 769 442
129 801 890
209 963 1438
277 995 1903
359 1083 2396
575 1168 2883
764 1263 3323
910 1341 3642
183 1276 256
178 1243 568
179 1250 999
219 1336 1500
286 1420 1963
356 1530 2442
419 1626 2879
476 1731 3280
559 1822 3585
250 1740 342
249 1734 712
251 1744 1136
255 1771 1578
295 1856 2017
360 1958 2465
423 2047 2900
478 2144 3294
516 2210 3579
322 2233 507
323 2238 875
325 2250 1284
329 2277 1706
333 2302 2103
369 2351 2519
429 2449 2943
485 2547 3335
516 2621 3579
390 2700 670
392 2711 1030
394 2725 1411
395 2730 1820
398 2749 2223
403 2782 2612
438 2848 2996
491 2944 3369
516 3014 3579
458 3168 815
460 3180 1170
461 3185 1543
462 3192 1944
464 3206 2358
470 3241 2721
475 3274 3072
494 3333 3388
516 3390 3579
516 3573 1002
516 3574 1353
514 3565 1724
515 3572 2087
516 3574 2471
516 3579 2828
516 3579 3154
516 3579 3439
516 3579 3579
233 30 30
280 43 307
402 122 853
512 201 1385
695 281 1930
852 355 2433
1006 424 2906
1168 482 3319
1289 516 3579
201 282 38
232 323 390
320 404 913
484 395 1439
692 440 2001
834 511 2491
993 576 2938
1144 631 3330
1251 666 3595
244 777 110
260 796 450
283 827 935
356 920 1433
484 994 1955
710 1059 2479
906 1139 2953
1115 1235 3390
1260 1294 3685
313 1255 180
331 1284 559
331 1282 1015
364 1325 1485
437 1444 1981
506 1548 2459
608 1654 2909
867 1772 3337
1044 1862 3656
389 1752 272
404 1782 715
406 1795 1154
408 1803 1593
447 1882 2043
513 1978 2499
574 2066 2926
630 2165 3323
737 2246 3606
475 2267 467
474 2261 880
477 2281 1289
481 2304 1711
484 2323 2117
518 2375 2531
579 2472 2958
635 2561 3349
666 2636 3595
542 2729 665
542 2730 1040
544 2742 1412
547 2759 1816
551 2785 2236
555 2811 2625
586 2857 3001
639 2962 3378
666 3036 3595
608 3184 843
609 3195 1205
611 3206 1582
615 3228 1985
616 3236 2373
620 3260 2749
627 3302 3088
645 3352 3411
666 3404 3595
666 3590 1019
665 3588 1384
666 3592 1749
666 3594 2123
666 3595 2485
666 3595 2849
666 3595 3179
666 3595 3459
666 3595 3595
687 95 95
723 101 355
733 120 838
835 196 1358
983 280 1920
1123 349 2395
1275 417 2866
1485 483 3320
1613 516 3579
647 325 89
736 350 383
738 352 938
822 361 1468
984 440 2000
1120 511 2486
1297 578 2950
1468 633 3341
1589 666 3595
596 749 105
659 814 462
637 890 1028
792 937 1573
976 930 2107
1120 951 2578
1278 1026 3002
1468 1089 3407
1585 1166 3668
478 1249 179
487 1330 545
484 1319 1060
529 1348 1548
721 1467 2071
922 1587 2560
1153 1711 3021
1401 1815 3441
1516 1892 3725
517 1738 250
562 1848 661
563 1853 1168
562 1849 1627
600 1907 2079
665 2010 2531
879 2123 2981
1175 2249 3402
1305 2333 3690
598 2274 340
629 2307 859
631 2321 1313
633 2335 1736
636 2353 2159
673 2417 2577
731 2506 2984
867 2602 3382
959 2686 3634
698 2791 609
694 2760 1055
696 2769 1442
700 2796 1851
704 2820 2257
708 2843 2646
737 2899 3021
791 2993 3404
816 3057 3611
762 3230 863
761 3220 1253
763 3235 1631
767 3257 2008
770 3276 2389
774 3301 2772
779 3334 3111
795 3380 3428
816 3429 3611
815 3604 1044
814 3599 1421
815 3605 1796
816 3608 2168
816 3611 2524
816 3611 2878
816 3611 3201
816 3611 3473
816 3611 3611
1124 158 158
1153 163 400
1152 163 859
1176 195 1349
1301 278 1912
1445 351 2408
1615 415 2856
1839 483 3320
1945 516 3579
1077 364 151
1167 349 419
1191 366 912
1157 358 1449
1307 438 1988
1455 505 2450
1629 573 2921
1840 636 3357
1931 666 3595
1061 801 148
1163 826 450
1264 921 1032
1275 939 1609
1378 842 2129
1509 862 2577
1655 904 3014
1838 979 3412
1938 1043 3648
1053 1234 176
1121 1306 530
1194 1390 1132
1165 1457 1683
1330 1524 2210
1489 1600 2674
1703 1699 3138
1878 1763 3549
1971 1844 3769
1029 1729 249
1018 1867 660
993 1911 1237
980 1911 1732
1147 1993 2214
1291 2108 2672
1530 2212 3103
1738 2317 3512
1840 2387 3769
929 2221 320
840 2347 774
806 2370 1330
789 2386 1799
886 2418 2221
1058 2482 2648
1314 2602 3090
1565 2726 3501
1607 2801 3731
809 2767 449
853 2829 995
849 2808 1513
853 2835 1934
857 2859 2316
861 2881 2690
1063 2963 3093
1249 3080 3482
1367 3154 3692
921 3309 778
916 3270 1269
915 3264 1684
919 3286 2065
922 3306 2443
927 3340 2806
931 3365 3150
980 3411 3459
1139 3470 3655
965 3623 1032
966 3627 1426
966 3627 1828
966 3627 2204
966 3627 2555
966 3627 2903
966 3627 3222
1056 3642 3497
1282 3678 3678
1625 231 231
1665 238 470
1626 232 923
1555 220 1351
1654 273 1881
1840 351 2408
2038 420 2884
2237 481 3311
2309 516 3579
1556 397 220
1648 382 443
1673 387 922
1585 372 1389
1664 435 1973
1817 504 2444
2038 573 2919
2245 632 3331
2307 666 3595
1508 861 212
1634 874 504
1784 962 1093
1750 991 1590
1774 883 2106
1916 881 2581
2079 894 2999
2251 939 3388
2322 963 3635
1538 1278 217
1649 1346 559
1795 1458 1141
1810 1507 1727
1898 1560 2259
1993 1591 2734
2171 1627 3160
2315 1687 3549
2398 1751 3755
1554 1733 249
1656 1834 647
1756 1941 1153
1760 1999 1841
1828 2092 2345
1962 2176 2803
2151 2256 3243
2324 2333 3644
2411 2422 3848
1588 2211 319
1650 2340 740
1702 2502 1330
1657 2500 1947
1714 2533 2380
1839 2615 2815
2010 2719 3230
2179 2821 3608
2236 2893 3825
1565 2715 392
1629 2847 890
1558 2943 1512
1629 2962 2055
1697 3009 2483
1745 3037 2858
1881 3107 3240
2003 3213 3603
2109 3284 3805
1495 3287 656
1478 3354 1221
1340 3341 1705
1376 3364 2147
1635 3441 2571
1664 3473 2945
1738 3507 3290
1876 3556 3598
2027 3609 3791
1404 3654 991
1372 3680 1444
1284 3671 1858
1442 3696 2270
1506 3707 2643
1652 3730 3017
1782 3752 3354
1929 3775 3625
2101 3802 3804
2153 309 309
2188 315 491
2212 319 962
2079 297 1416
2145 308 1913
2277 347 2383
2483 419 2876
2631 477 3284
2689 516 3579
2109 436 302
2191 462 513
2246 472 988
2130 453 1454
2148 456 1946
2279 501 2429
2480 571 2906
2651 629 3315
2697 666 3595
2017 926 287
2160 931 548
2300 969 1150
2279 974 1612
2289 956 2080
2361 903 2538
2512 901 2962
2657 844 3349
2703 826 3612
2055 1348 293
2187 1405 604
2358 1547 1268
2401 1606 1848
2419 1616 2279
2493 1609 2702
2645 1610 3116
2758 1612 3513
2807 1681 3743
2088 1774 299
2218 1876 645
2357 2009 1239
2428 2108 1918
2482 2144 2386
2575 2203 2826
2701 2218 3244
2808 2256 3640
2874 2340 3842
2086 2228 321
2225 2337 700
2348 2490 1295
2428 2565 1958
2502 2617 2487
2568 2711 2932
2690 2797 3337
2794 2884 3707
2837 2951 3914
2150 2711 392
2263 2825 834
2358 2977 1496
2443 3054 2123
2496 3104 2586
2512 3138 2975
2585 3224 3368
2629 3315 3703
2703 3371 3893
2188 3236 520
2300 3337 1158
2368 3422 1730
2411 3516 2255
2530 3573 2704
2513 3605 3086
2495 3619 3420
2556 3654 3700
2667 3699 3887
2222 3640 929
2326 3716 1417
2362 3790 1918
2440 3848 2396
2457 3853 2786
2521 3863 3145
2555 3869 3475
2624 3875 3723
2718 3889 3889
2660 384 384
2691 389 522
2715 392 952
2641 380 1513
2676 386 2003
2786 404 2464
2894 423 2885
3009 475 3273
3107 516 3579
2665 518 384
2715 539 539
2752 546 1031
2729 542 1568
2693 536 2047
2793 552 2490
2904 572 2894
3045 626 3294
3130 666 3595
2599 984 374
2699 968 560
2824 1034 1245
2817 1020 1736
2797 988 2169
2849 961 2587
2932 924 2959
3055 788 3338
3150 826 3612
2604 1429 374
2724 1475 573
2880 1619 1347
2923 1648 1924
2952 1647 2333
2986 1649 2731
3049 1631 3095
3170 1600 3478
3253 1644 3732
2641 1869 380
2768 1948 622
2910 2091 1393
2995 2191 2050
3067 2222 2488
3089 2242 2869
3146 2224 3225
3280 2250 3605
3335 2299 3833
2659 2304 383
2774 2384 685
2897 2519 1461
2986 2619 2057
3105 2704 2560
3144 2752 2963
3215 2792 3344
3311 2846 3708
3371 2908 3926
2679 2746 399
2757 2848 883
2877 2958 1567
2978 3055 2113
3073 3131 2583
3157 3213 3064
3203 3298 3459
3269 3377 3792
3328 3426 3985
2715 3237 550
2804 3312 1156
2906 3415 1712
3000 3529 2236
3100 3606 2726
3141 3677 3155
3140 3711 3506
3206 3748 3790
3260 3780 3974
2759 3639 887
2869 3706 1371
2929 3780 1864
3029 3852 2350
3112 3922 2828
3194 3964 3232
3203 3966 3571
3244 3973 3812
3267 3975 3974
3166 457 457
3159 456 590
3170 458 991
3168 458 1603
3202 463 2140
3294 478 2570
3377 492 2949
3406 497 3287
3444 516 3574
3190 595 462
3229 615 615
3257 620 1093
3257 620 1697
3236 616 2183
3299 626 2598
3386 641 2977
3432 648 3327
3455 665 3586
3167 1019 458
3258 1000 620
3342 1076 1315
3340 1074 1854
3355 1034 2278
3352 988 2667
3399 873 3002
3439 836 3352
3478 858 3608
3183 1511 460
3305 1547 628
3419 1698 1483
3459 1729 2046
3497 1701 2433
3474 1686 2797
3511 1676 3144
3554 1649 3486
3591 1674 3739
3228 1963 468
3308 2023 688
3434 2162 1546
3526 2244 2131
3570 2248 2545
3584 2259 2911
3604 2278 3267
3662 2291 3598
3677 2324 3831
3246 2402 471
3310 2467 893
3421 2577 1627
3527 2682 2169
3630 2779 2661
3673 2829 3064
3697 2855 3394
3718 2848 3702
3741 2904 3922
3216 2809 466
3302 2881 1070
3390 2981 1666
3515 3101 2195
3600 3202 2680
3678 3287 3123
3723 3341 3488
3742 3368 3797
3760 3400 3998
3186 3234 604
3284 3314 1216
3367 3398 1737
3464 3522 2249
3564 3614 2721
3624 3693 3160
3707 3759 3572
3736 3804 3859
3750 3837 4043
3231 3631 842
3327 3706 1355
3387 3780 1858
3503 3852 2348
3578 3917 2815
3646 3981 3245
3714 4031 3627
3725 4042 3876
3714 4041 4041
3577 516 516
3577 516 650
3579 516 1158
3575 516 1739
3579 516 2238
3579 516 2640
3579 516 2991
3471 499 3258
3579 516 3570
3578 650 516
3594 666 666
3595 666 1216
3595 666 1779
3590 666 2247
3595 666 2670
3595 666 3014
3469 646 3263
3595 666 3587
3579 1030 516
3598 1044 688
3650 1062 1421
3657 1098 1930
3605 1041 2332
3626 909 2703
3626 910 3062
3503 991 3321
3637 975 3623
3579 1604 516
3609 1651 914
3738 1754 1599
3756 1760 2078
3675 1764 2464
3751 1727 2838
3747 1701 3190
3606 1736 3432
3765 1811 3756
3579 2034 516
3589 2094 1045
3747 2201 1652
3824 2279 2188
3714 2274 2581
3835 2298 2969
3838 2314 3305
3722 2315 3551
3849 2383 3839
3572 2446 515
3572 2496 1151
3750 2619 1696
3830 2722 2239
3776 2767 2697
3912 2836 3093
3914 2861 3422
3841 2853 3679
3920 2900 3913
3567 2849 528
3555 2889 1252
3758 3041 1742
3837 3148 2287
3810 3189 2736
3968 3341 3196
3977 3374 3533
3938 3372 3783
3994 3401 3999
3602 3294 700
3591 3305 1344
3768 3450 1826
3833 3555 2334
3850 3605 2785
3972 3727 3218
3974 3752 3563
4000 3793 3844
4053 3830 4058
3545 3602 918
3647 3702 1448
3745 3790 1919
3790 3844 2389
3868 3889 2832
3956 3978 3245
3943 3965 3566
4004 4025 3855
4078 4092 4092
