src/luts/Gravity_-_Rec709.3dl
# Created by Benjamin (IWLTBAP) : http://luts.iwltbap.com
# Copyright: (C) Copyright 2016 Triune Films and IWLTBAP
# Blockbuster LUTs Pack
0 64 128 192 256 320 384 448 512 576 640 704 768 832 896 960 1023
4 5 27
18 18 134
41 41 303
81 81 575
122 122 849
190 163 1130
342 210 1445
390 246 1690
481 286 1961
570 323 2215
648 358 2453
749 391 2680
803 427 2929
875 457 3137
940 484 3326
988 504 3478
1014 516 3579
30 208 50
19 123 141
43 110 313
82 150 579
120 187 838
161 232 1112
293 347 1420
335 314 1653
441 356 1935
537 395 2204
619 430 2440
718 460 2654
768 494 2889
828 523 3090
891 551 3288
964 576 3467
999 591 3587
59 410 85
47 339 168
47 303 331
83 349 589
121 395 846
161 462 1116
219 572 1415
243 519 1631
346 524 1900
471 503 2168
563 500 2418
682 532 2639
728 569 2894
793 597 3094
871 627 3302
947 654 3494
976 666 3595
89 626 126
78 556 216
73 525 379
87 545 606
123 593 859
163 668 1130
208 777 1430
239 754 1644
278 774 1892
358 803 2151
486 813 2410
622 864 2650
690 849 2895
766 855 3126
865 862 3344
945 919 3530
980 970 3640
122 849 178
112 791 256
109 769 442
109 773 658
129 801 890
168 874 1161
209 963 1438
241 959 1657
277 995 1903
313 1039 2149
359 1083 2396
462 1135 2639
575 1168 2883
660 1212 3107
764 1263 3323
864 1312 3526
910 1341 3642
152 1057 212
145 1017 279
144 1013 492
145 1015 718
147 1023 941
176 1078 1206
214 1144 1465
243 1147 1671
282 1206 1932
317 1261 2174
353 1309 2421
386 1355 2652
424 1398 2866
492 1454 3088
591 1517 3288
698 1579 3488
767 1614 3619
183 1276 256
178 1242 340
178 1243 568
177 1242 781
179 1250 999
188 1288 1254
219 1336 1500
250 1358 1711
286 1420 1963
322 1485 2207
356 1530 2442
388 1575 2665
419 1626 2879
448 1681 3083
476 1731 3280
521 1785 3460
559 1822 3585
216 1501 299
212 1481 418
212 1482 648
212 1481 850
213 1488 1063
218 1517 1318
226 1534 1529
257 1581 1755
292 1643 1997
326 1701 2229
358 1751 2456
390 1788 2674
420 1837 2886
449 1892 3090
478 1943 3289
502 1985 3463
516 2018 3579
250 1740 342
249 1730 499
249 1734 712
251 1744 920
251 1744 1136
253 1755 1379
255 1771 1578
264 1802 1782
295 1856 2017
328 1908 2240
360 1958 2465
392 1999 2689
423 2047 2900
451 2098 3102
478 2144 3294
503 2188 3470
516 2210 3579
287 1991 409
285 1979 589
286 1985 789
287 1993 998
288 1997 1210
289 2006 1445
293 2029 1646
297 2052 1845
303 2069 2043
332 2108 2266
365 2154 2494
396 2201 2712
426 2250 2924
455 2301 3126
481 2349 3311
504 2393 3475
516 2415 3579
322 2233 507
322 2231 689
323 2238 875
324 2245 1077
325 2250 1284
326 2257 1500
329 2277 1706
332 2295 1911
333 2302 2103
339 2312 2297
369 2351 2519
399 2402 2732
429 2449 2943
458 2497 3145
485 2547 3335
505 2594 3481
516 2621 3579
357 2473 599
357 2473 780
358 2480 961
361 2494 1154
361 2494 1349
361 2495 1555
362 2504 1770
364 2515 1969
366 2525 2164
367 2535 2351
376 2558 2554
406 2611 2773
435 2655 2976
462 2697 3167
488 2742 3351
506 2787 3491
516 2820 3579
390 2700 670
391 2704 847
392 2711 1030
393 2721 1230
394 2725 1411
394 2726 1609
395 2730 1820
396 2735 2025
398 2749 2223
400 2763 2413
403 2782 2612
413 2812 2808
438 2848 2996
464 2896 3182
491 2944 3369
508 2984 3501
516 3014 3579
424 2934 742
424 2935 919
425 2940 1093
426 2946 1286
427 2950 1475
428 2956 1678
429 2967 1888
430 2974 2092
432 2983 2289
434 2996 2481
437 3014 2672
440 3032 2856
444 3048 3022
467 3089 3201
493 3147 3386
508 3183 3504
516 3212 3579
458 3168 815
458 3171 991
460 3180 1170
460 3183 1350
461 3185 1543
462 3191 1744
462 3192 1944
464 3204 2156
464 3206 2358
467 3221 2541
470 3241 2721
472 3256 2898
475 3274 3072
479 3294 3233
494 3333 3388
508 3374 3504
516 3390 3579
490 3393 912
491 3396 1085
492 3403 1266
492 3403 1452
493 3409 1639
494 3412 1829
494 3416 2017
497 3431 2217
497 3436 2414
500 3450 2604
500 3453 2780
501 3458 2949
503 3468 3115
505 3480 3279
507 3496 3418
509 3504 3504
516 3512 3579
516 3573 1002
516 3574 1177
516 3574 1353
515 3568 1538
514 3565 1724
515 3572 1911
515 3572 2087
516 3576 2277
516 3574 2471
516 3579 2657
516 3579 2828
516 3579 2994
516 3579 3154
516 3579 3310
516 3579 3439
516 3579 3512
516 3579 3579
75 8 8
78 11 91
110 43 313
165 83 589
233 123 859
303 163 1128
389 204 1404
499 245 1685
582 284 1949
674 323 2213
744 358 2453
822 393 2692
901 427 2927
968 456 3134
1041 483 3322
1109 505 3482
1140 516 3579
78 92 11
89 97 121
120 120 340
160 160 608
199 198 866
275 237 1133
372 278 1411
486 322 1702
580 363 1978
667 400 2233
736 435 2472
814 469 2705
893 500 2927
965 531 3137
1034 558 3329
1099 580 3489
1131 591 3587
110 313 43
119 332 151
125 317 357
162 365 621
199 411 874
237 453 1127
297 488 1394
407 487 1667
514 465 1946
614 470 2210
689 505 2453
763 538 2681
834 570 2903
904 597 3094
984 627 3300
1064 652 3483
1104 666 3595
145 556 78
151 555 199
150 545 396
165 565 636
202 612 887
239 664 1141
278 729 1410
321 748 1658
403 768 1924
531 787 2197
637 754 2446
727 766 2687
812 803 2916
887 820 3131
971 791 3330
1065 859 3519
1102 904 3629
181 802 114
186 794 255
185 786 450
184 781 675
204 806 905
241 858 1156
281 931 1426
317 963 1674
356 996 1931
411 1042 2181
512 1075 2430
629 1110 2679
744 1152 2920
824 1202 3142
943 1244 3368
1042 1288 3554
1083 1317 3666
214 1028 148
220 1026 292
220 1028 493
220 1023 724
222 1033 948
246 1060 1185
284 1122 1444
318 1158 1682
357 1215 1944
392 1267 2186
427 1317 2427
478 1363 2662
567 1414 2891
673 1471 3115
794 1528 3326
909 1581 3520
964 1615 3647
248 1261 184
254 1259 341
255 1264 551
254 1262 782
255 1265 1004
259 1278 1228
289 1323 1478
324 1372 1718
361 1433 1965
396 1495 2209
431 1537 2447
464 1585 2675
495 1637 2891
527 1687 3094
614 1743 3295
737 1805 3489
790 1839 3619
283 1501 220
290 1509 420
290 1506 623
290 1508 855
290 1508 1069
292 1519 1291
299 1540 1517
331 1592 1759
366 1656 2000
400 1711 2236
433 1758 2464
466 1799 2688
497 1848 2902
525 1902 3104
553 1950 3297
597 1996 3474
626 2026 3592
324 1746 310
325 1750 510
326 1752 710
327 1761 929
327 1762 1141
328 1768 1360
331 1784 1581
340 1816 1798
371 1868 2027
404 1918 2260
437 1967 2486
468 2010 2704
498 2054 2914
528 2110 3118
555 2155 3310
578 2197 3477
591 2221 3587
363 2004 403
361 1994 594
362 1998 790
364 2010 1000
365 2017 1211
366 2025 1433
369 2040 1647
371 2056 1850
378 2080 2052
407 2118 2276
440 2165 2504
471 2211 2721
501 2258 2929
530 2311 3134
556 2358 3321
578 2400 3481
591 2424 3587
398 2247 495
397 2242 686
398 2247 876
399 2255 1076
401 2264 1283
403 2274 1495
405 2288 1708
407 2302 1914
409 2313 2109
414 2321 2303
443 2358 2522
474 2409 2736
503 2458 2944
533 2507 3153
560 2556 3342
580 2599 3488
591 2626 3587
433 2489 590
433 2489 779
434 2494 965
435 2498 1150
436 2504 1350
436 2505 1553
437 2512 1766
441 2536 1975
442 2543 2169
443 2547 2357
451 2565 2556
480 2611 2773
507 2657 2966
536 2704 3167
562 2752 3356
581 2796 3499
591 2826 3587
465 2709 670
466 2715 848
467 2723 1037
469 2733 1229
470 2737 1411
470 2741 1609
471 2744 1817
472 2752 2027
474 2765 2230
476 2779 2423
479 2796 2621
488 2820 2813
512 2856 2998
538 2902 3185
564 2951 3371
582 2994 3506
591 3024 3587
499 2942 746
499 2944 926
500 2951 1102
502 2959 1290
502 2963 1482
504 2971 1684
505 2979 1888
506 2988 2097
508 2999 2296
510 3010 2491
512 3025 2685
516 3045 2865
520 3063 3029
542 3101 3207
567 3152 3388
583 3192 3512
591 3219 3587
533 3176 824
533 3177 1003
534 3185 1187
535 3191 1368
536 3196 1565
537 3201 1770
538 3209 1971
540 3219 2175
540 3220 2368
541 3229 2549
545 3248 2737
548 3267 2912
551 3287 3080
555 3306 3245
570 3344 3406
583 3380 3512
591 3397 3587
565 3398 915
566 3403 1097
567 3411 1282
567 3413 1468
568 3420 1650
569 3425 1845
570 3432 2037
572 3444 2230
572 3444 2423
574 3453 2610
575 3462 2795
576 3468 2956
578 3477 3120
580 3490 3286
582 3505 3428
584 3512 3512
591 3520 3587
591 3581 1003
591 3583 1188
591 3582 1368
590 3577 1552
590 3576 1731
591 3583 1918
591 3585 2101
591 3587 2283
591 3586 2473
591 3587 2665
591 3587 2836
591 3587 2995
591 3587 3156
591 3587 3317
591 3587 3446
591 3587 3520
591 3587 3587
233 30 30
266 35 102
280 43 307
334 83 586
402 122 853
452 161 1118
512 201 1385
605 240 1652
695 281 1930
774 319 2191
852 355 2433
923 389 2671
1006 424 2906
1082 455 3126
1168 482 3319
1250 504 3477
1289 516 3579
222 95 28
254 106 106
270 121 340
304 163 625
368 202 889
442 242 1163
516 282 1431
619 323 1707
709 363 1978
781 400 2232
849 435 2472
929 470 2711
1011 502 2936
1086 532 3144
1166 559 3336
1232 580 3492
1276 591 3587
201 282 38
203 304 126
232 323 390
261 361 660
320 404 913
395 421 1170
484 395 1439
592 401 1725
692 440 2001
773 476 2251
834 511 2491
912 545 2722
993 576 2938
1062 604 3137
1144 631 3330
1219 654 3494
1251 666 3595
206 518 72
215 534 150
226 561 416
245 588 676
281 634 923
320 675 1169
378 709 1425
506 733 1702
613 729 1979
719 710 2249
791 678 2486
860 707 2711
940 768 2920
1014 789 3124
1099 744 3319
1198 815 3510
1242 862 3623
244 777 110
258 794 222
260 796 450
261 803 698
283 827 935
319 871 1180
356 920 1433
399 959 1690
484 994 1955
604 1037 2227
710 1059 2479
802 1082 2723
906 1139 2953
1001 1200 3173
1115 1235 3390
1216 1260 3573
1260 1294 3685
278 1013 144
294 1035 279
296 1041 507
296 1039 738
297 1036 969
322 1066 1203
359 1117 1455
396 1166 1707
435 1216 1969
490 1268 2219
553 1317 2459
658 1364 2701
788 1426 2936
900 1483 3158
1016 1531 3374
1125 1584 3560
1179 1618 3678
313 1255 180
329 1275 323
331 1284 559
332 1287 783
331 1282 1015
335 1293 1244
364 1325 1485
400 1380 1731
437 1444 1981
472 1503 2226
506 1548 2459
543 1597 2686
608 1654 2909
712 1713 3122
867 1772 3337
990 1828 3526
1044 1862 3656
349 1503 216
367 1528 397
368 1533 626
369 1538 853
369 1537 1079
369 1540 1302
375 1554 1527
406 1602 1769
441 1667 2010
475 1725 2243
508 1766 2470
541 1812 2701
572 1860 2913
601 1909 3110
671 1963 3315
833 2029 3505
895 2063 3632
389 1752 272
403 1777 498
404 1782 715
406 1791 928
406 1795 1154
406 1795 1368
408 1803 1593
416 1831 1809
447 1882 2043
479 1931 2269
513 1978 2499
545 2024 2721
574 2066 2926
602 2116 3123
630 2165 3323
676 2212 3494
737 2246 3606
436 2012 383
438 2015 596
439 2023 801
441 2031 1010
442 2040 1226
444 2050 1438
445 2057 1659
448 2073 1868
455 2097 2073
483 2133 2293
516 2179 2521
548 2226 2741
577 2271 2945
604 2312 3138
632 2363 3336
655 2409 3498
666 2435 3595
475 2267 467
473 2255 680
474 2261 880
475 2269 1080
477 2281 1289
479 2292 1496
481 2304 1711
482 2313 1920
484 2323 2117
490 2334 2316
518 2375 2531
549 2424 2747
579 2472 2958
607 2515 3154
635 2561 3349
655 2608 3501
666 2636 3595
509 2504 566
508 2498 769
509 2501 965
509 2500 1150
511 2514 1353
512 2522 1553
513 2529 1761
516 2546 1977
518 2554 2174
519 2562 2370
525 2580 2563
554 2622 2780
583 2668 2982
609 2715 3169
636 2762 3359
657 2810 3515
666 2838 3595
542 2729 665
542 2728 850
542 2730 1040
542 2732 1229
544 2742 1412
546 2752 1609
547 2759 1816
548 2768 2031
551 2785 2236
553 2800 2437
555 2811 2625
561 2826 2808
586 2857 3001
613 2914 3194
639 2962 3378
658 3008 3519
666 3036 3595
575 2956 750
575 2959 934
576 2963 1114
577 2967 1301
578 2973 1489
580 2986 1688
581 2995 1889
582 3003 2096
584 3014 2302
586 3028 2501
588 3041 2693
591 3057 2865
596 3075 3033
617 3115 3216
642 3163 3396
658 3204 3520
666 3230 3595
608 3184 843
608 3188 1019
609 3195 1205
611 3202 1387
611 3206 1582
613 3215 1786
615 3228 1985
616 3234 2180
616 3236 2373
617 3242 2559
620 3260 2749
624 3281 2921
627 3302 3088
630 3317 3253
645 3352 3411
658 3390 3520
666 3404 3595
641 3411 939
640 3406 1110
641 3416 1299
643 3424 1488
644 3432 1675
645 3437 1873
646 3443 2065
647 3451 2253
648 3458 2437
648 3456 2616
649 3466 2804
651 3479 2974
653 3489 3138
655 3501 3305
657 3515 3440
658 3520 3520
666 3528 3595
666 3590 1019
665 3586 1196
665 3588 1384
665 3589 1570
666 3592 1749
666 3593 1935
666 3594 2123
666 3594 2304
666 3595 2485
666 3595 2676
666 3595 2849
666 3595 3017
666 3595 3179
666 3595 3337
666 3595 3459
666 3595 3528
666 3595 3595
455 62 62
485 67 133
500 69 323
508 83 581
568 122 850
616 159 1105
667 198 1369
750 239 1643
826 279 1918
898 316 2171
979 351 2408
1049 386 2649
1131 420 2886
1214 451 3103
1319 481 3311
1409 504 3479
1449 516 3579
442 126 60
475 138 138
496 142 336
499 161 613
549 202 889
604 241 1152
662 280 1421
751 320 1690
838 360 1963
909 398 2218
978 432 2452
1053 467 2696
1140 500 2924
1226 530 3133
1312 558 3330
1395 580 3489
