src/luts/Gravity_-_Rec709.3dl
# Created by Benjamin (IWLTBAP) : http://luts.iwltbap.com
# Copyright: (C) Copyright 2016 Triune Films and IWLTBAP
# Blockbuster LUTs Pack
0 256 512 768 1023
4 5 27
122 122 849
481 286 1961
803 427 2929
1014 516 3579
122 849 178
129 801 890
277 995 1903
575 1168 2883
910 1341 3642
250 1740 342
251 1744 1136
295 1856 2017
423 2047 2900
516 2210 3579
390 2700 670
394 2725 1411
398 2749 2223
438 2848 2996
516 3014 3579
516 3573 1002
514 3565 1724
516 3574 2471
516 3579 3154
516 3579 3579
687 95 95
733 120 838
983 280 1920
1275 417 2866
1613 516 3579
596 749 105
637 890 1028
976 930 2107
1278 1026 3002
1585 1166 3668
517 1738 250
563 1853 1168
600 1907 2079
879 2123 2981
1305 2333 3690
698 2791 609
696 2769 1442
704 2820 2257
737 2899 3021
816 3057 3611
815 3604 1044
815 3605 1796
816 3611 2524
816 3611 3201
816 3611 3611
1625 231 231
1626 232 923
1654 273 1881
2038 420 2884
2309 516 3579
1508 861 212
1784 962 1093
1774 883 2106
2079 894 2999
2322 963 3635
1554 1733 249
1756 1941 1153
1828 2092 2345
2151 2256 3243
2411 2422 3848
1565 2715 392
1558 2943 1512
1697 3009 2483
1881 3107 3240
2109 3284 3805
1404 3654 991
1284 3671 1858
1506 3707 2643
1782 3752 3354
2101 3802 3804
2660 384 384
2715 392 952
2676 386 2003
2894 423 2885
3107 516 3579
2599 984 374
2824 1034 1245
2797 988 2169
2932 924 2959
3150 826 3612
2641 1869 380
2910 2091 1393
3067 2222 2488
3146 2224 3225
3335 2299 3833
2679 2746 399
2877 2958 1567
3073 3131 2583
3203 3298 3459
3328 3426 3985
2759 3639 887
2929 3780 1864
3112 3922 2828
3203 3966 3571
3267 3975 3974
3577 516 516
3579 516 1158
3579 516 2238
3579 516 2991
3579 516 3570
3579 1030 516
3650 1062 1421
3605 1041 2332
3626 910 3062
3637 975 3623
3579 2034 516
3747 2201 1652
3714 2274 2581
3838 2314 3305
3849 2383 3839
3567 2849 528
3758 3041 1742
3810 3189 2736
3977 3374 3533
3994 3401 3999
3545 3602 918
3745 3790 1919
3868 3889 2832
3943 3965 3566
4078 4092 4092
