src/luts/Guardians_of_the_Galaxy_-_Rec709.3dl
# Created by Benjamin (IWLTBAP) : http://luts.iwltbap.com
# Copyright: (C) Copyright 2016 Triune Films and IWLTBAP
# Blockbuster LUTs Pack
0 64 128 192 256 320 384 448 512 576 640 704 768 832 896 960 1023
0 0 0
0 16 184
0 64 366
0 108 534
0 155 695
0 199 852
0 246 1007
0 295 1160
0 346 1315
0 400 1473
0 456 1635
0 510 1797
0 563 1955
0 615 2119
0 666 2281
0 717 2442
0 771 2612
0 178 61
0 184 212
0 209 383
0 239 549
0 278 712
0 321 871
0 368 1027
0 414 1181
0 463 1336
0 513 1494
0 565 1651
0 616 1811
0 666 1968
0 714 2122
0 762 2280
0 811 2442
0 861 2605
0 374 92
0 385 238
0 385 423
0 404 584
0 431 739
0 459 888
0 497 1042
0 538 1196
0 585 1352
0 633 1509
0 682 1669
0 732 1827
0 779 1982
0 825 2133
0 870 2286
0 917 2444
0 965 2603
0 566 125
0 574 250
0 590 467
0 589 630
2 605 784
5 632 934
9 661 1080
12 691 1226
14 724 1374
16 763 1527
18 806 1686
20 852 1844
22 898 2000
24 942 2149
24 986 2300
25 1031 2455
24 1079 2615
5 754 151
14 756 273
21 789 472
27 795 678
31 794 831
36 808 982
40 834 1131
43 863 1276
46 893 1423
49 926 1571
52 960 1722
56 994 1873
58 1029 2022
60 1065 2170
62 1102 2317
64 1146 2471
65 1193 2632
34 931 179
42 934 292
49 964 470
55 1008 708
60 999 884
64 1000 1036
68 1011 1183
72 1033 1328
76 1060 1474
79 1091 1622
83 1124 1773
86 1158 1925
89 1192 2074
93 1225 2221
96 1258 2367
99 1294 2517
102 1334 2676
60 1103 205
69 1108 317
75 1137 490
81 1181 689
86 1214 933
91 1203 1091
95 1204 1241
100 1212 1384
104 1233 1530
108 1259 1677
111 1289 1826
116 1322 1979
120 1357 2131
124 1391 2282
127 1427 2430
132 1464 2583
136 1505 2744
86 1269 231
94 1276 345
100 1304 511
105 1342 689
111 1406 946
117 1415 1148
121 1404 1298
126 1404 1445
131 1412 1590
136 1432 1736
140 1458 1883
144 1488 2035
150 1524 2191
155 1561 2347
159 1598 2500
164 1638 2656
169 1679 2818
112 1436 263
119 1444 383
126 1467 536
132 1508 723
138 1564 931
144 1629 1192
150 1623 1362
154 1613 1508
159 1617 1660
164 1624 1806
170 1641 1952
175 1667 2103
180 1699 2258
187 1737 2417
192 1776 2577
197 1816 2735
201 1856 2898
137 1603 301
144 1610 433
151 1626 573
158 1671 763
164 1722 943
171 1801 1192
177 1854 1428
183 1840 1580
189 1832 1729
195 1840 1886
202 1849 2035
208 1866 2184
214 1891 2338
220 1927 2500
226 1963 2664
230 2000 2826
234 2039 2988
163 1776 348
170 1775 502
177 1786 634
185 1833 821
192 1886 998
199 1953 1193
208 2054 1464
215 2086 1660
223 2075 1811
230 2069 1962
238 2082 2126
245 2099 2289
251 2111 2440
256 2131 2596
261 2162 2764
265 2196 2928
269 2228 3085
189 1971 374
197 1939 567
205 1944 705
213 1994 890
222 2053 1071
229 2114 1237
238 2211 1470
249 2311 1729
258 2333 1900
266 2326 2053
276 2324 2211
283 2336 2379
290 2356 2557
295 2361 2712
298 2373 2871
300 2392 3030
304 2418 3182
228 2166 391
225 2123 619
235 2103 778
244 2155 961
254 2222 1148
263 2289 1319
272 2372 1506
282 2484 1752
294 2574 1995
303 2586 2152
313 2580 2310
321 2576 2471
330 2581 2638
335 2604 2829
337 2598 2983
337 2597 3130
342 2610 3274
297 2338 449
256 2326 663
266 2270 863
278 2324 1050
288 2395 1233
298 2470 1408
308 2550 1582
318 2650 1788
330 2762 2044
341 2836 2270
351 2842 2420
360 2829 2580
367 2818 2736
373 2814 2898
376 2831 3088
377 2814 3227
380 2807 3360
381 2510 531
313 2520 741
299 2450 945
312 2492 1138
323 2567 1320
333 2646 1495
344 2720 1661
353 2814 1853
365 2913 2066
376 3029 2336
386 3085 2535
394 3080 2683
402 3064 2842
409 3051 2996
413 3040 3152
416 3044 3322
420 3021 3445
461 2682 620
396 2695 838
339 2660 1034
345 2656 1223
356 2729 1403
366 2806 1575
376 2877 1735
386 2960 1908
397 3065 2108
407 3162 2327
416 3272 2600
424 3302 2774
433 3293 2925
442 3274 3079
450 3257 3231
454 3241 3374
461 3247 3531
541 2855 732
467 2871 930
378 2859 1107
376 2854 1279
386 2946 1454
396 3029 1622
405 3109 1779
414 3180 1931
423 3268 2127
434 3351 2344
445 3435 2593
454 3502 2855
464 3502 3008
472 3478 3158
481 3452 3310
487 3426 3442
491 3414 3564
131 45 37
124 70 210
103 107 398
94 156 574
83 207 737
72 253 894
59 297 1047
48 343 1199
43 391 1350
39 443 1504
35 498 1663
31 550 1821
29 601 1978
29 653 2139
27 704 2304
26 754 2471
25 810 2643
134 225 121
106 225 227
94 255 403
75 296 577
55 340 742
48 381 901
44 423 1054
42 468 1206
38 513 1357
33 560 1510
31 610 1669
27 659 1827
25 707 1985
25 756 2145
24 804 2308
23 852 2475
22 902 2646
86 402 160
71 417 274
70 430 443
63 451 607
49 481 766
43 513 917
40 550 1066
39 593 1218
34 637 1370
31 682 1525
30 728 1683
29 775 1840
28 820 1996
27 865 2150
26 909 2305
24 956 2469
20 1003 2637
47 597 181
44 602 308
49 616 489
52 619 650
53 638 806
56 667 958
57 698 1105
60 732 1250
61 768 1396
63 807 1546
63 850 1701
64 895 1858
65 939 2014
65 981 2166
65 1024 2318
65 1068 2477
64 1117 2644
53 781 199
62 781 327
69 810 509
76 819 689
79 820 853
83 831 1003
85 855 1151
88 884 1297
91 918 1443
93 954 1591
95 990 1740
97 1027 1891
99 1064 2041
100 1103 2190
101 1143 2340
102 1185 2495
102 1232 2661
79 955 222
87 953 342
94 985 524
100 1028 720
105 1023 900
109 1025 1057
112 1032 1203
116 1054 1348
119 1079 1494
122 1108 1640
124 1139 1789
126 1174 1941
129 1212 2094
131 1250 2246
134 1288 2395
136 1331 2551
138 1375 2715
102 1123 243
110 1121 353
117 1155 539
123 1199 724
129 1237 943
134 1225 1105
138 1227 1260
142 1234 1405
146 1252 1549
149 1276 1695
153 1304 1843
155 1334 1995
159 1367 2151
162 1403 2307
165 1444 2460
170 1488 2619
172 1535 2785
125 1288 262
135 1289 379
141 1320 556
147 1363 740
153 1419 950
159 1438 1156
164 1428 1313
168 1430 1465
173 1435 1610
177 1452 1755
180 1475 1903
184 1504 2055
189 1537 2214
194 1575 2375
198 1614 2535
201 1655 2696
206 1698 2865
148 1451 283
157 1454 409
164 1479 572
171 1523 766
176 1577 958
182 1640 1184
190 1645 1370
194 1634 1521
200 1640 1679
206 1646 1827
211 1662 1974
215 1685 2125
220 1717 2285
227 1758 2453
230 1796 2617
235 1837 2782
239 1878 2951
172 1618 314
181 1621 452
188 1635 598
195 1683 798
202 1737 984
209 1807 1192
216 1872 1426
223 1864 1589
229 1857 1745
237 1866 1908
244 1875 2063
249 1890 2213
254 1917 2371
261 1954 2542
265 1988 2710
269 2027 2880
274 2067 3047
198 1803 345
207 1794 512
213 1796 650
221 1844 844
229 1903 1033
237 1973 1225
246 2064 1454
256 2117 1669
264 2108 1826
272 2104 1985
281 2118 2159
287 2133 2326
293 2144 2481
297 2166 2645
301 2193 2816
304 2225 2984
310 2258 3143
226 2004 354
233 1975 567
242 1964 728
250 2012 916
260 2079 1108
269 2148 1288
279 2243 1503
291 2343 1734
302 2384 1927
311 2377 2086
320 2374 2252
329 2381 2426
334 2400 2610
338 2402 2767
339 2408 2926
341 2423 3084
348 2450 3234
288 2192 385
264 2183 613
273 2135 809
284 2191 1007
295 2266 1204
306 2342 1384
316 2438 1587
328 2539 1801
341 2636 2032
353 2664 2209
363 2654 2373
371 2642 2536
378 2640 2706
381 2656 2895
380 2637 3040
379 2628 3181
387 2644 3321
369 2368 458
309 2392 684
307 2321 907
319 2371 1105
331 2452 1299
343 2534 1482
355 2629 1676
367 2735 1893
381 2836 2115
392 2920 2340
402 2931 2499
411 2913 2660
417 2895 2819
421 2885 2979
420 2882 3153
420 2850 3277
425 2841 3400
454 2548 555
386 2574 788
344 2515 997
353 2545 1198
365 2628 1390
376 2708 1570
388 2790 1746
400 2891 1952
412 2991 2166
423 3093 2395
433 3163 2604
441 3160 2752
449 3136 2911
455 3113 3063
460 3098 3217
462 3084 3370
467 3055 3482
531 2725 659
466 2742 895
405 2707 1094
385 2711 1284
396 2779 1470
407 2859 1641
417 2943 1800
427 3038 1982
439 3142 2190
449 3236 2411
460 3327 2642
470 3358 2823
480 3350 2975
489 3324 3131
499 3303 3283
504 3287 3427
511 3283 3569
594 2905 768
490 2939 969
411 2900 1157
415 2915 1334
425 3006 1512
434 3086 1680
444 3163 1837
453 3236 1999
463 3320 2205
477 3407 2436
488 3482 2667
500 3542 2889
513 3542 3051
523 3516 3206
534 3491 3358
539 3466 3490
544 3456 3613
374 99 54
378 104 193
378 144 419
329 194 609
303 238 770
285 290 929
266 345 1085
246 399 1239
222 448 1392
201 496 1545
185 545 1702
179 593 1859
174 639 2013
170 688 2169
165 738 2329
162 789 2495
160 844 2667
399 261 122
371 273 227
364 298 428
318 338 615
288 385 789
259 435 951
233 485 1106
210 532 1257
193 574 1405
184 618 1554
177 662 1705
172 708 1860
168 751 2013
163 795 2165
161 842 2325
158 889 2493
155 939 2666
413 465 186
368 477 319
326 486 478
293 512 645
260 550 808
226 589 963
198 629 1114
189 668 1263
183 707 1411
178 747 1558
171 787 1708
166 827 1861
161 868 2012
157 907 2162
156 949 2317
154 995 2485
151 1040 2659
329 666 238
287 674 368
261 690 535
252 707 697
231 726 847
206 753 1000
189 779 1146
183 808 1289
178 838 1431
174 872 1575
167 907 1721
161 944 1873
157 983 2024
154 1022 2173
152 1062 2325
150 1105 2485
147 1152 2659
260 856 266
214 856 384
201 873 567
201 892 749
196 896 886
189 907 1038
183 929 1185
179 957 1330
175 986 1472
172 1017 1616
166 1048 1760
162 1078 1906
159 1111 2053
156 1145 2200
155 1182 2347
153 1221 2502
151 1267 2673
203 1018 272
185 997 390
185 1016 578
185 1062 778
185 1068 931
184 1074 1079
181 1084 1228
180 1105 1372
176 1130 1515
174 1160 1659
169 1190 1805
168 1221 1953
168 1254 2105
168 1290 2255
170 1327 2406
172 1369 2565
173 1415 2733
183 1175 282
178 1146 400
179 1173 588
180 1219 783
180 1252 980
182 1247 1116
185 1255 1274
187 1263 1420
189 1281 1562
191 1306 1707
192 1335 1853
193 1365 2003
195 1399 2157
197 1437 2316
200 1478 2472
203 1524 2636
207 1573 2810
178 1324 299
179 1305 416
184 1332 597
190 1377 789
195 1436 1007
201 1452 1174
207 1444 1318
211 1446 1475
214 1450 1620
218 1467 1764
220 1490 1910
222 1519 2060
225 1553 2218
229 1593 2382
232 1638 2546
236 1686 2717
240 1736 2895
190 1479 314
198 1467 439
204 1483 601
211 1530 804
217 1588 1006
223 1650 1221
229 1656 1370
235 1646 1522
241 1654 1687
246 1658 1835
249 1669 1979
252 1689 2128
256 1719 2287
261 1761 2457
265 1807 2629
269 1855 2804
274 1907 2984
212 1642 334
219 1632 471
226 1634 613
232 1683 822
239 1739 1016
246 1813 1233
253 1872 1435
261 1871 1582
268 1865 1744
276 1875 1912
282 1884 2068
286 1895 2218
290 1917 2375
295 1950 2547
299 1989 2724
304 2036 2904
310 2086 3080
234 1824 349
241 1803 511
247 1789 651
254 1831 844
262 1892 1044
270 1965 1244
279 2057 1473
289 2110 1660
298 2109 1815
308 2106 1981
318 2123 2161
324 2137 2332
329 2145 2486
332 2165 2651
336 2196 2832
340 2234 3011
349 2277 3178
269 2018 349
266 2004 542
275 1962 723
282 1999 908
291 2065 1109
300 2137 1296
310 2236 1520
323 2333 1744
335 2380 1917
345 2378 2076
356 2379 2251
367 2391 2433
372 2408 2620
374 2408 2780
375 2416 2943
379 2436 3110
389 2471 3266
354 2192 392
306 2209 584
305 2147 806
315 2182 1000
325 2255 1202
336 2334 1390
347 2433 1603
360 2539 1826
374 2636 2049
386 2669 2204
398 2664 2371
409 2656 2544
417 2655 2721
419 2668 2912
417 2650 3060
418 2643 3204
432 2669 3350
436 2377 472
377 2403 681
339 2354 903
350 2373 1107
362 2455 1310
374 2538 1498
386 2636 1699
400 2746 1923
414 2853 2157
426 2933 2364
439 2950 2505
449 2935 2672
457 2918 2837
463 2908 3004
461 2899 3177
462 2867 3300
471 2867 3426
519 2569 574
452 2594 798
386 2568 1017
387 2569 1224
399 2647 1420
410 2727 1601
421 2809 1780
434 2912 1991
446 3016 2215
458 3120 2449
469 3183 2629
480 3189 2770
489 3166 2934
498 3144 3093
503 3128 3252
507 3110 3399
515 3085 3511
595 2752 695
526 2764 924
461 2732 1132
422 2742 1323
430 2796 1505
439 2878 1674
449 2960 1834
461 3058 2023
474 3163 2243
486 3263 2475
499 3354 2707
513 3383 2858
527 3383 3007
538 3359 3169
548 3341 3323
553 3323 3471
561 3318 3609
633 2952 799
527 2976 1003
447 2926 1201
450 2944 1380
460 3026 1557
469 3102 1725
479 3176 1883
489 3254 2055
501 3345 2277
517 3436 2520
532 3523 2768
548 3570 2972
564 3579 3106
577 3558 3256
586 3533 3409
592 3508 3540
596 3497 3664
605 153 69
600 158 179
629 182 386
643 220 601
579 269 799
537 323 966
507 369 1112
484 422 1263
456 484 1421
421 546 1580
384 603 1737
352 647 1893
324 690 2047
310 734 2200
303 780 2356
297 828 2519
293 883 2695
639 315 137
624 321 231
626 330 394
646 375 630
566 419 826
520 465 987
482 510 1140
448 562 1295
414 617 1447
374 672 1601
340 716 1752
316 755 1901
307 794 2052
298 834 2200
293 878 2355
287 924 2515
