src/luts/Guardians_of_the_Galaxy_-_Rec709.3dl
# Created by Benjamin (IWLTBAP) : http://luts.iwltbap.com
# Copyright: (C) Copyright 2016 Triune Films and IWLTBAP
# Blockbuster LUTs Pack
0 256 512 768 1023
0 0 0
0 155 695
0 346 1315
0 563 1955
0 771 2612
5 754 151
31 794 831
46 893 1423
58 1029 2022
65 1193 2632
112 1436 263
138 1564 931
159 1617 1660
180 1699 2258
201 1856 2898
228 2166 391
254 2222 1148
294 2574 1995
330 2581 2638
342 2610 3274
541 2855 732
386 2946 1454
423 3268 2127
464 3502 3008
491 3414 3564
828 206 72
899 303 764
715 504 1444
565 739 2061
436 930 2711
1033 926 300
725 1049 999
497 1139 1575
416 1227 2113
392 1346 2715
831 1687 414
459 1683 1092
458 1812 1771
426 1834 2347
438 2033 3077
572 2217 457
408 2238 1205
464 2629 2099
551 2740 2764
627 2853 3462
723 3013 892
540 3098 1681
617 3448 2483
757 3703 3316
786 3655 3755
1650 400 39
1792 427 656
1933 622 1358
1795 849 2072
1523 988 2715
1958 1027 220
1944 1134 866
2002 1286 1631
1530 1318 2356
1175 1471 2953
2276 1831 370
2191 1983 1124
1763 2155 2017
1313 2092 2618
1347 2401 3409
2083 2601 633
1842 2625 1268
1246 2784 2152
1213 3132 3118
1476 3279 3715
1946 3526 1057
1722 3822 1743
1446 4011 2682
1392 4011 3624
1394 3889 3916
2536 628 116
2653 623 654
2841 772 1310
2913 954 1903
2855 1195 2686
2789 1206 287
2794 1206 718
2888 1269 1477
2933 1489 2228
2867 1625 3039
3160 1935 369
3163 2019 909
3090 2246 1919
3090 2336 2764
3060 2548 3593
3370 2940 613
3364 3060 1311
3308 3173 2082
3112 3306 3091
3028 3370 3778
3361 3840 1348
3371 3936 2062
3332 4023 2611
2893 4085 3161
2896 3989 3918
3444 930 173
3516 924 702
3617 999 1356
3585 1167 2017
3582 1362 2773
3639 1506 299
3698 1559 683
3716 1564 1602
3682 1809 2458
3788 1970 3285
3940 2274 420
3929 2383 1157
3904 2573 2105
3845 2651 2911
3941 2795 3692
3981 3053 789
4005 3212 1732
4006 3308 2351
3949 3429 3103
3920 3534 3810
4008 3930 1495
4009 3997 2086
4005 4058 2824
3974 4070 3448
3941 4081 3912
