src/luts/Guardians_of_the_Galaxy_-_Rec709.3dl
# Created by Benjamin (IWLTBAP) : http://luts.iwltbap.com
# Copyright: (C) Copyright 2016 Triune Films and IWLTBAP
# Blockbuster LUTs Pack
0 128 256 384 512 640 768 896 1023
0 0 0
0 64 366
0 155 695
0 246 1007
0 346 1315
0 456 1635
0 563 1955
0 666 2281
0 771 2612
0 374 92
0 385 423
0 431 739
0 497 1042
0 585 1352
0 682 1669
0 779 1982
0 870 2286
0 965 2603
5 754 151
21 789 472
31 794 831
40 834 1131
46 893 1423
52 960 1722
58 1029 2022
62 1102 2317
65 1193 2632
60 1103 205
75 1137 490
86 1214 933
95 1204 1241
104 1233 1530
111 1289 1826
120 1357 2131
127 1427 2430
136 1505 2744
112 1436 263
126 1467 536
138 1564 931
150 1623 1362
159 1617 1660
170 1641 1952
180 1699 2258
192 1776 2577
201 1856 2898
163 1776 348
177 1786 634
192 1886 998
208 2054 1464
223 2075 1811
238 2082 2126
251 2111 2440
261 2162 2764
269 2228 3085
228 2166 391
235 2103 778
254 2222 1148
272 2372 1506
294 2574 1995
313 2580 2310
330 2581 2638
337 2598 2983
342 2610 3274
381 2510 531
299 2450 945
323 2567 1320
344 2720 1661
365 2913 2066
386 3085 2535
402 3064 2842
413 3040 3152
420 3021 3445
541 2855 732
378 2859 1107
386 2946 1454
405 3109 1779
423 3268 2127
445 3435 2593
464 3502 3008
481 3452 3310
491 3414 3564
374 99 54
378 144 419
303 238 770
266 345 1085
222 448 1392
185 545 1702
174 639 2013
165 738 2329
160 844 2667
413 465 186
326 486 478
260 550 808
198 629 1114
183 707 1411
171 787 1708
161 868 2012
156 949 2317
151 1040 2659
260 856 266
201 873 567
196 896 886
183 929 1185
175 986 1472
166 1048 1760
159 1111 2053
155 1182 2347
151 1267 2673
183 1175 282
179 1173 588
180 1252 980
185 1255 1274
189 1281 1562
192 1335 1853
195 1399 2157
200 1478 2472
207 1573 2810
190 1479 314
204 1483 601
217 1588 1006
229 1656 1370
241 1654 1687
249 1669 1979
256 1719 2287
265 1807 2629
274 1907 2984
234 1824 349
247 1789 651
262 1892 1044
279 2057 1473
298 2109 1815
318 2123 2161
329 2145 2486
336 2196 2832
349 2277 3178
354 2192 392
305 2147 806
325 2255 1202
347 2433 1603
374 2636 2049
398 2664 2371
417 2655 2721
417 2650 3060
432 2669 3350
519 2569 574
386 2568 1017
399 2647 1420
421 2809 1780
446 3016 2215
469 3183 2629
489 3166 2934
503 3128 3252
515 3085 3511
633 2952 799
447 2926 1201
460 3026 1557
479 3176 1883
501 3345 2277
532 3523 2768
564 3579 3106
586 3533 3409
596 3497 3664
828 206 72
853 213 357
899 303 764
797 397 1146
715 504 1444
639 616 1752
565 739 2061
481 830 2373
436 930 2711
931 531 182
889 562 444
910 629 851
734 704 1213
628 789 1518
527 886 1816
437 969 2103
413 1035 2384
400 1115 2701
1033 926 300
937 977 595
725 1049 999
598 1075 1295
497 1139 1575
445 1198 1848
416 1227 2113
401 1277 2390
392 1346 2715
988 1304 383
688 1352 614
501 1415 1066
484 1473 1422
463 1473 1666
437 1490 1938
414 1520 2221
403 1577 2522
402 1661 2866
831 1687 414
543 1678 667
459 1683 1092
453 1803 1511
458 1812 1771
443 1810 2054
426 1834 2347
419 1903 2684
438 2033 3077
648 1934 402
470 1924 667
420 1915 1087
431 2092 1544
448 2184 1894
472 2224 2203
468 2243 2539
461 2293 2888
524 2456 3296
572 2217 457
417 2224 788
408 2238 1205
430 2415 1624
464 2629 2099
511 2702 2421
551 2740 2764
540 2743 3114
627 2853 3462
638 2582 639
482 2589 1048
460 2647 1460
481 2808 1824
514 3034 2296
563 3204 2719
612 3239 3018
643 3230 3322
694 3237 3605
723 3013 892
524 2976 1301
540 3098 1681
570 3258 2023
617 3448 2483
690 3634 3000
757 3703 3316
784 3688 3552
786 3655 3755
1249 300 50
1264 321 302
1348 360 693
1401 463 1074
1352 574 1441
1238 649 1801
1088 751 2096
999 852 2380
921 994 2708
1367 622 147
1358 631 390
1406 655 746
1463 774 1175
1306 841 1576
1088 913 1888
962 994 2173
826 1084 2454
691 1203 2777
1537 949 211
1506 989 512
1435 1088 939
1410 1155 1328
1170 1203 1688
988 1245 1991
803 1294 2255
660 1376 2514
636 1443 2821
1653 1359 358
1600 1418 679
1472 1513 1058
1165 1594 1495
1015 1582 1792
855 1605 2062
699 1652 2329
649 1702 2618
650 1779 2967
1664 1780 403
1542 1794 725
1235 1835 1056
935 1917 1531
831 2004 1943
738 2010 2204
682 2004 2471
673 2061 2812
736 2247 3246
1509 2094 587
1341 2126 815
1015 2164 1098
782 2235 1598
724 2415 2094
747 2449 2405
724 2435 2665
726 2474 3017
868 2709 3468
1249 2378 660
1082 2394 856
834 2385 1178
697 2476 1642
703 2720 2165
761 2884 2591
816 2931 2923
813 2927 3221
935 3071 3594
1150 2652 746
982 2703 1067
822 2700 1469
717 2844 1881
747 3078 2339
816 3356 2874
891 3442 3212
917 3426 3466
971 3430 3706
1230 3160 951
1011 3265 1299
815 3321 1730
854 3457 2153
915 3658 2600
998 3862 3156
1058 3931 3519
1076 3892 3730
1068 3842 3883
1650 400 39
1696 429 279
1792 427 656
1846 516 1017
1933 622 1358
1880 751 1723
1795 849 2072
1687 903 2406
1523 988 2715
1785 714 132
1792 706 342
1846 698 679
1925 794 1098
1974 902 1457
1843 1012 1852
1691 1044 2206
1476 1093 2494
1329 1191 2780
1958 1027 220
1956 1057 468
1944 1134 866
1965 1175 1238
2002 1286 1631
1808 1313 2031
1530 1318 2356
1326 1385 2637
1175 1471 2953
2149 1374 280
2144 1413 535
2106 1503 992
2011 1626 1448
1964 1688 1826
1679 1680 2205
1422 1689 2515
1207 1724 2797
1122 1849 3142
2276 1831 370
2238 1893 722
2191 1983 1124
2082 2066 1532
1763 2155 2017
1538 2106 2342
1313 2092 2618
1173 2178 2971
1347 2401 3409
2261 2302 438
2201 2319 747
2113 2348 1128
1856 2357 1540
1496 2451 2036
1410 2600 2536
1263 2580 2813
1195 2662 3177
1567 2892 3616
2083 2601 633
1960 2604 978
1842 2625 1268
1558 2661 1603
1246 2784 2152
1091 3065 2756
1213 3132 3118
1178 3131 3392
1476 3279 3715
1902 2924 893
1790 2985 1212
1622 3057 1505
1338 3070 1868
1153 3238 2341
1080 3498 2939
1165 3646 3380
1194 3617 3638
1275 3616 3853
1946 3526 1057
1878 3692 1410
1722 3822 1743
1461 3924 2106
1446 4011 2682
1344 4030 3237
1392 4011 3624
1428 3944 3789
1394 3889 3916
2078 511 68
2126 528 307
2247 515 640
2336 597 995
2371 667 1310
2460 770 1623
2440 887 1956
2358 1010 2316
2281 1114 2673
2198 802 167
2205 785 336
2289 757 633
2374 821 1032
2408 907 1384
2466 1020 1720
2389 1139 2094
2265 1227 2447
2210 1269 2811
2380 1111 264
2377 1126 412
2388 1160 782
2424 1160 1124
2478 1266 1543
2520 1373 1893
2389 1453 2289
2266 1464 2657
2078 1484 3020
2577 1450 325
2570 1483 461
2569 1548 900
2537 1661 1353
2523 1704 1757
2546 1801 2153
2403 1791 2557
2159 1761 2917
2071 1899 3315
2731 1859 369
2734 1902 570
2733 1973 1036
2690 2075 1505
2600 2203 1989
2561 2270 2395
2333 2213 2802
2141 2234 3193
2311 2481 3611
2848 2383 477
2835 2442 706
2808 2509 1158
2771 2594 1588
2708 2673 2050
2492 2739 2564
2259 2688 2934
2144 2717 3309
2422 2952 3688
2818 2895 549
2800 2931 920
2771 2954 1292
2709 2967 1669
2544 2941 2107
2225 3002 2585
2194 3209 3128
2138 3157 3416
2327 3283 3747
2792 3269 785
2741 3303 1242
2700 3336 1586
2637 3361 1899
2454 3381 2172
2027 3449 2639
1965 3649 3285
2033 3672 3635
2166 3643 3844
2791 3699 1192
2797 3779 1591
2804 3870 1906
2775 3940 2177
2647 4004 2434
2333 4065 2838
2224 4052 3472
2248 4004 3774
2241 3935 3925
2536 628 116
2590 634 363
2653 623 654
2784 687 980
2841 772 1310
2851 837 1606
2913 954 1903
2915 1059 2260
2855 1195 2686
2634 899 206
2643 891 358
2694 852 621
2793 885 1004
2847 978 1366
2847 1056 1689
2904 1173 2006
2882 1295 2414
2811 1382 2812
2789 1206 287
2767 1210 415
2794 1206 718
2832 1196 1067
2888 1269 1477
2882 1362 1831
2933 1489 2228
2884 1565 2622
2867 1625 3039
2974 1544 339
2962 1560 467
2970 1597 813
2952 1669 1248
2955 1671 1646
2961 1775 2076
2992 1866 2490
2958 1887 2883
2977 2021 3378
3160 1935 369
3154 1960 534
3163 2019 909
3138 2119 1395
3090 2246 1919
3069 2275 2341
3090 2336 2764
3050 2307 3178
3060 2548 3593
3301 2416 475
3299 2456 675
3289 2497 1136
3273 2566 1574
3241 2674 2054
3178 2793 2540
3142 2856 2972
3049 2815 3347
3114 3036 3712
3370 2940 613
3374 3003 834
3364 3060 1311
3346 3110 1687
3308 3173 2082
3241 3253 2581
3112 3306 3091
2977 3271 3454
3028 3370 3778
3345 3469 855
3355 3526 1368
3367 3574 1744
3360 3607 2069
3307 3610 2354
3155 3589 2658
2884 3653 3036
2840 3746 3615
2912 3694 3839
3361 3840 1348
3364 3892 1737
3371 3936 2062
3368 3974 2353
3332 4023 2611
3185 4060 2846
2893 4085 3161
2839 4053 3717
2896 3989 3918
2999 771 152
3057 783 397
3093 751 689
3212 789 973
3254 879 1321
3267 962 1639
3259 1040 1928
3283 1152 2315
3289 1266 2716
3084 1034 233
3103 1041 371
3128 999 630
3215 979 988
3257 1076 1370
3267 1174 1722
3254 1251 2036
3276 1372 2455
3292 1470 2865
3212 1326 303
3204 1325 423
3233 1316 659
3251 1309 1048
3288 1339 1463
3297 1452 1855
3283 1551 2236
3314 1646 2654
3376 1761 3116
3380 1670 342
3372 1675 457
3384 1705 732
3377 1749 1186
3368 1761 1633
3377 1822 2061
3349 1922 2486
3420 2011 2920
3515 2169 3428
3567 2071 380
3561 2092 538
3556 2124 868
3539 2200 1352
3507 2294 1864
3488 2293 2284
3457 2372 2737
3539 2453 3177
3595 2650 3639
3701 2494 494
3697 2538 709
3685 2590 1164
3660 2649 1586
3637 2734 2024
3595 2833 2507
3554 2846 2914
3584 2919 3348
3586 3075 3734
3749 2965 662
3755 3028 928
3758 3088 1445
3750 3136 1824
3731 3169 2164
3689 3232 2583
3631 3329 3052
3583 3389 3453
3555 3456 3776
3791 3520 823
3793 3585 1117
3785 3638 1628
3766 3681 2006
3746 3710 2337
3701 3731 2706
3637 3761 3131
3536 3826 3551
3516 3781 3847
3736 3932 1452
3737 3956 1810
3744 3986 2122
3746 4016 2413
3723 4046 2714
3671 4054 3034
3579 4082 3269
3449 4089 3595
3502 4039 3917
3444 930 173
3485 941 424
3516 924 702
3558 911 981
3617 999 1356
3623 1107 1706
3585 1167 2017
3569 1254 2360
3582 1362 2773
3521 1203 245
3545 1215 383
3560 1191 639
3625 1140 1016
3642 1222 1440
3643 1341 1822
3606 1426 2182
3587 1512 2542
3638 1608 2976
3639 1506 299
3657 1537 426
3698 1559 683
3708 1580 1162
3716 1564 1602
3726 1691 2027
3682 1809 2458
3690 1890 2834
3788 1970 3285
3804 1868 317
3812 1905 478
3824 1980 886
3824 2066 1420
3824 2103 1875
3810 2117 2267
3779 2234 2711
3803 2316 3106
3897 2373 3536
3940 2274 420
3931 2324 655
3929 2383 1157
3917 2482 1634
3904 2573 2105
3881 2593 2505
3845 2651 2911
3867 2749 3316
3941 2795 3692
3972 2660 585
3981 2737 929
3987 2811 1458
3985 2865 1833
3961 2936 2213
3932 3031 2656
3898 3056 3047
3890 3152 3441
3940 3203 3775
3981 3053 789
3997 3137 1341
4005 3212 1732
4008 3273 2053
4006 3308 2351
3990 3337 2688
3949 3429 3103
3915 3477 3475
3920 3534 3810
4003 3515 1247
4004 3573 1644
4005 3625 1970
4005 3673 2263
4004 3715 2538
3999 3734 2804
3992 3754 3115
3965 3820 3508
3934 3884 3862
4008 3930 1495
4009 3957 1793
4009 3997 2086
4008 4035 2419
4005 4058 2824
3991 4071 3194
3974 4070 3448
3957 4075 3722
3941 4081 3912
