src/luts/Harry_Potter_-_Rec709.3dl
# Created by Benjamin (IWLTBAP) : http://luts.iwltbap.com
# Copyright: (C) Copyright 2016 Triune Films and IWLTBAP
# Blockbuster LUTs Pack
0 256 512 768 1023
0 0 116
0 53 510
0 332 889
0 509 1308
97 702 1865
0 579 436
0 645 741
0 755 1198
121 914 1672
460 1118 2266
520 1305 910
504 1390 1233
412 1486 1679
540 1625 2225
735 1777 2740
1109 2215 1608
1078 2277 1877
1103 2346 2225
1043 2392 2653
1162 2493 3069
1936 2956 2226
1915 2991 2443
1949 3030 2759
1907 3061 3044
1884 3087 3278
481 89 196
217 208 602
167 404 969
329 560 1376
533 775 1970
562 645 364
393 709 785
402 803 1225
523 977 1731
695 1201 2354
935 1446 926
769 1493 1306
722 1606 1760
818 1754 2329
989 1914 2840
1567 2341 1640
1377 2357 1938
1379 2451 2293
1361 2513 2731
1463 2618 3135
2368 3034 2255
2332 3060 2509
2339 3101 2825
2319 3135 3095
2287 3160 3308
1451 373 156
1305 424 635
1083 560 1129
1003 715 1576
988 928 2188
1651 721 74
1577 771 678
1137 986 1383
1016 1156 1918
1057 1361 2504
1861 1655 753
1743 1712 1212
1300 1798 1887
1285 1916 2441
1412 2062 2978
2305 2467 1519
2217 2536 1909
2063 2605 2381
1936 2674 2837
1943 2754 3206
2828 3104 2239
2810 3143 2542
2765 3177 2882
2764 3214 3152
2725 3235 3343
2259 519 272
2231 619 711
2125 795 1324
2004 974 1917
1931 1209 2475
2404 759 119
2480 731 588
2317 1150 1472
2171 1474 2220
2123 1653 2734
2762 1635 390
2822 1627 613
2783 1895 1714
2496 2180 2617
2470 2260 3066
2901 2536 1286
2892 2615 1716
2909 2722 2278
2769 2826 2905
2743 2892 3256
3179 3144 2110
3170 3185 2452
3126 3235 2878
3080 3268 3193
3061 3288 3369
2829 728 401
2849 844 811
2871 1164 1564
2818 1428 2268
2806 1646 2819
2885 879 317
2916 948 743
2949 1301 1567
2905 1679 2402
2906 1923 2955
3100 1648 508
3124 1768 990
3145 2019 1822
3071 2295 2682
3046 2411 3134
3314 2558 1353
3315 2645 1738
3297 2769 2287
3223 2884 2903
3169 2966 3285
3395 3204 2375
3361 3246 2716
3331 3283 3013
3297 3310 3248
3288 3334 3399
