src/luts/Harry_Potter_-_Rec709.3dl
# Created by Benjamin (IWLTBAP) : http://luts.iwltbap.com
# Copyright: (C) Copyright 2016 Triune Films and IWLTBAP
# Blockbuster LUTs Pack
0 128 256 384 512 640 768 896 1023
0 0 116
0 5 326
0 53 510
0 210 697
0 332 889
0 423 1101
0 509 1308
1 600 1554
97 702 1865
0 300 269
0 331 430
0 381 622
0 446 819
0 514 1022
0 581 1223
0 660 1436
48 755 1707
288 863 2025
0 579 436
0 610 565
0 645 741
0 691 964
0 755 1198
13 830 1424
121 914 1672
321 1013 1972
460 1118 2266
149 904 640
161 945 765
139 986 948
45 1034 1172
69 1094 1427
242 1176 1682
385 1261 1964
497 1347 2256
603 1439 2523
520 1305 910
511 1350 1047
504 1390 1233
470 1440 1449
412 1486 1679
443 1543 1927
540 1625 2225
641 1704 2508
735 1777 2740
775 1753 1248
765 1793 1390
753 1827 1556
750 1870 1755
714 1911 1948
674 1943 2171
721 1997 2445
819 2075 2718
910 2139 2923
1109 2215 1608
1098 2251 1743
1078 2277 1877
1096 2313 2052
1103 2346 2225
1076 2369 2422
1043 2392 2653
1083 2439 2888
1162 2493 3069
1502 2622 1921
1497 2653 2036
1485 2676 2146
1495 2702 2292
1518 2734 2474
1502 2758 2662
1454 2768 2850
1401 2773 3022
1463 2818 3187
1936 2956 2226
1931 2976 2328
1915 2991 2443
1920 3008 2587
1949 3030 2759
1938 3047 2909
1907 3061 3044
1855 3073 3172
1884 3087 3278
0 3 180
0 18 379
0 99 547
0 264 728
0 359 916
0 443 1122
3 527 1330
126 620 1579
362 728 1901
1 318 234
0 355 445
0 402 630
0 458 822
0 518 1016
5 590 1226
101 676 1449
303 776 1733
449 887 2054
30 598 426
10 623 575
11 670 759
20 718 984
84 781 1217
219 849 1437
353 933 1689
467 1043 2004
569 1152 2303
410 943 647
376 961 781
369 1021 970
320 1073 1198
354 1135 1455
439 1217 1713
528 1304 2001
624 1400 2303
713 1490 2566
646 1357 926
624 1379 1074
615 1438 1261
595 1487 1482
563 1538 1711
591 1596 1964
671 1681 2265
768 1768 2553
858 1845 2786
932 1810 1266
882 1825 1413
863 1878 1583
859 1917 1783
845 1962 1980
808 1999 2206
857 2054 2481
967 2139 2760
1064 2207 2963
1283 2265 1626
1232 2280 1760
1209 2322 1905
1207 2353 2071
1226 2391 2253
1210 2421 2456
1195 2448 2686
1239 2499 2923
1308 2554 3101
1674 2661 1934
1626 2675 2048
1613 2711 2169
1604 2739 2311
1621 2768 2496
1606 2793 2688
1571 2809 2879
1539 2821 3050
1602 2866 3210
2132 2991 2239
2112 3002 2344
2105 3025 2472
2092 3040 2614
2120 3062 2786
2110 3078 2934
2077 3093 3067
2032 3107 3192
2053 3120 3292
481 89 196
407 124 406
217 208 602
158 324 778
167 404 969
229 481 1170
329 560 1376
435 663 1648
533 775 1970
587 363 192
551 387 426
300 443 667
222 489 852
252 552 1052
318 623 1264
402 713 1494
496 822 1797
592 932 2110
562 645 364
530 656 528
393 709 785
370 749 997
402 803 1225
456 881 1461
523 977 1731
605 1087 2046
695 1201 2354
713 1013 627
639 1033 780
559 1063 1001
535 1125 1236
546 1183 1493
603 1270 1763
675 1363 2064
752 1455 2360
827 1544 2625
935 1446 926
863 1475 1096
769 1493 1306
741 1555 1531
722 1606 1760
749 1668 2023
818 1754 2329
907 1837 2611
989 1914 2840
1240 1903 1277
1124 1904 1431
1027 1928 1626
1001 1981 1820
995 2027 2024
984 2073 2260
1027 2130 2538
1131 2211 2810
1216 2277 3009
1567 2341 1640
1476 2339 1772
1377 2357 1938
1365 2412 2101
1379 2451 2293
1370 2484 2501
1361 2513 2731
1405 2564 2962
1463 2618 3135
1928 2718 1947
1882 2733 2066
1843 2754 2200
1806 2790 2336
1799 2815 2522
1770 2838 2721
1723 2857 2913
1690 2872 3081
1781 2916 3230
2368 3034 2255
2350 3047 2367
2332 3060 2509
2329 3083 2662
2339 3101 2825
2341 3119 2969
2319 3135 3095
2276 3149 3213
2287 3160 3308
989 279 161
932 298 410
814 330 628
687 406 849
607 468 1036
596 539 1238
626 619 1456
678 729 1757
722 839 2068
1084 422 102
1093 427 382
902 495 673
700 555 910
619 606 1107
620 680 1325
653 775 1577
700 893 1899
756 1002 2198
1205 686 173
1211 685 370
1055 746 725
754 833 1070
672 865 1280
679 946 1520
709 1048 1805
769 1158 2122
837 1269 2419
1211 1122 542
1152 1134 705
1016 1154 963
779 1203 1293
738 1250 1533
769 1327 1798
821 1417 2103
879 1507 2398
957 1601 2692
1409 1561 855
1326 1586 1046
1136 1599 1295
951 1626 1584
908 1692 1825
923 1752 2098
983 1834 2407
1068 1911 2680
1145 1984 2913
1664 1981 1218
1548 2009 1412
1407 2031 1637
1228 2057 1882
1207 2116 2088
1190 2158 2326
1222 2212 2607
1321 2286 2866
1381 2347 3064
1951 2412 1601
1852 2429 1768
1730 2441 1953
1669 2476 2147
1639 2527 2338
1604 2558 2553
1578 2589 2785
1612 2634 3005
1645 2682 3171
2264 2779 1925
2214 2798 2065
2176 2821 2213
2124 2840 2377
2078 2875 2551
2045 2897 2762
1979 2916 2951
1936 2929 3114
1999 2966 3252
2607 3072 2254
2599 3091 2382
2582 3106 2538
2560 3120 2701
2562 3144 2859
2571 3160 3003
2548 3175 3123
2515 3191 3235
2514 3199 3325
1451 373 156
1411 394 412
1305 424 635
1179 492 895
1083 560 1129
1018 625 1328
1003 715 1576
1002 822 1894
988 928 2188
1528 472 40
1550 460 344
1420 518 649
1222 627 948
1090 701 1203
1014 770 1414
1000 875 1695
1000 991 2025
1002 1099 2309
1651 721 74
1686 693 275
1577 771 678
1343 912 1097
1137 986 1383
1040 1052 1618
1016 1156 1918
1031 1260 2226
1057 1361 2504
1809 1154 313
1814 1152 447
1757 1186 769
1530 1296 1254
1200 1401 1646
1092 1437 1887
1100 1518 2183
1128 1598 2469
1187 1687 2754
1861 1655 753
1813 1676 935
1743 1712 1212
1552 1746 1565
1300 1798 1887
1256 1849 2148
1285 1916 2441
1330 1986 2713
1412 2062 2978
2045 2063 1098
2010 2101 1307
1936 2145 1576
1787 2174 1863
1636 2211 2138
1569 2263 2391
1524 2302 2677
1610 2369 2923
1662 2427 3110
2305 2467 1519
2278 2500 1699
2217 2536 1909
2157 2575 2137
2063 2605 2381
1987 2649 2605
1936 2674 2837
1938 2711 3048
1943 2754 3206
2570 2824 1876
2552 2846 2016
2521 2875 2179
2479 2904 2376
2443 2929 2607
2400 2963 2810
2353 2983 2990
2332 2998 3143
2290 3024 3278
2828 3104 2239
2824 3122 2369
2810 3143 2542
2788 3160 2719
2765 3177 2882
2771 3199 3028
2764 3214 3152
2732 3227 3258
2725 3235 3343
1857 451 237
1835 475 434
1768 521 668
1665 574 940
1563 663 1213
1506 739 1461
1460 829 1729
1423 937 2042
1403 1046 2319
1936 510 71
1961 518 367
1894 576 660
1746 668 971
1609 806 1285
1531 896 1554
1484 1003 1848
1450 1116 2163
1439 1234 2440
2043 742 77
2092 702 264
2070 759 633
1914 935 1078
1741 1102 1456
1622 1210 1761
1547 1295 2056
1533 1400 2352
1538 1501 2615
2234 1160 154
2277 1138 293
2291 1151 607
2196 1318 1174
1969 1527 1690
1773 1614 2021
1685 1663 2304
1667 1733 2568
1720 1810 2827
2402 1663 507
2418 1675 621
2410 1714 917
2390 1788 1328
2257 1904 1816
1979 2018 2256
1901 2049 2528
1904 2106 2777
1940 2165 3021
2422 2114 982
2414 2155 1181
2399 2209 1469
2395 2261 1780
2322 2320 2106
2168 2377 2439
2126 2420 2705
2141 2467 2950
2144 2518 3148
2602 2516 1386
2599 2549 1568
2607 2593 1810
2590 2640 2062
2533 2688 2339
2458 2727 2641
2406 2766 2874
2374 2795 3081
2357 2833 3237
2825 2858 1792
2823 2880 1939
2823 2914 2115
2804 2951 2316
2775 2985 2579
2729 3013 2850
2694 3044 3025
2677 3060 3171
2612 3084 3305
3022 3128 2202
3015 3145 2333
3003 3166 2510
2982 3189 2714
2960 3210 2893
2939 3228 3047
2939 3245 3176
2918 3258 3278
2903 3263 3356
2259 519 272
2256 549 458
2231 619 711
2178 709 1017
2125 795 1324
2038 884 1592
2004 974 1917
1960 1085 2206
1931 1209 2475
2327 559 118
2343 585 402
2335 660 690
2294 771 1039
2177 884 1347
2088 1032 1672
2063 1165 2031
2014 1270 2315
2001 1400 2587
2404 759 119
2438 709 287
2480 731 588
2426 943 1070
2317 1150 1472
2217 1349 1867
2171 1474 2220
2117 1555 2488
2123 1653 2734
2573 1149 188
2600 1120 309
2639 1075 502
2637 1292 1118
2559 1538 1649
2407 1730 2096
2323 1827 2428
2268 1873 2678
2299 1937 2908
2762 1635 390
2792 1626 438
2822 1627 613
2831 1724 1126
2783 1895 1714
2620 2100 2287
2496 2180 2617
2447 2215 2855
2470 2260 3066
2872 2103 734
2874 2125 868
2880 2169 1147
2909 2226 1474
2917 2300 1845
2809 2422 2385
2655 2518 2775
2619 2542 2999
2615 2591 3175
2901 2536 1286
2894 2565 1458
2892 2615 1716
2923 2662 1972
2909 2722 2278
2859 2775 2621
2769 2826 2905
2748 2858 3101
2743 2892 3256
3028 2880 1685
3025 2904 1830
3034 2937 2026
3050 2973 2235
3025 3014 2502
2979 3051 2806
2927 3081 3045
2909 3106 3195
2877 3128 3324
3179 3144 2110
3177 3164 2259
3170 3185 2452
3152 3211 2671
3126 3235 2878
3097 3251 3049
3080 3268 3193
3078 3284 3297
3061 3288 3369
2582 602 333
2584 629 490
2588 716 750
2583 858 1105
2571 992 1461
2517 1090 1765
2477 1185 2094
2467 1303 2411
2442 1412 2648
2636 636 226
2647 665 441
2656 750 719
2657 905 1106
2632 1048 1475
2553 1173 1800
2525 1324 2172
2518 1452 2492
2502 1568 2730
2689 783 184
2719 744 306
2762 779 589
2765 982 1080
2725 1194 1513
2657 1411 1925
2626 1601 2325
2611 1717 2633
2599 1797 2851
2806 1146 265
2824 1120 346
2850 1033 471
2890 1261 1085
2882 1520 1618
2810 1753 2108
2753 1912 2501
2723 1999 2781
2725 2044 2988
2976 1600 345
2986 1573 390
3005 1539 496
3031 1671 1070
3025 1894 1701
2956 2101 2265
2878 2234 2665
2836 2304 2920
2829 2332 3105
3119 2056 589
3125 2040 612
3142 2050 768
3159 2162 1259
3137 2316 1834
3057 2453 2381
2975 2563 2793
2931 2609 3032
2917 2638 3196
3198 2494 1039
3196 2510 1157
3199 2566 1446
3205 2638 1783
3180 2717 2180
3133 2785 2554
3068 2851 2886
3012 2908 3131
3001 2927 3272
3234 2880 1609
3231 2900 1739
3229 2936 1937
3229 2986 2215
3195 3040 2609
3151 3080 2874
3119 3111 3060
3092 3140 3215
3088 3162 3337
3317 3146 1992
3313 3167 2135
3301 3199 2375
3284 3230 2614
3265 3255 2824
3241 3274 3020
3211 3289 3191
3202 3304 3313
3193 3311 3382
2829 728 401
2836 758 551
2849 844 811
2866 1001 1179
2871 1164 1564
2853 1310 1936
2818 1428 2268
2806 1548 2574
2806 1646 2819
2858 764 342
2865 790 510
2880 866 772
2902 1029 1160
2910 1199 1560
2879 1364 1949
2843 1495 2305
2841 1640 2627
2843 1744 2871
2885 879 317
2894 875 449
2916 948 743
2944 1117 1151
2949 1301 1567
2919 1492 1985
2905 1679 2402
2902 1826 2726
2906 1923 2955
2965 1222 403
2975 1236 542
2994 1299 840
3030 1446 1241
3045 1645 1691
3017 1832 2150
2987 1967 2538
2978 2073 2847
2984 2145 3050
3100 1648 508
3109 1689 679
3124 1768 990
3140 1874 1366
3145 2019 1822
3114 2183 2308
3071 2295 2682
3053 2366 2960
3046 2411 3134
3221 2116 834
3227 2149 996
3239 2218 1267
3246 2307 1592
3238 2402 1987
3198 2502 2428
3149 2605 2803
3123 2661 3059
3106 2694 3214
3314 2558 1353
3316 2591 1516
3315 2645 1738
3309 2711 2013
3297 2769 2287
3267 2825 2591
3223 2884 2903
3188 2945 3150
3169 2966 3285
3373 2932 1875
3364 2961 2029
3350 2999 2232
3334 3036 2437
3319 3069 2644
3297 3103 2864
3273 3131 3056
3251 3168 3227
3234 3188 3350
3395 3204 2375
3381 3224 2531
3361 3246 2716
3345 3266 2877
3331 3283 3013
3313 3298 3138
3297 3310 3248
3289 3322 3336
3288 3334 3399
