src/luts/Harry_Potter_-_Rec709.3dl
# Created by Benjamin (IWLTBAP) : http://luts.iwltbap.com
# Copyright: (C) Copyright 2016 Triune Films and IWLTBAP
# Blockbuster LUTs Pack
0 64 128 192 256 320 384 448 512 576 640 704 768 832 896 960 1023
0 0 116
0 1 230
0 5 326
0 17 418
0 53 510
0 118 603
0 210 697
0 283 792
0 332 889
0 378 995
0 423 1101
0 466 1206
0 509 1308
0 553 1422
1 600 1554
23 653 1708
97 702 1865
0 82 189
0 99 287
0 135 386
0 187 480
0 243 571
0 297 664
0 344 759
0 383 854
0 420 952
0 458 1053
0 496 1157
0 536 1260
0 578 1365
0 623 1484
6 670 1619
58 720 1776
177 773 1935
0 300 269
0 316 349
0 331 430
0 353 525
0 381 622
0 413 719
0 446 819
0 481 919
0 514 1022
0 547 1122
0 581 1223
0 619 1326
0 660 1436
3 705 1561
48 755 1707
151 809 1868
288 863 2025
0 443 353
0 458 417
0 472 492
0 486 575
0 503 672
0 529 778
0 559 886
0 592 995
0 624 1103
0 657 1209
0 691 1314
0 729 1420
13 772 1540
67 820 1676
175 871 1830
288 921 1985
384 976 2137
0 579 436
0 596 494
0 610 565
0 627 647
0 645 741
0 663 847
0 691 964
0 722 1082
0 755 1198
2 791 1312
13 830 1424
49 871 1541
121 914 1672
221 961 1816
321 1013 1972
398 1064 2121
460 1118 2266
6 731 530
8 751 587
8 766 655
6 785 740
5 806 833
0 826 939
0 847 1055
0 878 1185
8 914 1309
36 951 1430
101 992 1549
192 1036 1677
279 1082 1818
352 1127 1967
419 1176 2118
481 1225 2262
536 1274 2398
149 904 640
166 928 699
161 945 765
161 964 852
139 986 948
97 1011 1054
45 1034 1172
38 1057 1296
69 1094 1427
139 1135 1557
242 1176 1682
325 1218 1819
385 1261 1964
441 1302 2112
497 1347 2256
554 1396 2397
603 1439 2523
382 1099 767
384 1124 831
376 1145 896
375 1163 983
362 1186 1083
329 1212 1190
278 1237 1307
228 1261 1428
228 1284 1548
285 1319 1674
357 1362 1810
413 1404 1953
467 1444 2100
516 1482 2246
567 1523 2387
620 1568 2521
665 1605 2636
520 1305 910
517 1327 976
511 1350 1047
507 1369 1132
504 1390 1233
492 1416 1341
470 1440 1449
440 1464 1563
412 1486 1679
412 1506 1793
443 1543 1927
489 1585 2076
540 1625 2225
589 1664 2370
641 1704 2508
693 1743 2634
735 1777 2740
642 1522 1071
637 1541 1139
634 1566 1213
626 1584 1292
626 1604 1393
621 1626 1496
607 1649 1600
586 1673 1705
559 1694 1812
539 1714 1923
541 1732 2044
572 1767 2187
618 1809 2338
666 1849 2484
719 1889 2619
770 1924 2738
815 1957 2837
775 1753 1248
767 1769 1314
765 1793 1390
755 1809 1462
753 1827 1556
756 1847 1656
750 1870 1755
736 1892 1852
714 1911 1948
691 1929 2055
674 1943 2171
681 1959 2298
721 1997 2445
770 2037 2590
819 2075 2718
867 2108 2830
910 2139 2923
934 1986 1428
919 2000 1495
918 2024 1571
906 2038 1638
899 2053 1718
906 2072 1813
910 2094 1909
907 2115 2000
897 2131 2087
881 2146 2187
860 2159 2298
843 2170 2417
856 2191 2549
894 2228 2689
940 2261 2810
985 2291 2912
1029 2318 2999
1109 2215 1608
1094 2227 1670
1098 2251 1743
1089 2265 1807
1078 2277 1877
1083 2293 1963
1096 2313 2052
1105 2332 2138
1103 2346 2225
1092 2359 2319
1076 2369 2422
1059 2381 2535
1043 2392 2653
1051 2409 2773
1083 2439 2888
1122 2467 2986
1162 2493 3069
1308 2429 1771
1293 2441 1831
1298 2463 1900
1295 2478 1962
1283 2488 2021
1284 2501 2096
1298 2517 2177
1315 2536 2266
1318 2550 2354
1311 2561 2445
1298 2571 2545
1277 2579 2648
1255 2587 2755
1233 2593 2854
1238 2608 2957
1267 2634 3053
1307 2662 3131
1502 2622 1921
1492 2634 1974
1497 2653 2036
1497 2668 2094
1485 2676 2146
1480 2686 2211
1495 2702 2292
1513 2720 2383
1518 2734 2474
1514 2747 2566
1502 2758 2662
1480 2764 2758
1454 2768 2850
1427 2771 2937
1401 2773 3022
1414 2790 3111
1463 2818 3187
1692 2794 2057
1684 2804 2106
1686 2820 2160
1685 2833 2212
1674 2842 2263
1667 2852 2326
1676 2865 2408
1689 2878 2499
1693 2890 2591
1687 2900 2679
1674 2909 2767
1656 2916 2856
1636 2922 2939
1616 2928 3019
1589 2929 3094
1572 2929 3163
1659 2964 3236
1936 2956 2226
1928 2963 2272
1931 2976 2328
1928 2985 2385
1915 2991 2443
1909 2999 2508
1920 3008 2587
1936 3019 2672
1949 3030 2759
1947 3039 2837
1938 3047 2909
1926 3054 2978
1907 3061 3044
1885 3067 3109
1855 3073 3172
1841 3078 3229
1884 3087 3278
0 1 153
0 3 261
0 9 352
0 27 438
0 72 527
0 148 619
0 237 710
0 298 804
0 344 900
0 388 1003
0 432 1110
0 476 1215
0 518 1316
4 560 1428
38 608 1561
136 660 1716
256 711 1876
0 95 171
0 118 296
0 151 390
0 200 483
0 256 573
0 305 664
0 345 756
0 382 848
0 419 945
0 458 1048
0 497 1153
0 537 1256
5 579 1363
25 627 1487
94 677 1626
207 727 1784
309 779 1940
0 304 251
0 325 358
0 343 437
0 364 532
0 393 631
0 424 729
0 457 828
0 488 926
0 519 1025
0 551 1125
1 587 1229
9 627 1333
33 669 1444
96 715 1572
193 765 1719
297 820 1883
379 874 2039
0 446 344
0 461 423
0 481 499
0 496 583
0 514 681
0 540 787
0 571 895
0 603 1003
1 634 1110
5 665 1214
20 697 1316
49 735 1424
111 779 1545
200 829 1684
298 881 1841
378 934 1999
442 989 2151
1 584 431
0 596 498
1 619 570
1 638 655
0 655 748
0 673 854
0 702 972
1 733 1090
7 767 1206
25 802 1320
71 839 1430
153 879 1546
237 922 1677
322 971 1826
400 1027 1986
459 1081 2136
513 1135 2282
69 740 528
63 751 591
56 776 660
51 797 747
29 818 840
13 839 947
11 860 1064
20 893 1194
51 929 1319
117 965 1439
210 1007 1559
300 1052 1689
367 1098 1831
426 1143 1982
484 1195 2136
538 1245 2279
588 1294 2415
280 919 642
274 928 701
262 956 773
257 978 858
235 1002 957
205 1027 1063
170 1051 1183
166 1075 1306
212 1112 1438
284 1154 1568
349 1195 1695
406 1237 1833
457 1280 1980
508 1324 2131
561 1373 2278
612 1420 2416
658 1464 2543
450 1118 771
443 1127 834
442 1156 907
438 1180 992
432 1203 1094
414 1229 1201
385 1257 1320
356 1282 1440
358 1305 1560
391 1341 1688
438 1384 1824
485 1426 1968
532 1465 2116
580 1508 2266
629 1552 2409
679 1596 2541
723 1635 2658
575 1325 916
567 1336 983
564 1364 1060
558 1389 1144
557 1411 1245
547 1435 1354
530 1461 1464
507 1487 1578
487 1510 1693
487 1531 1807
516 1567 1943
558 1610 2092
604 1651 2243
653 1693 2390
702 1734 2529
752 1774 2655
794 1809 2761
699 1546 1080
687 1554 1147
681 1580 1224
676 1606 1307
675 1626 1406
671 1648 1510
662 1672 1614
646 1696 1720
621 1718 1826
603 1739 1937
607 1757 2059
637 1793 2203
681 1836 2355
732 1881 2506
784 1920 2640
839 1957 2758
884 1989 2856
840 1777 1256
824 1785 1324
812 1806 1399
809 1832 1479
804 1850 1567
806 1870 1668
803 1892 1768
793 1915 1866
776 1934 1962
751 1953 2070
737 1968 2187
747 1984 2313
786 2024 2461
840 2069 2610
888 2105 2737
944 2141 2850
985 2171 2941
1013 2011 1437
990 2019 1506
973 2037 1577
970 2061 1653
960 2076 1730
961 2093 1824
965 2114 1920
964 2136 2012
958 2152 2101
942 2169 2201
925 2185 2314
918 2197 2432
930 2218 2564
972 2257 2706
1016 2290 2827
1063 2323 2930
1104 2349 3016
1185 2238 1618
1164 2246 1682
1150 2262 1748
1151 2285 1821
1140 2299 1889
1138 2314 1973
1147 2331 2061
1159 2351 2148
1162 2367 2238
1154 2381 2333
1140 2395 2438
1127 2406 2551
1116 2418 2667
1126 2437 2788
1158 2468 2905
1198 2497 3003
1233 2522 3084
1391 2450 1779
1366 2458 1840
1349 2472 1903
1352 2495 1972
1345 2509 2033
1340 2521 2104
1350 2536 2187
1367 2554 2276
1372 2571 2367
1366 2582 2460
1355 2594 2560
1337 2603 2663
1318 2611 2769
1303 2618 2868
1309 2635 2971
1340 2663 3068
1375 2689 3145
1580 2639 1927
1559 2646 1981
1547 2660 2038
1552 2681 2101
1545 2694 2156
1535 2704 2218
1544 2719 2302
1560 2735 2392
1566 2750 2485
1562 2763 2578
1552 2775 2674
1532 2782 2771
1510 2788 2864
1490 2794 2951
1469 2796 3035
1483 2815 3125
1531 2842 3198
1772 2811 2063
1755 2817 2113
1746 2829 2163
1749 2847 2219
1740 2859 2274
1727 2868 2337
1730 2879 2418
1742 2892 2509
1746 2904 2602
1737 2914 2691
1723 2923 2780
1704 2931 2868
1685 2938 2950
1669 2945 3031
1648 2949 3106
1635 2950 3174
1724 2983 3244
2029 2972 2232
2020 2978 2281
2010 2986 2332
2012 2999 2393
2004 3008 2455
1994 3014 2522
1998 3023 2598
2013 3033 2683
2027 3044 2771
2026 3053 2850
2016 3061 2920
2002 3069 2989
1983 3076 3055
1963 3083 3119
1937 3089 3182
1916 3094 3238
1962 3103 3285
0 3 180
0 6 285
0 18 379
0 42 460
0 99 547
0 183 637
0 264 728
0 315 821
0 359 916
0 401 1018
0 443 1122
0 485 1228
3 527 1330
28 571 1444
126 620 1579
257 673 1737
362 728 1901
3 120 188
1 154 305
0 187 408
0 224 496
0 278 586
0 322 677
0 359 769
0 395 860
0 431 957
0 469 1059
0 508 1165
3 548 1267
24 590 1373
93 638 1496
210 688 1640
314 740 1799
398 796 1961
1 318 234
0 333 341
0 355 445
0 375 534
0 402 630
0 429 726
0 458 822
0 487 916
0 518 1016
0 552 1120
5 590 1226
30 632 1332
101 676 1449
207 725 1582
303 776 1733
380 832 1895
449 887 2054
4 457 325
0 467 407
0 489 505
0 510 592
0 528 692
0 555 799
0 584 906
2 612 1013
8 641 1116
25 671 1220
73 706 1326
149 747 1436
240 792 1559
321 842 1701
389 895 1859
448 948 2018
508 1007 2175
30 598 426
10 605 490
10 623 575
16 652 666
11 670 759
9 688 866
20 718 984
43 749 1102
84 781 1217
146 814 1329
219 849 1437
288 887 1554
353 933 1689
411 986 1843
467 1043 2004
518 1099 2156
569 1152 2303
217 758 529
183 764 588
174 780 667
186 811 756
174 835 854
135 857 959
131 878 1077
169 910 1206
229 945 1332
295 982 1452
349 1024 1572
401 1068 1703
448 1114 1847
496 1163 2003
547 1217 2157
595 1266 2300
642 1316 2437
410 943 647
394 948 704
376 961 781
377 995 867
369 1021 970
346 1047 1077
320 1073 1198
320 1097 1321
354 1135 1455
395 1176 1585
439 1217 1713
483 1260 1852
528 1304 2001
574 1350 2155
624 1400 2303
670 1445 2438
713 1490 2566
532 1149 780
520 1152 840
508 1164 917
505 1200 1007
501 1226 1108
489 1252 1218
471 1281 1336
453 1306 1456
454 1329 1576
478 1366 1706
517 1410 1844
558 1452 1990
601 1494 2140
645 1538 2291
693 1584 2435
740 1625 2565
782 1666 2682
646 1357 926
636 1364 992
624 1379 1074
618 1412 1162
615 1438 1261
608 1462 1372
595 1487 1482
578 1514 1596
563 1538 1711
565 1559 1826
591 1596 1964
630 1640 2114
671 1681 2265
718 1725 2414
768 1768 2553
816 1806 2677
858 1845 2786
767 1577 1090
754 1583 1157
741 1597 1239
733 1628 1326
731 1654 1421
728 1676 1527
720 1699 1632
708 1724 1738
691 1747 1845
676 1769 1957
679 1788 2080
707 1824 2223
748 1867 2376
801 1914 2529
855 1954 2664
908 1990 2780
953 2025 2880
932 1810 1266
911 1814 1332
882 1825 1413
866 1852 1496
863 1878 1583
862 1896 1682
859 1917 1783
854 1941 1882
845 1962 1980
823 1981 2088
808 1999 2206
818 2015 2332
857 2054 2481
914 2101 2632
967 2139 2760
1022 2175 2870
1064 2207 2963
1110 2041 1446
1078 2047 1514
1046 2057 1591
1028 2078 1667
1025 2103 1747
1021 2119 1836
1022 2137 1933
1026 2160 2026
1027 2178 2117
1015 2196 2219
997 2213 2332
993 2228 2452
1008 2248 2583
1050 2288 2725
1096 2322 2847
1143 2356 2950
1182 2383 3036
1283 2265 1626
1257 2271 1690
1232 2280 1760
1212 2298 1831
1209 2322 1905
1203 2338 1983
1207 2353 2071
1218 2373 2160
1226 2391 2253
1222 2406 2350
1210 2421 2456
1200 2436 2569
1195 2448 2686
1206 2468 2806
1239 2499 2923
1277 2529 3021
1308 2554 3101
1493 2474 1785
1462 2480 1845
1429 2488 1914
1410 2505 1980
1411 2528 2048
1404 2542 2114
1410 2557 2197
1425 2575 2289
1432 2592 2381
1427 2605 2475
1417 2617 2576
1401 2628 2680
1386 2637 2786
1376 2646 2884
1386 2665 2988
1415 2693 3084
1446 2718 3160
1674 2661 1934
1651 2667 1988
1626 2675 2048
1613 2691 2107
1613 2711 2169
1604 2725 2230
1604 2739 2311
1615 2754 2403
1621 2768 2496
1617 2781 2591
1606 2793 2688
1589 2802 2787
1571 2809 2879
1554 2816 2965
1539 2821 3050
1554 2840 3138
1602 2866 3210
1869 2832 2071
1853 2838 2121
1841 2846 2174
1829 2859 2226
1829 2877 2288
1817 2888 2353
1809 2897 2431
1820 2909 2522
1827 2921 2616
1817 2932 2708
1797 2941 2796
1768 2949 2883
1742 2955 2963
1728 2963 3044
1711 2969 3119
1704 2972 3186
1798 3002 3253
2132 2991 2239
2121 2996 2288
2112 3002 2344
2104 3012 2403
2105 3025 2472
2096 3033 2539
2092 3040 2614
2105 3051 2699
2120 3062 2786
2121 3071 2865
2110 3078 2934
2097 3086 3002
2077 3093 3067
2057 3100 3131
2032 3107 3192
2012 3113 3247
2053 3120 3292
153 15 194
107 21 297
58 41 398
14 75 489
4 143 572
3 227 660
4 294 752
5 339 844
11 379 940
24 419 1039
47 460 1143
81 500 1246
139 541 1349
220 585 1467
312 638 1609
391 695 1774
450 749 1932
212 169 190
212 198 304
111 230 419
34 263 516
11 302 604
9 342 695
11 377 787
15 413 880
25 449 977
44 485 1079
74 523 1183
121 563 1287
194 605 1394
274 654 1522
353 706 1669
420 762 1834
