src/luts/House_of_Cards_-_Rec709.3dl
# Created by Benjamin (IWLTBAP) : http://luts.iwltbap.com
# Copyright: (C) Copyright 2016 Triune Films and IWLTBAP
# Blockbuster LUTs Pack
0 128 256 384 512 640 768 896 1023
0 0 0
53 27 360
115 56 748
151 58 1170
180 105 1608
213 167 2049
277 228 2470
353 286 2878
462 346 3289
72 387 59
119 351 330
200 422 773
284 487 1277
325 554 1789
372 576 2213
426 602 2619
483 630 3015
567 649 3417
223 811 146
228 766 399
240 704 683
339 789 1174
407 872 1706
471 949 2217
567 1022 2706
661 1094 3174
756 1136 3595
338 1238 239
354 1197 479
349 1118 736
352 1067 1058
467 1173 1587
541 1263 2118
632 1345 2615
729 1423 3096
840 1499 3567
471 1660 357
479 1621 573
473 1543 817
456 1474 1095
468 1428 1448
588 1550 2003
683 1652 2518
788 1739 3005
881 1815 3486
615 2080 472
617 2034 672
624 1986 921
584 1902 1172
549 1843 1477
564 1797 1857
719 1933 2404
844 2037 2904
947 2113 3395
798 2475 599
776 2436 782
783 2401 1029
745 2317 1272
692 2263 1550
645 2207 1870
683 2167 2254
869 2301 2787
991 2403 3293
950 2871 718
935 2830 896
938 2790 1132
929 2728 1389
866 2656 1642
812 2601 1932
763 2546 2257
834 2513 2631
1015 2652 3180
1105 3266 856
1083 3228 1024
1093 3190 1263
1119 3156 1550
1054 3064 1781
1009 3008 2053
970 2961 2352
945 2897 2674
984 2859 3036
449 63 50
355 68 296
359 80 670
377 76 1087
393 91 1514
395 149 1959
423 212 2395
495 269 2801
578 330 3223
469 399 78
538 531 458
556 549 856
558 557 1287
573 564 1721
591 583 2153
637 601 2567
679 629 2970
748 647 3365
535 828 169
618 950 526
640 880 817
671 920 1273
706 978 1790
760 1043 2286
826 1097 2751
880 1121 3155
955 1143 3544
646 1308 291
725 1418 619
728 1315 883
732 1237 1188
786 1292 1683
840 1360 2191
910 1434 2680
994 1506 3154
1095 1585 3625
756 1734 401
838 1845 714
840 1773 974
826 1686 1246
825 1598 1583
897 1662 2088
979 1744 2584
1059 1821 3066
1144 1897 3540
887 2142 519
971 2249 809
976 2192 1066
952 2116 1337
918 2056 1627
924 1964 1979
1027 2030 2480
1115 2120 2968
1205 2192 3451
1036 2536 635
1116 2641 920
1120 2591 1168
1096 2506 1430
1065 2450 1703
1025 2399 2008
1045 2318 2367
1165 2389 2861
1250 2482 3357
1179 2929 760
1251 3025 1033
1248 2977 1273
1239 2905 1532
1199 2837 1790
1159 2783 2072
1116 2730 2375
1169 2653 2737
1278 2738 3249
1312 3313 915
1342 3342 1123
1366 3309 1380
1398 3277 1674
1357 3190 1911
1327 3139 2184
1309 3091 2481
1288 3048 2797
1353 3019 3167
893 145 99
820 162 340
723 151 611
695 144 1025
680 149 1462
671 177 1908
683 220 2345
721 263 2741
780 318 3154
904 446 121
973 581 478
901 606 789
884 602 1201
876 608 1645
869 611 2083
879 620 2497
901 630 2898
955 658 3311
927 791 164
994 932 498
1078 1064 965
1074 1081 1390
1078 1111 1857
1083 1116 2275
1099 1116 2681
1134 1129 3081
1171 1147 3485
978 1225 240
1054 1366 569
1146 1490 1036
1169 1427 1358
1175 1459 1801
1215 1511 2287
1264 1568 2770
1321 1624 3231
1373 1667 3659
1063 1680 358
1132 1804 662
1243 1921 1121
1254 1844 1426
1251 1783 1739
1287 1823 2195
1341 1882 2677
1393 1936 3151
1445 2002 3616
1196 2171 527
1269 2253 785
1376 2374 1230
1366 2273 1516
1345 2197 1797
1346 2133 2119
1407 2176 2578
1455 2236 3060
1499 2300 3533
1350 2610 684
1394 2677 914
1514 2817 1351
1505 2732 1628
1473 2629 1886
1434 2536 2163
1452 2471 2493
1517 2527 2956
1569 2588 3440
1465 2998 808
1504 3064 1030
1617 3205 1457
1620 3145 1729
1600 3071 1986
1563 2994 2245
1508 2873 2520
1544 2811 2865
1618 2872 3341
1594 3361 1038
1623 3391 1265
1653 3425 1501
1701 3392 1794
1673 3317 2039
1659 3272 2311
1658 3234 2612
1695 3213 2957
1757 3192 3310
1362 235 171
1305 259 392
1189 246 645
1097 230 944
1056 226 1363
1009 227 1840
978 248 2301
993 274 2711
1020 319 3129
1368 495 185
1430 642 508
1360 677 821
1265 665 1119
1224 666 1549
1202 673 2004
1192 676 2437
1205 684 2844
1227 688 3256
1383 834 219
1435 973 520
1517 1121 982
1458 1154 1340
1426 1152 1765
1419 1162 2196
1421 1167 2614
1429 1171 3017
1439 1172 3419
1403 1199 273
1462 1343 552
1537 1482 1001
1630 1631 1531
1618 1639 1941
1630 1674 2381
1630 1694 2810
1632 1696 3209
1641 1696 3604
1443 1626 351
1509 1759 627
1599 1900 1072
1692 2022 1598
1713 1975 1914
1710 1992 2318
1727 2041 2785
1751 2086 3247
1785 2132 3696
1513 2066 465
1586 2181 730
1687 2323 1169
1780 2426 1678
1788 2366 1979
1784 2307 2270
1802 2334 2697
1824 2386 3158
1856 2433 3618
1621 2497 606
1677 2592 849
1774 2740 1279
1867 2843 1769
1872 2772 2056
1858 2705 2327
1857 2640 2635
1898 2680 3069
1922 2737 3530
1747 2966 778
1780 3027 990
1877 3165 1402
1982 3275 1875
1973 3189 2142
1955 3114 2402
1920 3040 2680
1944 2979 3002
1993 3022 3442
1932 3415 1194
1961 3451 1433
1991 3482 1670
2030 3505 1903
2041 3468 2196
2075 3438 2486
2094 3414 2792
2118 3381 3105
2170 3352 3444
1820 345 267
1789 369 475
1670 356 706
1563 335 981
1465 311 1289
1417 305 1731
1366 318 2206
1324 329 2651
1311 360 3088
1820 576 278
1885 711 553
1830 756 867
1716 753 1150
1616 737 1462
1577 731 1905
1541 734 2366
1535 746 2779
1533 758 3203
1833 885 301
1891 1026 564
1963 1179 1005
1900 1222 1366
1805 1212 1678
1765 1211 2103
1754 1220 2531
1748 1225 2946
1748 1231 3360
1849 1235 339
1904 1376 588
1970 1524 1012
2042 1677 1542
2002 1723 1913
1964 1719 2313
1954 1735 2730
1946 1744 3140
1942 1748 3539
1868 1603 393
1924 1742 633
1990 1882 1042
2059 2020 1559
2147 2154 2071
2125 2159 2454
2119 2191 2895
2128 2221 3319
2131 2231 3716
1905 2025 475
1965 2145 711
2040 2295 1120
2113 2413 1633
2198 2535 2131
2212 2491 2432
2203 2497 2824
2214 2544 3271
2238 2590 3711
1968 2440 586
2023 2545 819
2097 2696 1219
2183 2818 1722
2276 2931 2204
2286 2878 2493
2274 2816 2782
2292 2840 3187
2314 2888 3632
2041 2857 713
2087 2952 940
2172 3099 1334
2268 3231 1824
2362 3328 2284
2369 3269 2566
2354 3208 2841
2346 3144 3140
2387 3179 3554
2171 3309 966
2200 3348 1203
2224 3386 1442
2338 3478 1852
2442 3603 2322
2497 3594 2654
2522 3563 2946
2543 3538 3251
2591 3512 3580
2276 449 361
2281 501 570
2154 466 778
2042 450 1032
1938 430 1318
1839 399 1646
1779 397 2100
1736 404 2547
1704 419 2997
2279 673 370
2335 791 614
2299 844 922
2186 844 1199
2085 829 1490
1984 811 1820
1933 807 2258
1901 810 2698
1869 812 3137
2283 949 387
2336 1095 624
2400 1241 1034
2349 1302 1400
2242 1295 1705
2151 1277 2022
2107 1279 2439
2085 1282 2866
2074 1290 3291
2291 1287 417
2342 1428 647
2399 1575 1039
2458 1731 1556
2415 1783 1932
2325 1773 2231
2288 1772 2640
2269 1788 3059
2259 1797 3467
2303 1637 462
2347 1771 679
2402 1915 1058
2466 2053 1562
2537 2193 2077
2509 2243 2443
2472 2245 2848
2455 2261 3250
2456 2275 3647
2317 2008 519
2361 2133 736
2428 2283 1103
2486 2399 1593
2557 2533 2096
2644 2673 2590
2629 2672 2966
2621 2704 3384
2644 2745 3806
2350 2405 606
2394 2513 814
2461 2664 1181
2530 2794 1668
2611 2921 2162
2705 3046 2648
2714 3002 2947
2700 2998 3312
2721 3045 3745
2394 2809 705
2439 2912 923
2518 3060 1287
2600 3201 1766
2683 3312 2241
2779 3422 2717
2786 3375 3007
2773 3318 3287
2789 3332 3669
2510 3268 916
2536 3318 1157
2564 3365 1410
2660 3455 1801
2752 3579 2278
2864 3708 2761
2932 3715 3106
2963 3698 3394
2999 3665 3711
2722 561 457
2759 655 674
2631 585 856
2519 569 1097
2417 547 1369
2317 523 1676
2211 490 2019
2158 484 2448
2112 497 2894
2718 773 459
2764 888 680
2753 948 982
2644 943 1248
2544 929 1534
2446 913 1846
2344 890 2178
2294 887 2596
2254 894 3033
2714 1035 474
2766 1170 690
2824 1314 1066
2789 1385 1444
2684 1382 1742
2587 1371 2046
2495 1351 2358
2450 1353 2764
2414 1356 3206
2724 1355 498
2765 1493 709
2822 1636 1071
2883 1790 1572
2847 1849 1965
2745 1844 2253
2657 1826 2553
2616 1833 2958
2586 1839 3385
2726 1692 537
2769 1822 738
2826 1966 1090
2891 2104 1580
2955 2245 2095
2923 2300 2462
2833 2291 2756
2799 2291 3155
2777 2310 3569
2737 2039 582
2780 2157 787
2839 2301 1123
2901 2431 1595
2963 2568 2098
3040 2710 2591
3026 2767 2975
2989 2775 3356
2975 2791 3756
2758 2391 647
2796 2501 847
2862 2652 1178
2920 2784 1638
2983 2907 2124
3059 3043 2613
3147 3179 3102
3133 3177 3452
3118 3204 3855
2786 2778 730
2826 2885 927
2892 3033 1262
2961 3177 1718
3032 3288 2191
3114 3416 2676
3205 3536 3159
3211 3497 3441
3192 3487 3790
2889 3248 923
2919 3310 1173
2953 3367 1455
2993 3432 1762
3068 3556 2228
3169 3684 2709
3283 3813 3192
3345 3822 3531
3380 3803 3833
3143 674 541
3186 770 745
3076 707 931
2968 693 1169
2870 669 1422
2770 648 1721
2671 614 2044
2565 583 2379
2516 580 2803
3139 878 543
3186 989 751
3194 1059 1050
3083 1047 1302
2983 1038 1585
2884 1024 1884
2789 999 2202
2694 971 2519
2644 970 2938
3139 1127 559
3184 1255 758
3242 1393 1104
3228 1474 1491
3119 1478 1788
3020 1467 2081
2918 1452 2384
2830 1425 2688
2782 1431 3104
3138 1427 579
3185 1563 778
3243 1699 1114
3304 1847 1594
3281 1920 2001
3177 1920 2289
3080 1906 2577
2984 1889 2875
2945 1889 3288
3146 1751 611
3191 1878 804
3245 2019 1131
3311 2156 1599
3372 2298 2111
3351 2365 2495
3245 2359 2779
3156 2337 3070
3120 2349 3472
3155 2085 653
3194 2201 847
3257 2347 1162
3312 2480 1617
3373 2619 2114
3440 2761 2607
3425 2826 2996
3340 2812 3275
3313 2819 3662
3166 2418 710
3208 2523 902
3266 2670 1201
3328 2809 1644
3386 2938 2129
3448 3073 2612
3515 3210 3104
3511 3269 3468
3478 3281 3848
3187 2768 774
3231 2874 977
3287 3023 1271
3347 3170 1702
3402 3279 2164
3465 3404 2638
3532 3535 3123
3611 3655 3582
3599 3654 3922
3289 3265 987
3328 3339 1266
3359 3410 1579
3390 3475 1895
3435 3586 2323
3500 3688 2734
3572 3797 3155
3674 3916 3609
3737 3928 3942
3561 796 633
3614 883 823
3531 840 1015
3425 818 1242
3315 799 1488
3218 777 1771
3124 741 2079
3027 713 2400
2930 683 2726
3572 993 637
3616 1097 826
3640 1175 1121
3538 1165 1369
3425 1156 1640
3329 1137 1931
3229 1116 2233
3132 1091 2544
3032 1059 2862
3564 1228 649
3617 1351 838
3671 1475 1152
3672 1568 1543
3567 1571 1836
3465 1564 2125
3365 1551 2419
3268 1532 2716
3167 1515 3023
3567 1506 661
3612 1636 851
3667 1769 1165
3729 1909 1623
3720 1994 2040
3615 1996 2327
3515 1985 2612
3419 1969 2900
3320 1951 3206
3571 1817 690
3612 1936 884
3664 2075 1184
3731 2209 1626
3790 2356 2133
3774 2436 2530
3673 2433 2813
3583 2419 3097
3480 2402 3389
3579 2137 732
3620 2254 923
3675 2396 1215
3735 2530 1645
3788 2672 2135
3848 2816 2625
3835 2892 3025
3745 2883 3296
3653 2864 3581
3587 2463 778
3624 2570 973
3681 2715 1251
3739 2856 1672
3793 2991 2147
3853 3126 2630
3906 3263 3119
3892 3325 3489
3806 3308 3760
3599 2793 835
3638 2897 1029
3689 3041 1304
3747 3187 1706
3798 3304 2166
3855 3434 2638
3911 3562 3124
3975 3684 3581
3968 3744 3939
3722 3324 1096
3753 3414 1441
3792 3500 1795
3835 3584 2161
3872 3698 2593
3924 3796 2995
3964 3880 3362
4001 3958 3700
4038 4029 4029
