src/luts/House_of_Cards_-_Rec709.3dl
# Created by Benjamin (IWLTBAP) : http://luts.iwltbap.com
# Copyright: (C) Copyright 2016 Triune Films and IWLTBAP
# Blockbuster LUTs Pack
0 256 512 768 1023
0 0 0
115 56 748
180 105 1608
277 228 2470
462 346 3289
223 811 146
240 704 683
407 872 1706
567 1022 2706
756 1136 3595
471 1660 357
473 1543 817
468 1428 1448
683 1652 2518
881 1815 3486
798 2475 599
783 2401 1029
692 2263 1550
683 2167 2254
991 2403 3293
1105 3266 856
1093 3190 1263
1054 3064 1781
970 2961 2352
984 2859 3036
893 145 99
723 151 611
680 149 1462
683 220 2345
780 318 3154
927 791 164
1078 1064 965
1078 1111 1857
1099 1116 2681
1171 1147 3485
1063 1680 358
1243 1921 1121
1251 1783 1739
1341 1882 2677
1445 2002 3616
1350 2610 684
1514 2817 1351
1473 2629 1886
1452 2471 2493
1569 2588 3440
1594 3361 1038
1653 3425 1501
1673 3317 2039
1658 3234 2612
1757 3192 3310
1820 345 267
1670 356 706
1465 311 1289
1366 318 2206
1311 360 3088
1833 885 301
1963 1179 1005
1805 1212 1678
1754 1220 2531
1748 1231 3360
1868 1603 393
1990 1882 1042
2147 2154 2071
2119 2191 2895
2131 2231 3716
1968 2440 586
2097 2696 1219
2276 2931 2204
2274 2816 2782
2314 2888 3632
2171 3309 966
2224 3386 1442
2442 3603 2322
2522 3563 2946
2591 3512 3580
2722 561 457
2631 585 856
2417 547 1369
2211 490 2019
2112 497 2894
2714 1035 474
2824 1314 1066
2684 1382 1742
2495 1351 2358
2414 1356 3206
2726 1692 537
2826 1966 1090
2955 2245 2095
2833 2291 2756
2777 2310 3569
2758 2391 647
2862 2652 1178
2983 2907 2124
3147 3179 3102
3118 3204 3855
2889 3248 923
2953 3367 1455
3068 3556 2228
3283 3813 3192
3380 3803 3833
3561 796 633
3531 840 1015
3315 799 1488
3124 741 2079
2930 683 2726
3564 1228 649
3671 1475 1152
3567 1571 1836
3365 1551 2419
3167 1515 3023
3571 1817 690
3664 2075 1184
3790 2356 2133
3673 2433 2813
3480 2402 3389
3587 2463 778
3681 2715 1251
3793 2991 2147
3906 3263 3119
3806 3308 3760
3722 3324 1096
3792 3500 1795
3872 3698 2593
3964 3880 3362
4038 4029 4029
