src/luts/House_of_Cards_-_Rec709.3dl
# Created by Benjamin (IWLTBAP) : http://luts.iwltbap.com
# Copyright: (C) Copyright 2016 Triune Films and IWLTBAP
# Blockbuster LUTs Pack
0 64 128 192 256 320 384 448 512 576 640 704 768 832 896 960 1023
0 0 0
22 16 170
53 27 360
75 44 557
115 56 748
130 59 957
151 58 1170
174 76 1383
180 105 1608
189 136 1831
213 167 2049
222 200 2271
277 228 2470
319 257 2676
353 286 2878
401 316 3084
462 346 3289
33 186 22
55 175 157
93 197 361
138 240 580
177 272 815
210 285 1040
223 294 1257
237 305 1471
253 316 1686
254 328 1905
274 344 2114
296 361 2329
331 375 2527
365 393 2726
402 407 2928
437 429 3126
482 453 3333
72 387 59
90 377 191
119 351 330
150 376 540
200 422 773
240 452 1021
284 487 1277
310 522 1537
325 554 1789
345 567 2005
372 576 2213
396 589 2422
426 602 2619
449 616 2822
483 630 3015
526 640 3213
567 649 3417
154 603 103
167 582 232
167 555 361
180 531 504
225 559 726
275 605 974
312 641 1226
347 679 1491
370 718 1755
403 755 2012
436 788 2256
478 821 2497
519 842 2713
545 852 2913
577 862 3109
618 879 3304
663 888 3506
223 811 146
223 792 275
228 766 399
231 727 529
240 704 683
294 744 916
339 789 1174
378 832 1438
407 872 1706
439 910 1967
471 949 2217
517 985 2466
567 1022 2706
615 1059 2945
661 1094 3174
713 1125 3392
756 1136 3595
275 1024 194
282 1004 316
296 980 438
285 941 565
289 910 704
296 893 867
356 927 1114
403 983 1377
439 1027 1649
467 1069 1915
507 1106 2169
550 1147 2420
592 1183 2661
652 1221 2901
697 1260 3139
748 1299 3375
811 1340 3608
338 1238 239
351 1215 353
354 1197 479
347 1153 603
349 1118 736
339 1088 880
352 1067 1058
413 1115 1315
467 1173 1587
500 1222 1858
541 1263 2118
589 1304 2373
632 1345 2615
681 1383 2856
729 1423 3096
780 1460 3333
840 1499 3567
409 1448 295
403 1429 404
419 1406 524
423 1368 650
410 1327 772
393 1298 911
393 1266 1064
407 1249 1247
478 1300 1522
527 1359 1798
571 1411 2065
609 1458 2323
665 1499 2567
714 1541 2810
761 1579 3053
805 1620 3288
858 1660 3525
471 1660 357
471 1639 457
479 1621 573
490 1594 700
473 1543 817
462 1506 949
456 1474 1095
448 1445 1252
468 1428 1448
536 1488 1730
588 1550 2003
638 1603 2271
683 1652 2518
739 1692 2762
788 1739 3005
838 1775 3244
881 1815 3486
541 1869 416
540 1847 508
541 1829 618
561 1807 747
542 1762 867
530 1720 992
513 1687 1131
504 1658 1283
497 1625 1446
518 1610 1652
592 1676 1938
662 1743 2209
718 1795 2464
766 1843 2710
816 1887 2956
859 1929 3196
911 1970 3443
615 2080 472
616 2052 564
617 2034 672
630 2016 799
624 1986 921
600 1937 1040
584 1902 1172
564 1872 1318
549 1843 1477
531 1814 1646
564 1797 1857
650 1864 2147
719 1933 2404
790 1982 2655
844 2037 2904
889 2075 3148
947 2113 3395
710 2276 535
703 2257 632
698 2242 726
704 2222 852
708 2206 981
685 2153 1095
663 2114 1221
635 2089 1359
614 2061 1510
593 2032 1673
579 1999 1845
625 1987 2062
718 2056 2338
796 2120 2594
867 2174 2849
917 2223 3094
972 2265 3347
798 2475 599
781 2450 685
776 2436 782
780 2417 902
783 2401 1029
773 2366 1152
745 2317 1272
719 2286 1404
692 2263 1550
666 2237 1706
645 2207 1870
632 2169 2046
683 2167 2254
797 2238 2529
869 2301 2787
934 2353 3038
991 2403 3293
866 2677 659
864 2647 739
860 2629 839
855 2614 954
867 2594 1080
866 2574 1213
835 2521 1326
809 2487 1454
783 2457 1592
755 2429 1740
722 2408 1899
704 2376 2066
691 2343 2234
760 2336 2445
872 2414 2721
945 2477 2981
998 2536 3239
950 2871 718
941 2845 804
935 2830 896
935 2810 1010
938 2790 1132
947 2773 1268
929 2728 1389
893 2687 1510
866 2656 1642
839 2627 1783
812 2601 1932
785 2573 2096
763 2546 2257
752 2513 2420
834 2513 2631
940 2591 2912
1015 2652 3180
1030 3066 785
1014 3046 865
1009 3028 954
1009 3010 1069
1016 2991 1191
1018 2975 1323
1021 2942 1454
982 2889 1567
952 2853 1691
925 2822 1826
895 2791 1973
864 2765 2123
846 2741 2281
825 2717 2442
826 2678 2601
899 2685 2825
1011 2767 3111
1105 3266 856
1088 3251 931
1083 3228 1024
1088 3205 1136
1093 3190 1263
1102 3172 1403
1119 3156 1550
1096 3103 1663
1054 3064 1781
1029 3034 1910
1009 3008 2053
991 2984 2203
970 2961 2352
946 2934 2512
945 2897 2674
949 2874 2841
984 2859 3036
212 28 23
176 35 138
182 37 319
194 49 511
215 57 704
227 60 912
233 58 1123
257 70 1339
267 96 1561
263 127 1787
283 158 2007
291 190 2231
346 220 2434
388 249 2637
431 277 2839
473 308 3046
512 337 3255
233 197 37
285 261 221
278 277 407
304 289 603
316 290 799
327 291 1005
341 293 1220
350 303 1434
365 313 1653
360 330 1871
376 342 2086
391 360 2304
417 373 2503
454 389 2701
490 404 2903
523 427 3103
559 450 3311
270 409 74
318 467 255
321 440 395
343 458 589
376 485 821
397 504 1061
413 539 1314
436 551 1544
452 562 1762
456 570 1977
479 580 2186
506 592 2397
532 603 2594
552 617 2795
575 630 2993
619 640 3192
655 648 3395
322 629 130
365 684 295
367 643 427
377 613 567
405 633 773
435 663 1016
463 696 1270
488 729 1531
509 763 1793
536 795 2040
559 824 2274
593 836 2488
622 844 2689
647 857 2888
672 867 3086
707 881 3281
752 890 3483
377 851 182
414 904 335
416 870 464
421 819 591
434 788 745
459 813 964
491 844 1221
523 885 1479
548 920 1742
575 955 2000
608 992 2249
647 1028 2495
693 1062 2733
739 1090 2961
777 1117 3180
806 1126 3372
851 1138 3575
431 1064 221
470 1116 375
472 1088 501
473 1047 632
464 1003 764
485 975 930
525 993 1161
558 1034 1424
584 1076 1691
607 1112 1952
640 1148 2201
682 1185 2449
724 1224 2689
784 1261 2930
823 1297 3166
879 1338 3398
927 1372 3628
482 1272 273
520 1329 423
523 1301 542
524 1256 668
525 1219 800
517 1179 942
533 1150 1118
576 1178 1364
615 1222 1632
645 1267 1895
680 1306 2152
726 1346 2404
763 1386 2644
814 1423 2884
858 1462 3123
906 1499 3357
960 1537 3593
535 1484 325
577 1541 467
582 1509 585
587 1468 712
580 1427 840
574 1396 975
560 1361 1123
586 1328 1309
632 1364 1568
669 1412 1839
709 1458 2098
751 1501 2355
801 1541 2596
845 1582 2839
887 1617 3081
932 1660 3313
989 1695 3551
595 1694 379
632 1752 519
638 1720 633
639 1688 756
636 1641 880
628 1604 1015
618 1573 1155
605 1537 1309
634 1510 1508
690 1547 1776
727 1600 2044
772 1649 2304
824 1694 2548
872 1733 2791
917 1777 3033
965 1812 3271
1001 1852 3509
666 1902 436
702 1953 567
698 1928 680
706 1898 803
697 1854 925
684 1815 1054
672 1783 1192
658 1752 1341
643 1717 1503
681 1695 1711
743 1731 1980
803 1788 2246
854 1838 2494
899 1883 2742
954 1925 2985
991 1966 3224
1037 2006 3469
744 2106 494
776 2157 625
780 2130 733
778 2105 856
772 2069 976
756 2024 1101
740 1992 1232
723 1962 1378
700 1936 1532
684 1903 1698
731 1878 1913
809 1919 2186
866 1978 2439
929 2024 2686
972 2075 2933
1020 2111 3175
1070 2149 3420
818 2305 559
860 2351 684
856 2327 785
853 2303 903
849 2279 1029
832 2231 1150
816 2193 1280
791 2167 1418
770 2143 1566
747 2115 1725
732 2082 1893
789 2061 2115
874 2105 2376
938 2163 2629
1005 2213 2877
1046 2260 3124
1097 2300 3372
902 2499 615
941 2545 740
932 2524 839
931 2496 952
924 2472 1077
913 2435 1201
894 2393 1327
870 2360 1461
846 2334 1604
819 2312 1756
794 2284 1916
781 2245 2086
851 2240 2305
941 2284 2567
1012 2341 2821
1066 2391 3069
1118 2439 3321
987 2694 680
1011 2743 800
1007 2718 896
1000 2692 1006
1001 2665 1127
995 2638 1254
974 2592 1379
952 2559 1508
929 2528 1644
903 2500 1790
872 2477 1944
849 2449 2108
837 2416 2275
923 2408 2493
1013 2458 2756
1076 2516 3013
1126 2572 3269
1054 2893 738
1091 2938 860
1078 2917 953
1076 2889 1062
1066 2863 1179
1072 2836 1310
1056 2792 1434
1029 2754 1559
1006 2723 1691
979 2693 1830
958 2666 1976
931 2640 2136
907 2614 2293
900 2581 2456
991 2579 2683
1079 2632 2948
1141 2691 3215
1125 3087 799
1153 3130 919
1148 3113 1012
1146 3086 1121
1141 3058 1238
1138 3037 1364
1140 3005 1496
1114 2953 1612
1080 2921 1741
1060 2891 1873
1036 2862 2018
1006 2836 2166
985 2811 2317
960 2783 2477
958 2745 2638
1057 2752 2871
1143 2806 3147
1204 3286 876
1211 3304 974
1213 3289 1073
1226 3266 1191
1226 3252 1320
1246 3232 1460
1260 3216 1612
1230 3168 1727
1200 3131 1844
1178 3103 1976
1164 3077 2116
1145 3052 2266
1137 3025 2416
1114 3002 2575
1120 2972 2736
1131 2946 2903
1169 2939 3099
449 63 50
401 71 166
355 68 296
351 70 478
359 80 670
371 86 882
377 76 1087
383 75 1297
393 91 1514
385 117 1734
395 149 1959
390 182 2186
423 212 2395
461 240 2599
495 269 2801
540 299 3010
578 330 3223
450 224 60
489 293 241
466 307 390
457 307 570
461 315 762
463 316 969
472 307 1183
476 307 1396
478 318 1615
476 327 1836
493 339 2055
499 358 2274
524 372 2475
549 387 2674
575 404 2877
616 425 3077
647 449 3283
469 399 78
500 468 248
538 531 458
547 536 646
556 549 856
559 555 1066
558 557 1287
566 555 1501
573 564 1721
582 573 1941
591 583 2153
610 592 2367
637 601 2567
655 617 2768
679 629 2970
706 640 3165
748 647 3365
490 606 113
523 673 276
575 738 490
583 708 643
598 718 832
617 741 1065
635 765 1320
646 785 1574
657 809 1821
672 822 2043
686 833 2250
704 841 2459
729 849 2661
751 861 2861
773 872 3059
811 885 3257
848 895 3456
535 828 169
564 885 314
618 950 526
627 909 667
640 880 817
650 892 1021
671 920 1273
689 946 1532
706 978 1790
724 1009 2040
760 1043 2286
796 1070 2523
826 1097 2751
856 1109 2954
880 1121 3155
917 1130 3346
955 1143 3544
590 1065 223
615 1115 358
674 1183 567
668 1135 706
671 1089 845
691 1057 1001
711 1074 1218
734 1106 1476
746 1136 1738
765 1169 1995
798 1202 2240
834 1236 2487
871 1274 2723
924 1308 2960
965 1341 3196
1006 1376 3416
1047 1399 3631
646 1308 291
669 1348 410
725 1418 619
724 1371 751
728 1315 883
725 1265 1021
732 1237 1188
762 1257 1418
786 1292 1683
806 1324 1940
840 1360 2191
876 1397 2441
910 1434 2680
957 1471 2920
994 1506 3154
1046 1546 3386
1095 1585 3625
701 1523 351
723 1562 466
779 1640 666
785 1604 800
785 1553 932
781 1498 1063
772 1445 1206
785 1415 1383
815 1438 1624
838 1475 1886
870 1514 2139
907 1553 2391
942 1590 2632
985 1629 2872
1027 1663 3112
1072 1705 3345
1126 1741 3586
756 1734 401
776 1770 513
838 1845 714
845 1820 845
840 1773 974
838 1732 1109
826 1686 1246
804 1627 1394
825 1598 1583
866 1623 1827
897 1662 2088
941 1702 2341
979 1744 2584
1019 1781 2825
1059 1821 3066
1100 1857 3303
1144 1897 3540
812 1939 455
838 1973 566
902 2043 756
907 2023 891
902 1980 1020
897 1941 1154
886 1908 1292
872 1871 1435
848 1809 1588
875 1782 1781
921 1807 2027
961 1846 2289
1007 1890 2532
1052 1932 2777
1096 1969 3018
1128 2008 3256
1170 2049 3499
887 2142 519
913 2176 628
971 2249 809
981 2229 943
976 2192 1066
966 2145 1200
952 2116 1337
942 2090 1479
918 2056 1627
887 1995 1783
924 1964 1979
986 1991 2230
1027 2030 2480
1076 2072 2723
1115 2120 2968
1161 2154 3209
1205 2192 3451
968 2340 581
989 2372 686
1052 2442 866
1052 2422 991
1053 2396 1120
1037 2347 1247
1023 2308 1381
1005 2283 1519
995 2260 1665
966 2231 1818
942 2173 1976
988 2141 2179
1052 2169 2420
1099 2214 2670
1141 2257 2916
1183 2301 3159
1228 2340 3403
1036 2536 635
1058 2567 740
1116 2641 920
1120 2616 1041
1120 2591 1168
1115 2553 1298
1096 2506 1430
1081 2473 1561
1065 2450 1703
1040 2426 1851
1025 2399 2008
993 2338 2166
1045 2318 2367
1120 2344 2608
1165 2389 2861
1211 2435 3106
1250 2482 3357
1104 2732 697
1130 2763 801
1190 2833 976
1186 2812 1096
1185 2783 1218
1187 2751 1348
1167 2705 1479
1149 2670 1609
1129 2643 1747
1111 2616 1888
1094 2591 2037
1073 2565 2193
1046 2507 2348
1110 2484 2552
1181 2519 2798
1226 2564 3050
1271 2611 3304
1179 2929 760
1197 2956 863
1251 3025 1033
1254 3002 1154
1248 2977 1273
1248 2950 1403
1239 2905 1532
1219 2867 1659
1199 2837 1790
1179 2809 1927
1159 2783 2072
1144 2758 2222
1116 2730 2375
1099 2673 2528
1169 2653 2737
1235 2690 2990
1278 2738 3249
1252 3124 823
1266 3153 925
1318 3223 1098
1318 3198 1212
1309 3177 1328
1315 3147 1453
1309 3114 1585
1288 3071 1710
1266 3038 1835
1244 3010 1968
1227 2983 2107
1205 2955 2255
1188 2925 2400
1161 2896 2552
1153 2839 2708
1226 2826 2924
1287 2860 3188
1312 3313 915
1327 3329 1018
1342 3342 1123
1353 3322 1247
1366 3309 1380
1381 3289 1524
1398 3277 1674
1379 3228 1790
1357 3190 1911
1336 3162 2046
1327 3139 2184
1312 3117 2332
1309 3091 2481
1301 3070 2636
1288 3048 2797
1319 3024 2970
1353 3019 3167
667 103 77
634 121 195
580 120 313
538 107 450
526 106 637
521 115 851
528 110 1059
525 108 1271
533 117 1490
524 138 1709
531 156 1930
533 183 2152
546 209 2361
563 234 2560
603 261 2756
632 290 2963
675 322 3181
676 261 87
704 321 251
680 342 402
634 340 541
620 338 723
621 342 935
626 336 1149
622 337 1363
621 338 1586
606 346 1806
616 347 2022
622 358 2238
638 371 2442
661 385 2642
679 407 2844
708 423 3045
