src/luts/Indiana_Jones_-_Rec709.3dl
# Created by Benjamin (IWLTBAP) : http://luts.iwltbap.com
# Copyright: (C) Copyright 2016 Triune Films and IWLTBAP
# Blockbuster LUTs Pack
0 256 512 768 1023
34 51 40
105 106 429
181 143 886
276 151 1220
335 126 1463
46 449 81
104 482 454
238 598 1006
360 684 1486
457 721 1860
107 1025 157
163 1054 614
310 1147 1205
430 1241 1673
561 1394 2167
192 1648 219
224 1613 683
399 1796 1452
514 1859 1902
622 1931 2336
269 2311 252
273 2230 696
454 2386 1557
618 2541 2189
717 2570 2567
673 128 84
523 104 459
483 131 946
520 154 1341
548 140 1537
549 568 66
803 869 813
780 1047 1640
817 1092 2192
872 1152 2599
590 1167 90
754 1487 737
754 1627 1588
814 1769 2169
916 1908 2693
769 1812 73
887 2045 578
765 2285 1756
819 2233 2207
938 2377 2737
945 2425 80
1052 2651 560
764 2879 1758
917 2987 2487
995 2928 2866
1817 294 141
1594 221 575
1393 149 943
1492 202 1573
1273 221 1917
1605 758 124
2152 1180 951
2259 1018 1593
2052 721 2069
1773 738 2460
1700 1350 106
1895 1537 503
2221 2146 1950
2128 2304 2573
2014 2479 3088
1669 1897 69
1817 2053 339
2019 2724 1959
1976 2808 2565
1900 2938 3112
1714 2475 81
1914 2636 213
1754 3308 2082
1774 3434 2741
1831 3461 3207
2686 424 206
2523 349 678
2365 285 1091
2426 298 1568
2521 292 1980
2460 977 156
2910 1340 974
2994 1235 1658
2863 785 1952
2853 714 2353
2435 1485 105
2637 1769 626
3067 2356 1990
3141 2317 2539
3137 2363 3076
2358 2016 78
2521 2198 329
2851 2716 1632
3191 3154 2787
3314 3349 3343
2289 2598 86
2454 2766 113
2738 3259 1480
3188 3711 2960
3222 3768 3401
3229 497 259
3005 403 759
2814 339 1156
2791 317 1606
2842 307 1982
3099 1157 200
3445 1467 996
3533 1440 1728
3412 1053 2106
3322 914 2446
2980 1618 102
3255 1917 628
3621 2446 1960
3697 2491 2575
3710 2521 3060
2877 2126 85
3111 2315 357
3466 2816 1586
3771 3243 2823
3821 3365 3341
2786 2672 91
2997 2893 123
3334 3311 1507
3705 3679 2716
3922 3881 3468
