src/luts/Indiana_Jones_-_Rec709.3dl
# Created by Benjamin (IWLTBAP) : http://luts.iwltbap.com
# Copyright: (C) Copyright 2016 Triune Films and IWLTBAP
# Blockbuster LUTs Pack
0 64 128 192 256 320 384 448 512 576 640 704 768 832 896 960 1023
34 51 40
42 57 109
58 69 200
82 84 308
105 106 429
111 123 560
114 134 680
143 141 793
181 143 886
210 148 977
230 150 1055
254 150 1135
276 151 1220
292 146 1288
308 136 1348
318 128 1400
335 126 1463
41 138 51
45 138 114
61 149 199
79 171 311
108 193 421
122 229 560
129 250 690
154 258 808
190 259 913
227 265 1021
258 269 1119
280 274 1209
297 271 1284
311 260 1346
330 258 1422
347 247 1479
363 255 1556
44 232 61
52 232 127
62 237 205
78 261 318
104 285 428
129 326 575
152 353 725
182 367 853
217 376 967
252 389 1083
279 407 1194
305 427 1304
331 435 1400
350 435 1480
366 428 1550
378 413 1601
394 404 1663
51 335 71
61 334 139
68 346 231
80 353 327
99 378 436
139 419 581
163 451 733
191 469 864
228 489 990
265 513 1117
290 528 1228
317 542 1334
346 559 1450
378 577 1567
402 578 1655
412 560 1705
425 549 1760
46 449 81
61 448 153
60 463 250
72 470 350
104 482 454
145 517 594
171 551 740
199 574 874
238 598 1006
277 629 1141
304 651 1258
329 665 1368
360 684 1486
394 704 1609
421 724 1717
443 734 1801
457 721 1860
56 583 96
60 580 171
72 589 271
88 603 385
123 621 511
155 639 634
184 665 769
213 689 902
255 723 1047
290 755 1182
317 775 1298
346 793 1412
379 818 1534
409 844 1651
436 868 1759
461 890 1853
484 906 1942
80 733 118
84 732 202
90 730 303
109 740 413
139 774 571
165 785 695
194 795 813
234 824 949
272 856 1095
307 887 1233
335 905 1349
364 922 1461
397 951 1582
429 994 1705
458 1027 1818
482 1049 1918
507 1069 2017
95 873 134
97 872 224
106 864 318
124 871 431
152 915 599
191 947 757
224 960 877
255 975 1009
290 997 1148
322 1017 1276
354 1042 1401
383 1061 1511
414 1098 1631
445 1137 1753
477 1173 1871
507 1208 1988
533 1229 2092
107 1025 157
109 1023 248
113 1023 343
131 1018 454
163 1054 614
218 1103 804
257 1127 953
283 1136 1084
310 1147 1205
339 1163 1323
371 1188 1442
401 1214 1558
430 1241 1673
460 1268 1787
491 1304 1908
527 1358 2046
561 1394 2167
126 1182 190
129 1183 278
130 1189 378
143 1176 485
172 1198 630
229 1249 829
278 1298 1025
304 1304 1156
331 1311 1269
357 1323 1377
388 1345 1492
420 1371 1610
451 1396 1727
479 1415 1837
506 1439 1950
545 1496 2090
584 1543 2223
147 1348 205
149 1350 295
155 1354 393
164 1331 512
190 1343 647
239 1392 840
288 1446 1039
322 1468 1215
352 1477 1332
381 1492 1444
411 1507 1554
441 1527 1668
470 1546 1780
496 1559 1886
524 1581 1998
561 1626 2128
599 1673 2262
170 1498 209
171 1499 304
175 1502 399
184 1487 532
209 1481 671
250 1524 846
297 1588 1046
337 1621 1241
376 1640 1400
408 1658 1518
436 1673 1626
462 1685 1732
491 1701 1840
517 1711 1944
545 1726 2050
576 1754 2166
610 1801 2299
192 1648 219
190 1649 319
193 1649 410
201 1639 539
224 1613 683
257 1662 856
308 1737 1065
354 1781 1272
399 1796 1452
435 1822 1591
463 1837 1700
490 1851 1804
514 1859 1902
539 1868 2005
564 1880 2108
592 1899 2216
622 1931 2336
208 1803 223
214 1796 329
212 1791 424
216 1784 532
237 1758 683
266 1803 874
322 1890 1102
377 1944 1324
418 1959 1498
458 1988 1652
491 2014 1775
518 2025 1878
541 2031 1973
563 2033 2064
586 2041 2166
612 2057 2270
639 2071 2378
228 1968 230
232 1951 336
230 1944 444
230 1930 541
252 1916 692
277 1937 889
329 2015 1112
395 2097 1359
437 2121 1541
478 2148 1698
516 2179 1838
545 2197 1948
568 2202 2043
591 2207 2138
611 2207 2227
636 2219 2331
663 2230 2432
250 2136 246
252 2129 349
255 2122 451
250 2102 564
254 2058 678
284 2048 855
321 2106 1064
395 2206 1340
454 2271 1582
498 2298 1745
535 2330 1885
569 2360 2014
595 2375 2124
617 2380 2221
641 2384 2311
663 2385 2397
690 2396 2497
269 2311 252
271 2305 360
277 2300 453
275 2281 570
273 2230 696
288 2184 816
322 2209 1019
385 2296 1277
454 2386 1557
513 2452 1786
549 2482 1927
583 2512 2061
618 2541 2189
645 2555 2296
669 2559 2385
694 2562 2476
717 2570 2567
118 65 45
126 61 116
138 66 205
150 79 311
173 99 453
178 103 564
190 109 684
217 116 788
235 130 878
257 139 968
278 139 1043
293 142 1115
309 141 1188
325 133 1251
337 124 1309
344 115 1359
360 112 1429
118 149 49
136 160 128
158 172 228
177 197 358
196 231 517
201 251 676
243 277 835
280 290 967
300 296 1065
320 303 1158
345 311 1265
362 310 1342
367 294 1374
375 284 1414
395 285 1500
420 288 1605
453 317 1722
123 243 58
142 259 139
154 268 236
168 292 351
200 337 501
214 377 670
239 404 830
278 433 972
308 443 1079
329 450 1174
352 464 1282
377 478 1391
397 483 1479
409 469 1532
425 464 1607
441 453 1672
463 463 1764
123 348 69
135 374 149
145 378 252
158 394 362
195 438 506
230 494 689
255 537 858
294 574 1012
327 598 1141
356 621 1264
383 636 1379
409 649 1491
436 659 1600
459 667 1696
477 666 1771
487 642 1821
508 652 1903
121 468 77
134 502 165
140 499 269
158 517 390
200 547 528
234 598 696
264 645 865
304 691 1030
336 718 1166
367 744 1296
398 772 1423
428 791 1539
452 805 1645
475 820 1742
497 838 1836
519 849 1923
541 862 2009
135 608 96
155 651 189
156 635 298
175 662 432
206 690 576
237 711 718
273 754 876
311 800 1041
345 834 1188
378 860 1321
408 888 1447
439 920 1570
469 957 1688
491 973 1788
513 989 1882
538 1010 1983
566 1032 2084
162 759 115
174 802 203
178 779 315
197 803 460
223 846 625
258 867 771
288 888 910
321 919 1064
353 948 1207
388 978 1346
418 1014 1474
450 1051 1596
480 1088 1716
507 1121 1830
532 1143 1936
556 1160 2037
587 1190 2146
180 914 133
191 951 226
192 946 329
207 952 478
241 1004 659
287 1042 834
316 1058 982
341 1069 1117
369 1087 1248
401 1117 1380
435 1163 1516
468 1199 1641
497 1230 1757
521 1252 1863
549 1287 1983
582 1320 2102
611 1349 2210
196 1067 158
208 1111 249
209 1118 362
216 1116 494
250 1149 673
307 1207 894
339 1236 1062
360 1237 1184
384 1240 1295
414 1263 1418
449 1304 1551
483 1342 1681
510 1361 1789
533 1375 1891
562 1412 2014
604 1472 2158
636 1503 2272
215 1227 172
228 1275 262
233 1295 385
238 1298 502
264 1291 685
314 1346 905
355 1402 1117
377 1403 1243
402 1403 1349
430 1409 1459
461 1438 1583
493 1467 1707
520 1486 1817
543 1500 1920
577 1537 2044
617 1595 2188
650 1636 2315
234 1382 181
247 1426 270
252 1445 395
257 1451 520
273 1421 677
315 1462 887
365 1540 1118
400 1566 1299
425 1567 1414
454 1575 1527
480 1587 1636
508 1605 1748
533 1615 1849
556 1626 1950
588 1658 2072
625 1711 2213
659 1754 2342
253 1542 190
257 1584 281
268 1588 398
276 1595 532
287 1576 676
316 1592 874
370 1674 1113
416 1722 1327
451 1731 1479
477 1739 1596
505 1749 1706
530 1762 1811
554 1768 1909
575 1773 2003
604 1795 2115
636 1833 2243
668 1877 2370
266 1702 196
272 1741 290
283 1736 395
294 1737 535
303 1736 684
325 1749 892
381 1827 1134
434 1887 1363
472 1897 1531
504 1911 1664
531 1920 1776
556 1929 1876
578 1931 1970
598 1933 2064
623 1950 2172
652 1977 2289
682 2004 2403
283 1861 198
288 1895 292
299 1888 403
310 1882 525
323 1893 700
342 1901 916
392 1978 1156
452 2049 1394
490 2065 1569
528 2082 1721
558 2092 1843
582 2097 1941
604 2101 2036
622 2101 2127
646 2113 2232
673 2128 2338
698 2136 2439
302 2017 191
311 2055 285
315 2049 406
325 2038 522
335 2047 688
354 2044 906
400 2106 1154
466 2190 1410
510 2225 1607
546 2241 1763
580 2255 1900
607 2265 2010
630 2269 2108
650 2272 2203
670 2270 2291
695 2282 2393
719 2288 2488
320 2172 190
397 2234 268
333 2226 403
342 2206 528
346 2196 646
361 2195 856
402 2222 1119
470 2309 1393
523 2377 1640
563 2398 1808
596 2412 1948
629 2428 2079
656 2444 2192
677 2446 2284
700 2446 2371
722 2448 2459
746 2454 2553
358 2355 181
444 2408 262
401 2408 396
354 2389 544
362 2373 658
370 2353 814
408 2354 1078
467 2430 1360
529 2515 1642
580 2571 1857
616 2584 2005
650 2596 2141
681 2615 2259
705 2620 2353
726 2619 2441
749 2622 2529
773 2634 2624
237 84 54
231 82 128
229 75 213
237 83 319
257 104 470
259 114 585
265 110 689
280 111 795
303 116 888
322 124 976
332 136 1050
348 140 1123
361 143 1193
377 138 1260
388 134 1322
396 126 1376
413 121 1446
229 168 58
254 183 135
248 177 239
261 197 386
272 219 557
291 226 724
326 252 887
349 268 1012
366 273 1112
386 280 1207
401 291 1284
415 290 1353
416 275 1376
419 261 1409
438 263 1490
460 268 1586
487 287 1696
221 262 58
235 287 135
268 309 266
289 343 408
314 393 608
320 428 810
366 458 1012
404 485 1198
428 498 1314
447 503 1415
468 503 1516
494 507 1624
520 511 1726
531 500 1780
542 492 1836
550 483 1879
580 512 1996
214 377 67
221 404 145
269 434 284
267 452 410
304 509 588
326 561 787
361 612 986
397 647 1163
424 670 1298
450 696 1417
473 705 1519
495 710 1621
518 721 1727
539 725 1819
554 724 1886
561 703 1930
596 744 2061
210 506 76
219 535 161
244 566 294
259 579 435
301 631 610
338 687 797
366 753 989
402 809 1172
433 834 1312
464 868 1448
498 911 1584
530 936 1708
549 940 1807
567 941 1898
585 950 1982
604 955 2064
629 973 2162
224 647 93
247 679 181
262 712 311
284 725 468
312 778 649
343 816 816
370 875 1003
409 937 1187
445 983 1339
477 1018 1478
512 1057 1616
546 1095 1747
571 1122 1861
590 1129 1957
608 1133 2044
627 1132 2131
660 1172 2247
253 794 107
264 834 190
275 880 324
288 885 498
321 943 691
359 978 860
381 999 1020
415 1058 1199
451 1101 1348
486 1147 1497
522 1188 1639
555 1225 1768
582 1255 1886
606 1275 1994
630 1295 2098
647 1288 2182
682 1338 2307
262 958 122
270 993 210
287 1052 332
297 1051 500
329 1100 724
379 1151 922
399 1170 1079
424 1183 1221
457 1218 1361
491 1262 1505
528 1308 1652
561 1341 1783
587 1364 1899
611 1383 2005
643 1428 2130
669 1448 2235
701 1494 2355
274 1111 137
288 1143 228
313 1214 334
318 1228 492
340 1244 728
393 1316 978
418 1342 1144
443 1348 1276
468 1355 1394
499 1387 1527
533 1423 1665
567 1456 1798
593 1475 1913
618 1495 2021
651 1545 2150
684 1590 2277
711 1618 2383
298 1258 147
317 1300 242
329 1370 345
330 1390 485
351 1384 704
398 1445 974
437 1502 1193
465 1515 1334
489 1517 1449
513 1523 1562
544 1552 1693
574 1577 1819
603 1597 1937
629 1619 2047
661 1664 2174
694 1711 2304
725 1744 2419
323 1413 158
334 1456 250
356 1517 354
342 1530 493
358 1535 677
399 1562 942
444 1630 1188
485 1676 1379
509 1678 1507
531 1680 1615
557 1688 1729
586 1707 1848
613 1722 1959
639 1743 2069
671 1781 2197
704 1827 2325
734 1864 2445
336 1588 171
377 1625 256
394 1664 357
356 1673 505
373 1687 667
400 1700 916
448 1758 1173
499 1827 1402
534 1845 1564
555 1846 1676
580 1848 1784
602 1845 1884
627 1857 1989
650 1872 2095
681 1906 2221
714 1945 2349
746 1981 2470
376 1750 169
408 1781 258
430 1816 351
374 1827 505
391 1850 690
412 1862 914
452 1901 1172
511 1978 1416
556 2017 1613
583 2022 1744
606 2021 1851
626 2012 1942
646 2008 2035
668 2017 2134
693 2041 2251
725 2068 2374
758 2103 2498
394 1902 164
444 1933 258
510 1968 349
396 1981 502
409 2013 703
425 2030 916
460 2059 1171
519 2133 1419
575 2188 1644
608 2206 1810
632 2198 1921
652 2185 2012
672 2178 2102
692 2179 2196
714 2193 2303
744 2211 2415
775 2236 2534
440 2054 153
537 2098 241
609 2140 331
455 2131 470
419 2149 664
436 2181 873
468 2203 1151
528 2276 1431
586 2340 1673
623 2366 1849
654 2371 1987
678 2362 2094
697 2349 2182
717 2347 2272
738 2348 2361
767 2366 2471
797 2392 2585
489 2212 139
657 2277 202
720 2314 310
524 2301 465
440 2293 605
444 2326 830
474 2356 1112
532 2412 1421
594 2489 1690
635 2531 1879
667 2536 2026
700 2539 2159
726 2538 2269
746 2534 2356
767 2531 2443
788 2530 2531
814 2548 2634
561 2390 107
725 2447 191
745 2480 323
546 2470 487
464 2471 648
458 2489 836
491 2520 1111
548 2562 1439
599 2633 1694
646 2689 1915
689 2709 2081
723 2715 2223
751 2729 2334
776 2734 2433
796 2731 2521
814 2718 2603
833 2714 2691
408 97 49
407 95 119
381 91 233
355 88 328
370 101 457
365 114 581
356 117 694
363 115 812
386 121 932
401 131 1033
412 134 1105
420 137 1163
427 141 1220
438 137 1279
448 136 1340
457 133 1398
471 133 1468
389 185 48
469 212 129
461 202 253
438 195 403
447 210 572
438 223 725
430 236 879
427 250 1007
431 258 1117
451 261 1222
465 269 1307
473 273 1368
474 267 1398
478 254 1430
496 257 1514
517 269 1612
