src/luts/Indiana_Jones_-_Rec709.3dl
# Created by Benjamin (IWLTBAP) : http://luts.iwltbap.com
# Copyright: (C) Copyright 2016 Triune Films and IWLTBAP
# Blockbuster LUTs Pack
0 128 256 384 512 640 768 896 1023
34 51 40
58 69 200
105 106 429
114 134 680
181 143 886
230 150 1055
276 151 1220
308 136 1348
335 126 1463
44 232 61
62 237 205
104 285 428
152 353 725
217 376 967
279 407 1194
331 435 1400
366 428 1550
394 404 1663
46 449 81
60 463 250
104 482 454
171 551 740
238 598 1006
304 651 1258
360 684 1486
421 724 1717
457 721 1860
80 733 118
90 730 303
139 774 571
194 795 813
272 856 1095
335 905 1349
397 951 1582
458 1027 1818
507 1069 2017
107 1025 157
113 1023 343
163 1054 614
257 1127 953
310 1147 1205
371 1188 1442
430 1241 1673
491 1304 1908
561 1394 2167
147 1348 205
155 1354 393
190 1343 647
288 1446 1039
352 1477 1332
411 1507 1554
470 1546 1780
524 1581 1998
599 1673 2262
192 1648 219
193 1649 410
224 1613 683
308 1737 1065
399 1796 1452
463 1837 1700
514 1859 1902
564 1880 2108
622 1931 2336
228 1968 230
230 1944 444
252 1916 692
329 2015 1112
437 2121 1541
516 2179 1838
568 2202 2043
611 2207 2227
663 2230 2432
269 2311 252
277 2300 453
273 2230 696
322 2209 1019
454 2386 1557
549 2482 1927
618 2541 2189
669 2559 2385
717 2570 2567
237 84 54
229 75 213
257 104 470
265 110 689
303 116 888
332 136 1050
361 143 1193
388 134 1322
413 121 1446
221 262 58
268 309 266
314 393 608
366 458 1012
428 498 1314
468 503 1516
520 511 1726
542 492 1836
580 512 1996
210 506 76
244 566 294
301 631 610
366 753 989
433 834 1312
498 911 1584
549 940 1807
585 950 1982
629 973 2162
253 794 107
275 880 324
321 943 691
381 999 1020
451 1101 1348
522 1188 1639
582 1255 1886
630 1295 2098
682 1338 2307
274 1111 137
313 1214 334
340 1244 728
418 1342 1144
468 1355 1394
533 1423 1665
593 1475 1913
651 1545 2150
711 1618 2383
323 1413 158
356 1517 354
358 1535 677
444 1630 1188
509 1678 1507
557 1688 1729
613 1722 1959
671 1781 2197
734 1864 2445
376 1750 169
430 1816 351
391 1850 690
452 1901 1172
556 2017 1613
606 2021 1851
646 2008 2035
693 2041 2251
758 2103 2498
440 2054 153
609 2140 331
419 2149 664
468 2203 1151
586 2340 1673
654 2371 1987
697 2349 2182
738 2348 2361
797 2392 2585
561 2390 107
745 2480 323
464 2471 648
491 2520 1111
599 2633 1694
689 2709 2081
751 2729 2334
796 2731 2521
833 2714 2691
673 128 84
650 122 255
523 104 459
509 112 697
483 131 946
500 158 1204
520 154 1341
527 146 1424
548 140 1537
605 322 72
809 399 304
808 396 672
759 423 1048
680 450 1330
614 416 1511
634 416 1723
649 409 1859
690 427 2061
549 568 66
696 645 243
803 869 813
744 950 1244
780 1047 1640
811 1100 1956
817 1092 2192
850 1105 2416
872 1152 2599
558 854 94
661 939 263
774 1196 808
700 1269 1239
752 1345 1588
780 1425 1909
807 1492 2170
844 1524 2422
898 1630 2673
590 1167 90
724 1237 229
754 1487 737
736 1594 1270
754 1627 1588
796 1695 1891
814 1769 2169
863 1842 2446
916 1908 2693
643 1477 89
785 1540 241
723 1716 620
719 1882 1276
774 1955 1671
787 1943 1917
805 1982 2167
873 2081 2467
929 2140 2710
769 1812 73
904 1864 225
887 2045 578
692 2157 1188
765 2285 1756
806 2275 2015
819 2233 2207
881 2311 2485
938 2377 2737
840 2102 71
1020 2187 203
1059 2325 510
701 2468 1178
755 2571 1739
814 2643 2128
855 2615 2348
894 2569 2533
953 2627 2777
945 2425 80
1158 2518 161
1052 2651 560
695 2748 1113
764 2879 1758
854 2975 2216
917 2987 2487
964 2977 2699
995 2928 2866
1267 213 122
1253 207 321
1028 148 497
900 120 659
893 135 976
839 161 1272
803 199 1510
739 196 1657
740 184 1783
1090 409 118
1503 544 399
1575 545 749
1400 392 981
1282 381 1262
1058 390 1454
979 404 1680
872 400 1812
851 405 2007
1085 654 105
1354 765 297
1584 1014 871
1644 1025 1276
1626 1017 1650
1547 976 1951
1403 895 2141
1317 843 2362
1242 909 2542
1080 948 104
1260 1009 259
1384 1219 632
1574 1535 1432
1557 1653 1826
1509 1742 2157
1464 1801 2449
1382 1825 2691
1346 1917 2920
1072 1242 93
1268 1282 233
1298 1485 531
1539 1859 1412
1411 1926 1818
1406 2024 2149
1391 2104 2436
1333 2143 2695
1325 2242 2941
1084 1537 57
1275 1586 192
1322 1723 422
1428 2142 1377
1312 2230 1848
1345 2259 2126
1360 2337 2408
1304 2392 2686
1297 2468 2960
1177 1843 63
1365 1895 156
1374 2053 413
1354 2404 1278
1201 2536 1884
1269 2578 2191
1289 2556 2410
1279 2618 2681
1257 2678 2959
1274 2115 71
1450 2196 138
1482 2321 382
1337 2678 1256
1142 2811 1865
1195 2891 2266
1215 2887 2509
1253 2864 2704
1256 2913 2984
1362 2431 80
1569 2507 96
1537 2656 379
1246 2961 1239
1105 3120 1926
1174 3207 2318
1178 3220 2615
1209 3231 2860
1299 3221 3058
1817 294 141
1806 277 385
1594 221 575
1462 173 747
1393 149 943
1487 174 1277
1492 202 1573
1426 219 1790
1273 221 1917
1638 502 151
2070 660 465
2118 638 826
2000 494 1031
1866 405 1218
1721 380 1428
1634 379 1676
1554 385 1855
1482 414 2070
1605 758 124
1858 893 364
2152 1180 951
2229 1204 1329
2259 1018 1593
2213 863 1871
2052 721 2069
1899 671 2256
1773 738 2460
1671 1054 124
1824 1110 291
1986 1356 726
2208 1677 1456
2266 1695 1828
2246 1701 2175
2187 1678 2435
2104 1652 2667
1973 1799 2912
1700 1350 106
1854 1379 252
1895 1537 503
2092 1886 1222
2221 2146 1950
2158 2249 2278
2128 2304 2573
2083 2341 2832
2014 2479 3088
1658 1609 69
1832 1684 201
1878 1762 392
1938 2134 1073
2086 2427 1940
2109 2493 2262
2071 2568 2561
2016 2621 2837
1992 2726 3105
1669 1897 69
1849 1977 149
1817 2053 339
1842 2397 962
2019 2724 1959
1961 2780 2300
1976 2808 2565
1945 2859 2842
1900 2938 3112
1681 2191 74
1813 2254 88
1843 2323 264
1859 2642 862
1934 3022 1993
1833 3074 2349
1836 3116 2641
1827 3107 2868
1837 3166 3139
1714 2475 81
1843 2549 94
1914 2636 213
1881 2960 839
1754 3308 2082
1758 3390 2471
1774 3434 2741
1727 3443 2989
1831 3461 3207
2293 366 192
2261 348 416
2121 289 637
2011 255 834
1960 226 1027
2006 230 1280
2151 263 1599
2140 255 1827
2084 244 1967
2149 644 178
2494 741 486
2564 718 859
2466 598 1093
2347 492 1246
2232 449 1398
2251 430 1679
2207 417 1861
2177 414 2051
2055 849 165
2337 1054 429
2577 1305 1008
2654 1290 1381
2651 1118 1617
2633 881 1791
2585 724 2008
2481 650 2151
2434 684 2396
2086 1127 136
2261 1249 311
2401 1497 781
2649 1810 1491
2715 1836 1861
2721 1725 2113
2706 1592 2385
2635 1421 2600
2579 1564 2869
2107 1410 108
2253 1475 264
2305 1661 546
2523 2011 1281
2676 2264 1968
2701 2272 2282
2706 2263 2586
2618 2304 2855
2622 2439 3098
2087 1694 70
2221 1767 198
2283 1860 397
2388 2159 989
2569 2456 1806
2684 2645 2384
2696 2730 2679
2695 2811 2958
2755 2937 3224
2076 1982 75
2198 2043 141
2230 2134 345
2271 2373 779
2490 2714 1704
2646 2927 2389
2647 2983 2690
2658 3058 2977
2743 3169 3252
2066 2284 80
2167 2322 93
2207 2389 237
2194 2613 606
2423 3003 1675
2619 3242 2452
2561 3282 2757
2521 3294 2999
2661 3373 3272
2004 2536 82
2118 2602 95
2161 2693 117
2209 2880 548
2486 3287 1716
2586 3555 2623
2573 3585 2876
2495 3610 3106
2580 3639 3326
2686 424 206
2622 381 453
2523 349 678
2432 312 889
2365 285 1091
2386 289 1319
2426 298 1568
2499 295 1820
2521 292 1980
2577 752 213
2831 805 504
2892 717 873
2829 642 1130
2734 560 1324
2607 505 1461
2537 467 1637
2574 460 1856
2601 457 2052
2460 977 156
2693 1139 429
2910 1340 974
3001 1363 1385
2994 1235 1658
2966 998 1832
2863 785 1952
2816 694 2107
2853 714 2353
2454 1221 133
2599 1343 340
2753 1597 828
3012 1888 1536
3084 1925 1893
3090 1849 2142
3089 1692 2338
3079 1415 2515
3091 1491 2788
2435 1485 105
2547 1558 260
2637 1769 626
2875 2133 1360
3067 2356 1990
3114 2370 2292
3141 2317 2539
3125 2258 2826
3137 2363 3076
2407 1757 74
2516 1819 195
2578 1973 449
2757 2280 1107
2972 2566 1869
3106 2748 2399
3141 2754 2679
3149 2814 2958
3146 2927 3220
2358 2016 78
2455 2077 129
2521 2198 329
2659 2463 846
2851 2716 1632
3020 2959 2265
3191 3154 2787
3243 3246 3091
3314 3349 3343
2337 2318 83
2437 2360 96
2497 2439 223
2566 2663 615
2716 2958 1416
2969 3232 2231
3168 3416 2838
3151 3446 3103
3276 3549 3365
2289 2598 86
2395 2673 99
2454 2766 113
2491 2924 493
2738 3259 1480
3014 3575 2531
3188 3711 2960
3217 3740 3183
3222 3768 3401
2985 469 234
2885 414 496
2788 384 732
2653 331 902
2613 314 1127
2598 311 1344
2632 312 1588
2668 305 1810
2688 302 1978
2920 811 243
3119 862 525
3166 722 876
3108 665 1178
2989 597 1374
2872 530 1531
2755 483 1675
2729 465 1856
2813 482 2067
2802 1067 193
2976 1161 429
3191 1384 943
3297 1407 1385
3296 1343 1689
3261 1085 1869
3154 865 1990
3028 734 2110
3107 805 2352
2748 1301 149
2896 1415 346
3067 1668 799
3283 1921 1469
3374 1978 1870
3396 1951 2152
3386 1817 2353
3327 1554 2517
3373 1614 2760
2712 1560 97
2839 1647 273
2942 1856 612
3167 2140 1278
3366 2380 1930
3452 2416 2296
3468 2417 2569
3477 2349 2779
3507 2457 3055
2673 1822 78
2773 1882 192
2874 2059 481
3067 2328 1100
3272 2602 1796
3453 2802 2382
3507 2851 2709
3513 2859 2943
3536 2961 3213
2628 2092 82
2719 2137 115
2823 2273 333
2981 2536 913
3192 2792 1626
3371 3013 2266
3537 3194 2815
3555 3255 3088
3598 3350 3335
2589 2342 86
2675 2401 99
2750 2503 201
2895 2737 661
3090 3011 1436
3276 3228 2131
3454 3403 2692
3638 3589 3200
3727 3686 3451
2546 2627 89
2645 2722 102
2753 2837 118
2819 2986 502
2987 3253 1370
3234 3528 2244
3486 3721 2871
3654 3817 3253
3681 3836 3443
3229 497 259
3114 445 527
3005 403 759
2832 346 912
2814 339 1156
2770 325 1368
2791 317 1606
2817 310 1818
2842 307 1982
3195 837 247
3364 935 581
3378 754 881
3335 705 1194
3225 653 1394
3135 593 1597
3022 519 1749
2994 504 1944
3003 500 2101
3099 1157 200
3267 1276 477
3445 1467 996
3537 1483 1438
3533 1440 1728
3482 1253 1932
3412 1053 2106
3333 904 2258
3322 914 2446
3026 1372 153
3196 1485 358
3336 1740 826
3533 1982 1455
3615 2018 1852
3625 2006 2132
3617 1979 2397
3588 1842 2611
3582 1808 2819
2980 1618 102
3118 1701 290
3255 1917 628
3462 2226 1345
3621 2446 1960
3689 2467 2285
3697 2491 2575
3704 2537 2856
3710 2521 3060
2936 1870 83
3056 1940 207
3176 2089 468
3359 2363 1074
3559 2641 1809
3693 2857 2394
3749 2916 2723
3749 2969 3006
3762 3017 3236
2877 2126 85
2993 2175 116
3111 2315 357
3281 2560 896
3466 2816 1586
3643 3057 2263
3771 3243 2823
3815 3319 3140
3821 3365 3341
2832 2381 88
2938 2453 101
3059 2588 214
3198 2803 766
3396 3054 1501
3587 3263 2144
3732 3423 2693
3872 3623 3224
3896 3663 3445
2786 2672 91
2881 2762 105
2997 2893 123
3122 3069 654
3334 3311 1507
3526 3524 2191
3705 3679 2716
3817 3775 3100
3922 3881 3468
