src/luts/Inglourious_Basterds_-_Rec709.3dl
# Created by Benjamin (IWLTBAP) : http://luts.iwltbap.com
# Copyright: (C) Copyright 2016 Triune Films and IWLTBAP
# Blockbuster LUTs Pack
0 256 512 768 1023
49 47 49
93 131 712
142 295 1368
237 446 1981
341 580 2632
136 746 167
136 771 784
175 926 1456
264 1087 2114
403 1313 2867
175 1438 248
202 1572 1038
215 1540 1565
317 1703 2241
492 1964 3050
276 2102 394
372 2340 1265
397 2349 1863
426 2364 2430
589 2550 3191
461 2869 617
560 3082 1386
769 3336 2342
694 3213 2794
785 3251 3377
836 156 187
627 152 723
597 276 1367
662 385 1955
771 562 2646
860 771 157
670 923 928
682 1071 1620
800 1256 2338
988 1528 3130
870 1541 247
721 1680 1058
726 1684 1706
850 1898 2469
1070 2141 3254
1052 2265 400
877 2375 1121
966 2587 2091
944 2521 2617
1180 2717 3359
1421 3134 641
1130 3186 1319
1299 3497 2465
1267 3379 2942
1333 3383 3498
1927 318 379
1685 286 865
1389 281 1345
1280 408 1964
1274 544 2710
1951 921 356
2059 1138 1070
1763 1191 1670
1420 1199 2299
1538 1475 3090
2129 1561 394
2181 1720 993
1751 2051 2049
1708 2164 2752
1879 2334 3444
2243 2370 478
2240 2595 1074
1930 2876 2301
1848 2791 2855
1951 2919 3531
2371 3299 712
2360 3406 1386
2077 3633 2500
1984 3576 3094
2019 3564 3652
2950 526 622
2822 513 1087
2624 465 1504
2372 507 2000
2123 625 2664
2971 1157 600
3106 1402 1282
2977 1520 1976
2742 1466 2398
2511 1570 3047
3057 1779 617
3132 2047 1270
3143 2379 2281
3064 2439 2853
2952 2553 3531
3149 2462 659
3157 2656 1264
3173 2977 2211
3172 3185 3057
3173 3283 3720
3144 3372 790
3158 3487 1367
3224 3716 2301
3252 3854 3162
3212 3850 3800
3705 716 806
3692 744 1271
3575 777 1808
3493 791 2289
3341 866 2840
3798 1412 822
3850 1660 1496
3830 1813 2296
3763 1783 2765
3632 1815 3232
3824 2035 832
3865 2255 1469
3925 2557 2507
3898 2633 3079
3856 2657 3582
3853 2666 896
3881 2848 1484
3934 3134 2421
3970 3295 3177
3943 3336 3733
3881 3404 961
3893 3529 1531
3927 3693 2226
3972 3860 3099
3984 3938 3809
