src/luts/Inglourious_Basterds_-_Rec709.3dl
# Created by Benjamin (IWLTBAP) : http://luts.iwltbap.com
# Copyright: (C) Copyright 2016 Triune Films and IWLTBAP
# Blockbuster LUTs Pack
0 128 256 384 512 640 768 896 1023
49 47 49
50 55 360
93 131 712
108 209 1043
142 295 1368
194 387 1681
237 446 1981
301 507 2286
341 580 2632
90 387 105
72 365 385
112 447 741
118 528 1089
157 622 1417
200 701 1731
245 781 2058
298 856 2384
392 948 2733
136 746 167
124 782 504
136 771 784
136 841 1118
175 926 1456
213 1001 1778
264 1087 2114
324 1192 2477
403 1313 2867
147 1103 200
137 1175 591
147 1179 900
145 1164 1168
196 1234 1509
231 1298 1828
285 1391 2173
360 1517 2557
444 1648 2965
175 1438 248
190 1519 647
202 1572 1038
198 1530 1287
215 1540 1565
256 1602 1888
317 1703 2241
402 1828 2642
492 1964 3050
222 1767 317
241 1860 710
277 1958 1154
286 1945 1446
268 1891 1665
292 1929 1963
363 2025 2327
448 2135 2727
536 2252 3123
276 2102 394
305 2198 774
372 2340 1265
422 2424 1653
397 2349 1863
388 2314 2098
426 2364 2430
501 2445 2817
589 2550 3191
352 2461 497
389 2557 848
477 2724 1341
587 2882 1859
593 2871 2134
558 2790 2336
522 2752 2584
567 2791 2917
682 2887 3278
461 2869 617
489 2947 940
560 3082 1386
705 3264 1963
769 3336 2342
743 3281 2583
694 3213 2794
701 3201 3057
785 3251 3377
341 63 88
295 67 370
329 134 721
337 198 1046
360 272 1355
405 356 1661
443 431 1974
488 500 2306
550 576 2650
320 386 84
312 410 425
339 496 799
347 593 1162
384 683 1491
427 761 1811
482 839 2145
563 908 2466
623 1015 2871
342 773 166
347 818 520
358 833 846
358 910 1191
395 990 1528
446 1077 1865
501 1172 2221
578 1280 2590
673 1412 2990
357 1133 194
370 1189 566
379 1239 958
376 1223 1235
415 1293 1574
469 1378 1920
531 1494 2288
611 1623 2689
697 1754 3084
395 1469 250
413 1527 606
437 1629 1080
433 1596 1348
443 1598 1623
498 1682 1969
569 1797 2347
654 1926 2760
737 2046 3146
450 1806 325
468 1865 661
511 2003 1160
537 2041 1523
518 1976 1739
544 2009 2042
617 2105 2422
700 2212 2827
787 2327 3203
518 2156 413
540 2207 735
606 2375 1231
682 2510 1727
671 2466 1976
653 2405 2191
681 2438 2520
750 2519 2896
863 2631 3268
624 2535 523
645 2583 825
692 2728 1262
837 2941 1891
870 2971 2229
821 2880 2436
775 2824 2669
829 2868 2992
952 2961 3349
765 2968 631
772 3020 931
778 3084 1314
949 3323 1973
1033 3419 2410
1020 3371 2661
985 3296 2868
983 3278 3124
1044 3312 3431
836 156 187
760 149 439
627 152 723
591 206 1051
597 276 1367
624 338 1673
662 385 1955
709 463 2295
771 562 2646
839 447 174
840 495 497
665 522 822
641 598 1159
657 686 1492
689 753 1807
746 822 2134
786 902 2493
867 1025 2899
860 771 157
844 821 476
670 923 928
653 988 1274
682 1071 1620
727 1156 1974
800 1256 2338
898 1378 2740
988 1528 3130
863 1166 179
770 1218 512
681 1320 1020
660 1303 1319
697 1368 1654
745 1459 2020
825 1590 2411
914 1724 2818
1029 1863 3204
870 1541 247
797 1593 569
721 1680 1058
721 1701 1438
726 1684 1706
776 1779 2069
850 1898 2469
938 2025 2875
1070 2141 3254
916 1887 312
869 1960 639
774 2010 1069
831 2167 1621
807 2095 1846
820 2105 2142
886 2199 2533
977 2309 2934
1117 2421 3302
1052 2265 400
961 2337 722
877 2375 1121
969 2604 1783
966 2587 2091
937 2508 2302
944 2521 2617
1027 2617 2998
1180 2717 3359
1203 2689 516
1075 2733 836
1008 2771 1191
1085 2988 1863
1150 3064 2309
1109 2986 2542
1060 2926 2766
1123 2956 3074
1246 3035 3423
1421 3134 641
1305 3183 980
1130 3186 1319
1172 3324 1878
1299 3497 2465
1293 3452 2728
1267 3379 2942
1268 3357 3193
1333 3383 3498
1399 230 277
1306 229 540
1194 200 764
1001 216 1037
905 284 1368
906 345 1669
937 398 1968
951 462 2332
1001 538 2701
1389 518 263
1446 591 606
1388 626 893
1102 610 1161
965 635 1460
962 684 1755
990 771 2117
1039 876 2473
1108 1008 2867
1446 834 256
1470 901 582
1446 1015 968
1158 1048 1299
1088 1082 1620
1106 1160 1974
1120 1240 2329
1175 1350 2731
1283 1516 3130
1523 1166 261
1541 1211 551
1489 1315 903
1119 1415 1416
1105 1478 1777
1154 1595 2168
1213 1719 2564
1300 1838 2938
1445 1954 3303
1600 1528 282
1616 1582 560
1465 1693 900
1166 1858 1553
1122 1823 1852
1181 1929 2235
1245 2031 2618
1323 2126 2983
1483 2234 3346
1663 1942 335
1667 2009 623
1528 2114 974
1227 2283 1667
1193 2262 2012
1196 2254 2300
1267 2331 2680
1367 2417 3033
1525 2514 3392
1771 2346 433
1750 2417 721
1602 2523 1088
1298 2631 1692
1368 2733 2230
1324 2649 2453
1324 2653 2750
1442 2727 3090
1570 2805 3442
1870 2773 543
1855 2839 827
1684 2911 1226
1420 2997 1765
1536 3175 2402
1496 3097 2638
1476 3041 2861
1525 3060 3157
1619 3123 3502
1951 3212 661
1968 3283 976
1827 3331 1445
1576 3386 1881
1641 3582 2525
1630 3539 2797
1600 3454 3002
1617 3435 3262
1670 3466 3575
1927 318 379
1845 315 643
1685 286 865
1588 248 1075
1389 281 1345
1282 354 1661
1280 408 1964
1257 469 2336
1274 544 2710
1911 602 364
2011 674 690
1924 721 996
1814 707 1229
1546 696 1464
1347 696 1729
1289 750 2101
1313 844 2485
1378 984 2888
1951 921 356
2004 991 658
2059 1138 1070
1982 1210 1422
1763 1191 1670
1495 1140 1948
1420 1199 2299
1450 1312 2682
1538 1475 3090
2037 1248 374
2070 1298 647
2098 1429 1042
2014 1585 1507
1757 1614 1852
1616 1651 2192
1630 1771 2599
1721 1884 2976
1814 1992 3342
2129 1561 394
2165 1613 660
2181 1720 993
2093 1931 1465
1751 2051 2049
1639 2076 2378
1708 2164 2752
1808 2249 3098
1879 2334 3444
2198 1898 408
2242 1990 699
2229 2105 989
2068 2328 1475
1811 2463 2166
1722 2409 2447
1769 2469 2801
1853 2546 3141
1922 2626 3484
2243 2370 478
2260 2485 775
2240 2595 1074
2069 2727 1630
1930 2876 2301
1841 2808 2586
1848 2791 2855
1897 2848 3188
1951 2919 3531
2298 2874 612
2317 2935 874
2305 3010 1200
2183 3112 1746
2029 3255 2399
1946 3239 2745
1923 3168 2964
1938 3171 3247
1981 3230 3586
2371 3299 712
2381 3353 984
2360 3406 1386
2293 3513 1885
2077 3633 2500
2018 3652 2881
1984 3576 3094
1985 3539 3343
2019 3564 3652
2430 411 491
2398 409 734
2235 395 975
2130 374 1179
2004 323 1382
1837 373 1655
1715 434 1946
1659 486 2321
1611 560 2715
2443 709 486
2571 770 787
2522 807 1099
2379 792 1321
2234 781 1535
2053 809 1781
1812 809 2060
1738 873 2464
1737 990 2883
2449 1020 474
2543 1113 759
2613 1257 1174
2553 1340 1543
2442 1358 1806
2300 1335 2039
2025 1288 2263
1898 1329 2653
1899 1454 3072
2516 1336 485
2579 1414 751
2633 1577 1157
2609 1793 1656
2585 1856 2014
2424 1865 2282
2205 1834 2610
2090 1874 2941
2143 1996 3311
2603 1655 504
2651 1736 770
2677 1890 1128
2612 2104 1666
2618 2229 2124
2500 2278 2463
2370 2311 2815
2273 2356 3150
2286 2427 3498
2670 1985 525
2711 2089 798
2731 2219 1115
2678 2392 1613
2636 2561 2107
2572 2683 2614
2481 2708 2945
2425 2751 3273
2416 2806 3606
2714 2374 556
2744 2491 841
2739 2603 1133
2682 2754 1547
2677 2934 2152
2600 3057 2694
2510 3039 3007
2466 3059 3318
2456 3106 3653
2717 2895 625
2724 2973 906
2732 3050 1211
2723 3177 1670
2713 3315 2273
2667 3427 2770
2440 3389 3103
2423 3345 3350
2458 3393 3683
2759 3370 758
2769 3413 1037
2766 3469 1367
2774 3559 1812
2802 3687 2365
2716 3787 2849
2460 3755 3212
2382 3671 3427
2444 3685 3722
2950 526 622
2931 520 846
2822 513 1087
2703 479 1296
2624 465 1504
2467 466 1724
2372 507 2000
2179 536 2287
2123 625 2664
2968 848 618
3039 905 878
3037 944 1198
2932 977 1478
2807 959 1698
2677 927 1886
2561 955 2135
2375 998 2444
2292 1106 2835
2971 1157 600
3038 1254 858
3106 1402 1282
3064 1515 1699
2977 1520 1976
2897 1484 2190
2742 1466 2398
2588 1484 2658
2511 1570 3047
3018 1466 607
3065 1562 857
3117 1750 1290
3114 1931 1821
3096 2004 2190
3035 2025 2443
2930 2028 2690
2807 1980 2924
2732 2074 3296
3057 1779 617
3096 1885 868
3132 2047 1270
3110 2247 1822
3143 2379 2281
3138 2424 2596
3064 2439 2853
2959 2453 3149
2952 2553 3531
3100 2111 629
3140 2227 897
3153 2344 1264
3136 2531 1806
3146 2688 2284
3158 2784 2681
3122 2816 2964
3072 2868 3285
3074 2935 3636
3149 2462 659
3157 2562 920
3157 2656 1264
3165 2813 1713
3173 2977 2211
3168 3095 2656
3172 3185 3057
3155 3234 3388
3173 3283 3720
3159 2882 692
3158 2953 992
3161 3032 1304
3156 3157 1634
3176 3328 2157
3197 3449 2681
3201 3520 3100
3172 3545 3453
3192 3563 3757
3144 3372 790
3157 3429 1074
3158 3487 1367
3179 3590 1764
3224 3716 2301
3235 3801 2806
3252 3854 3162
3201 3884 3535
3212 3850 3800
3349 627 721
3337 622 941
3300 644 1187
3194 630 1421
3130 613 1643
3057 631 1883
2941 640 2105
2892 683 2380
2740 719 2683
3392 958 727
3453 1016 979
3469 1045 1276
3401 1144 1634
3299 1150 1879
3223 1119 2088
3101 1081 2280
2997 1139 2573
2934 1226 2888
3410 1278 719
3467 1385 971
3523 1541 1392
3512 1646 1819
3449 1689 2161
3394 1652 2379
3305 1602 2561
3173 1609 2791
3133 1682 3089
3444 1592 720
3493 1710 972
3524 1887 1408
3535 2030 1929
3526 2103 2324
3485 2135 2608
3435 2133 2836
3357 2116 3047
3333 2143 3332
3471 1916 727
3507 2026 984
3526 2162 1382
3539 2340 1927
3572 2476 2397
3588 2525 2734
3541 2554 2977
3473 2565 3222
3470 2579 3517
3509 2244 747
3514 2332 1012
3533 2453 1388
3548 2636 1925
3568 2783 2386
3600 2875 2790
3586 2915 3070
3542 2928 3326
3525 2953 3629
3530 2574 775
3526 2655 1047
3538 2754 1381
3565 2926 1884
3592 3068 2344
3598 3171 2772
3603 3242 3115
3591 3269 3400
3574 3302 3704
3539 2938 821
3546 3011 1089
3547 3085 1402
3563 3206 1760
3606 3348 2224
3615 3463 2683
3615 3531 3081
3623 3592 3452
3627 3622 3763
3548 3357 875
3561 3430 1150
3565 3491 1434
3573 3571 1735
3596 3700 2206
3625 3808 2725
3638 3862 3132
3661 3893 3479
3648 3907 3799
3705 716 806
3698 714 1025
3692 744 1271
3635 754 1522
3575 777 1808
3521 782 2041
3493 791 2289
3402 795 2534
3341 866 2840
3770 1061 826
3817 1134 1079
3822 1131 1369
3796 1258 1742
3741 1312 2044
3679 1308 2291
3624 1273 2500
3539 1270 2736
3468 1340 3029
3798 1412 822
3827 1531 1087
3850 1660 1496
3853 1738 1910
3830 1813 2296
3799 1807 2541
3763 1783 2765
3682 1754 2970
3632 1815 3232
3812 1724 816
3834 1839 1098
3857 1988 1504
3880 2122 2030
3878 2196 2431
3863 2224 2726
3838 2248 2975
3787 2243 3179
3771 2259 3439
3824 2035 832
3837 2133 1115
3865 2255 1469
3893 2442 2051
3925 2557 2507
3926 2597 2837
3898 2633 3079
3866 2659 3322
3856 2657 3582
3841 2344 869
3853 2431 1139
3869 2539 1463
3903 2716 2013
3925 2856 2475
3959 2941 2874
3949 2980 3149
3910 3002 3402
3906 3014 3679
3853 2666 896
3864 2748 1159
3881 2848 1484
3914 3003 1975
3934 3134 2421
3966 3229 2844
3970 3295 3177
3940 3324 3461
3943 3336 3733
3866 3019 927
3879 3097 1194
3894 3177 1508
3903 3287 1891
3938 3411 2352
3964 3512 2791
3991 3573 3147
3964 3635 3492
3969 3654 3783
3881 3404 961
3888 3469 1239
3893 3529 1531
3905 3605 1832
3927 3693 2226
3965 3797 2700
3972 3860 3099
3980 3890 3453
3984 3938 3809
