src/luts/Inglourious_Basterds_-_Rec709.3dl
# Created by Benjamin (IWLTBAP) : http://luts.iwltbap.com
# Copyright: (C) Copyright 2016 Triune Films and IWLTBAP
# Blockbuster LUTs Pack
0 64 128 192 256 320 384 448 512 576 640 704 768 832 896 960 1023
49 47 49
48 50 199
50 55 360
71 84 533
93 131 712
103 172 883
108 209 1043
117 247 1204
142 295 1368
177 349 1529
194 387 1681
208 414 1828
237 446 1981
267 477 2135
301 507 2286
313 542 2457
341 580 2632
64 202 69
54 192 207
57 206 370
78 246 546
101 290 724
113 332 899
106 371 1067
113 412 1233
147 463 1396
180 512 1553
197 547 1705
215 581 1860
239 616 2019
262 649 2177
293 682 2334
328 715 2490
368 760 2670
90 387 105
79 378 246
72 365 385
93 402 563
112 447 741
121 489 917
118 528 1089
124 573 1254
157 622 1417
187 667 1575
200 701 1731
220 741 1892
245 781 2058
270 819 2222
298 856 2384
337 895 2549
392 948 2733
117 565 137
108 572 289
103 567 438
107 566 585
125 604 759
134 644 934
129 683 1103
132 726 1269
166 775 1436
192 817 1597
206 851 1754
228 892 1917
254 936 2086
280 981 2260
309 1026 2434
346 1072 2610
397 1133 2803
136 746 167
122 765 328
124 782 504
128 775 648
136 771 784
143 802 951
136 841 1118
140 881 1285
175 926 1456
198 965 1619
213 1001 1778
238 1042 1942
264 1087 2114
291 1137 2292
324 1192 2477
364 1253 2672
403 1313 2867
141 927 189
128 951 352
128 982 551
130 984 707
137 969 836
147 968 975
141 1001 1138
152 1039 1308
186 1081 1482
205 1116 1644
221 1149 1802
248 1190 1967
274 1238 2143
304 1294 2323
340 1355 2513
380 1419 2718
421 1484 2920
147 1103 200
136 1131 368
137 1175 591
142 1192 765
147 1179 900
147 1159 1025
145 1164 1168
165 1197 1338
196 1234 1509
212 1266 1669
231 1298 1828
258 1339 1995
285 1391 2173
320 1453 2358
360 1517 2557
402 1582 2765
444 1648 2965
156 1273 217
150 1303 392
162 1350 619
172 1381 816
173 1380 972
168 1357 1095
165 1342 1221
180 1355 1372
205 1386 1537
220 1415 1694
243 1449 1857
269 1490 2026
300 1546 2206
338 1608 2396
381 1675 2602
425 1743 2812
468 1809 3007
175 1438 248
174 1469 420
190 1519 647
199 1557 862
202 1572 1038
201 1554 1170
198 1530 1287
205 1524 1417
215 1540 1565
232 1568 1722
256 1602 1888
284 1648 2061
317 1703 2241
357 1761 2433
402 1828 2642
449 1899 2854
492 1964 3050
198 1602 282
200 1634 451
215 1690 680
227 1733 905
236 1761 1094
240 1758 1245
238 1729 1362
236 1707 1477
235 1706 1606
245 1725 1754
271 1761 1921
303 1810 2100
339 1864 2282
379 1918 2477
424 1981 2683
471 2048 2891
515 2109 3088
222 1767 317
228 1803 486
241 1860 710
259 1912 945
277 1958 1154
288 1972 1324
286 1945 1446
275 1909 1551
268 1891 1665
271 1898 1801
292 1929 1963
327 1976 2142
363 2025 2327
404 2078 2523
448 2135 2727
492 2190 2925
536 2252 3123
248 1932 353
257 1973 524
272 2030 741
296 2092 981
323 2151 1212
344 2187 1403
345 2179 1541
331 2138 1645
319 2105 1748
319 2097 1872
330 2112 2020
356 2147 2190
392 2192 2375
433 2241 2574
473 2287 2771
514 2337 2962
558 2398 3156
276 2102 394
288 2143 568
305 2198 774
338 2269 1015
372 2340 1265
405 2401 1482
422 2424 1653
415 2396 1769
397 2349 1863
386 2319 1970
388 2314 2098
399 2330 2250
426 2364 2430
464 2407 2626
501 2445 2817
539 2494 3003
589 2550 3191
309 2277 441
322 2315 612
342 2371 807
382 2447 1041
424 2532 1306
471 2615 1560
508 2664 1767
506 2653 1902
485 2610 1998
467 2569 2093
461 2544 2204
461 2538 2341
467 2549 2497
498 2579 2679
532 2614 2865
570 2660 3045
631 2713 3231
352 2461 497
365 2498 660
389 2557 848
428 2632 1072
477 2724 1341
540 2820 1630
587 2882 1859
600 2897 2018
593 2871 2134
577 2829 2234
558 2790 2336
532 2762 2449
522 2752 2584
536 2760 2743
567 2791 2917
614 2836 3095
682 2887 3278
406 2662 559
420 2699 717
441 2753 895
475 2822 1109
517 2898 1356
593 3001 1663
648 3076 1915
678 3117 2106
686 3112 2251
668 3075 2366
640 3029 2462
609 2993 2565
590 2970 2687
591 2968 2827
613 2982 2977
677 3024 3152
734 3066 3328
461 2869 617
472 2900 769
489 2947 940
518 3008 1143
560 3082 1386
633 3176 1679
705 3264 1963
749 3322 2177
769 3336 2342
762 3318 2475
743 3281 2583
717 3240 2683
694 3213 2794
687 3201 2918
701 3201 3057
742 3219 3210
785 3251 3377
183 51 65
168 51 204
173 57 364
196 86 535
215 128 718
224 165 885
227 201 1045
235 240 1203
254 289 1363
281 339 1521
304 377 1672
318 409 1825
346 442 1974
368 474 2135
393 505 2298
408 539 2467
442 576 2643
169 202 64
170 204 221
179 220 386
202 260 565
221 310 752
232 352 925
232 395 1097
243 442 1268
264 490 1429
288 535 1583
306 573 1739
326 606 1895
348 632 2044
379 662 2194
406 697 2360
437 738 2535
475 793 2743
196 389 98
198 391 254
192 386 404
213 422 584
229 471 768
231 516 946
232 558 1119
246 605 1287
269 649 1446
292 689 1600
309 728 1759
328 768 1924
350 806 2090
375 840 2249
414 877 2409
471 917 2578
494 973 2786
220 572 135
221 582 291
220 588 456
224 590 609
237 632 789
242 675 967
241 718 1139
253 763 1307
278 807 1471
298 847 1631
315 886 1792
339 929 1961
364 972 2134
391 1017 2306
426 1061 2479
480 1111 2660
529 1175 2864
237 757 169
234 772 325
237 803 518
243 801 671
249 801 814
250 834 984
246 874 1154
260 917 1326
285 959 1493
304 997 1655
324 1038 1820
351 1082 1990
376 1128 2166
404 1178 2342
441 1235 2531
487 1297 2729
540 1364 2932
246 937 190
242 957 346
243 999 556
246 1012 729
254 999 864
255 998 1004
252 1031 1171
268 1070 1346
293 1110 1516
311 1147 1679
334 1186 1844
362 1231 2016
388 1284 2197
421 1340 2377
459 1402 2573
501 1468 2780
541 1537 2982
253 1111 201
249 1133 357
253 1183 583
258 1215 782
263 1207 926
260 1188 1054
260 1193 1200
277 1223 1370
300 1259 1538
320 1294 1701
345 1333 1868
373 1381 2042
402 1439 2224
439 1501 2413
480 1565 2617
521 1629 2823
564 1698 3022
263 1282 223
263 1308 387
274 1358 605
284 1401 831
287 1409 1000
283 1386 1125
281 1370 1252
290 1381 1402
310 1411 1564
332 1444 1727
359 1486 1897
387 1536 2075
420 1595 2258
459 1655 2451
503 1722 2661
546 1790 2867
589 1855 3061
283 1447 254
284 1475 417
297 1527 631
310 1579 871
317 1602 1062
317 1589 1202
311 1562 1318
312 1552 1445
322 1566 1592
345 1597 1754
374 1640 1927
405 1695 2108
440 1750 2292
479 1806 2489
525 1875 2698
571 1944 2906
613 2005 3100
305 1613 287
307 1640 446
322 1697 657
337 1754 903
350 1790 1115
359 1798 1280
352 1768 1397
346 1740 1506
347 1735 1634
362 1756 1785
390 1798 1957
424 1852 2140
462 1904 2327
502 1959 2527
547 2025 2736
593 2087 2939
636 2147 3133
331 1780 323
335 1808 479
349 1866 685
369 1930 936
390 1980 1163
406 2011 1351
406 1994 1485
394 1954 1588
388 1930 1699
392 1935 1835
415 1967 1999
450 2014 2182
486 2061 2368
526 2115 2569
570 2170 2773
613 2226 2970
656 2287 3161
357 1948 359
366 1982 519
380 2035 718
406 2107 965
436 2171 1211
464 2221 1425
476 2231 1585
466 2196 1696
451 2155 1794
447 2139 1913
457 2151 2060
482 2185 2232
517 2228 2420
556 2275 2618
596 2319 2812
635 2373 3003
684 2433 3192
387 2120 401
398 2154 562
414 2203 752
446 2277 994
487 2360 1254
525 2434 1501
552 2472 1695
550 2454 1825
532 2408 1919
519 2371 2018
519 2358 2143
525 2370 2295
553 2402 2476
588 2440 2668
624 2479 2855
663 2532 3041
722 2588 3228
424 2297 449
436 2328 607
455 2379 792
490 2454 1017
539 2551 1290
591 2643 1574
640 2706 1804
647 2708 1954
627 2669 2056
605 2624 2148
599 2591 2256
588 2578 2385
593 2585 2540
623 2613 2721
656 2650 2903
697 2697 3083
766 2751 3266
470 2483 505
482 2514 658
504 2566 836
537 2636 1046
583 2731 1308
653 2839 1623
714 2914 1882
732 2941 2055
734 2923 2183
715 2879 2287
687 2833 2384
658 2799 2492
647 2787 2626
661 2796 2782
694 2828 2954
752 2875 3133
814 2921 3310
526 2687 565
544 2719 712
558 2765 885
582 2825 1081
620 2900 1312
698 3015 1637
772 3109 1934
811 3158 2140
823 3158 2293
807 3124 2413
776 3075 2509
743 3035 2609
721 3012 2728
723 3007 2863
752 3022 3014
815 3061 3187
864 3099 3357
585 2898 621
598 2924 763
609 2960 929
629 3016 1125
664 3083 1344
732 3183 1641
827 3295 1975
880 3365 2210
904 3381 2381
900 3365 2514
884 3327 2625
860 3282 2722
840 3253 2830
831 3238 2952
841 3237 3091
874 3252 3237
913 3280 3403
341 63 88
308 60 217
295 67 370
312 95 540
329 134 721
335 168 889
337 198 1046
343 231 1201
360 272 1355
379 315 1511
405 356 1661
434 394 1811
443 431 1974
474 464 2132
488 500 2306
517 536 2470
550 576 2650
316 216 75
308 225 236
298 231 397
315 261 575
332 309 763
342 354 936
348 400 1105
358 445 1272
374 490 1433
394 534 1590
413 576 1748
438 609 1900
467 632 2045
496 659 2198
511 695 2373
548 739 2554
584 792 2758
320 386 84
320 400 252
312 410 425
325 445 608
339 496 799
341 545 982
347 593 1162
364 642 1333
384 683 1491
405 722 1648
427 761 1811
452 800 1978
482 839 2145
517 873 2301
563 908 2466
584 950 2653
623 1015 2871
336 579 127
334 595 292
338 611 471
336 618 636
346 663 820
348 709 999
352 753 1175
368 796 1345
389 836 1506
411 877 1667
432 917 1831
457 959 2002
484 1003 2177
520 1047 2347
577 1093 2521
614 1141 2708
648 1215 2925
342 773 166
343 786 324
347 818 520
356 828 695
358 833 846
356 869 1018
358 910 1191
375 952 1364
395 990 1528
418 1032 1693
446 1077 1865
474 1125 2044
501 1172 2221
533 1222 2401
578 1280 2590
637 1343 2790
673 1412 2990
350 957 183
355 968 340
357 1008 546
360 1038 747
366 1033 895
361 1034 1040
365 1066 1210
384 1105 1385
405 1144 1553
429 1185 1720
458 1228 1892
485 1280 2076
513 1336 2259
550 1395 2446
592 1456 2644
635 1519 2846
671 1592 3045
357 1133 194
362 1146 353
370 1189 566
376 1237 793
379 1239 958
375 1221 1090
376 1223 1235
394 1256 1407
415 1293 1574
441 1333 1744
469 1378 1920
497 1431 2102
531 1494 2288
570 1557 2483
611 1623 2689
649 1682 2886
697 1754 3084
372 1304 220
378 1320 386
390 1362 588
402 1420 830
406 1438 1026
403 1418 1158
399 1400 1283
406 1409 1431
427 1442 1595
454 1480 1765
483 1528 1944
513 1585 2128
549 1646 2316
589 1708 2516
634 1778 2727
676 1839 2922
720 1905 3119
395 1469 250
400 1485 416
413 1527 606
429 1594 853
437 1629 1080
439 1624 1233
433 1596 1348
431 1583 1474
443 1598 1623
469 1634 1790
498 1682 1969
531 1739 2155
569 1797 2347
610 1856 2551
654 1926 2760
696 1988 2957
737 2046 3146
422 1636 285
427 1652 447
439 1695 633
453 1762 871
471 1815 1123
483 1837 1311
479 1811 1434
472 1780 1542
472 1773 1668
487 1795 1822
516 1841 1999
554 1896 2188
592 1950 2382
633 2009 2589
676 2070 2794
718 2127 2987
760 2185 3175
450 1806 325
457 1823 483
468 1865 661
484 1933 897
511 2003 1160
534 2051 1380
537 2041 1523
527 2006 1631
518 1976 1739
521 1977 1874
544 2009 2042
579 2056 2228
617 2105 2422
657 2160 2627
700 2212 2827
740 2268 3016
787 2327 3203
482 1979 366
490 2001 522
502 2036 696
520 2106 929
556 2187 1193
590 2257 1447
607 2275 1623
603 2252 1746
589 2210 1845
581 2187 1958
588 2193 2103
610 2223 2275
646 2267 2469
684 2314 2667
723 2360 2860
763 2416 3047
823 2476 3235
518 2156 413
526 2177 565
540 2207 735
560 2279 957
606 2375 1231
649 2465 1513
682 2510 1727
685 2504 1872
671 2466 1976
654 2424 2071
653 2405 2191
654 2409 2339
681 2438 2520
715 2475 2710
750 2519 2896
792 2571 3080
863 2631 3268
562 2334 465
568 2355 613
585 2384 776
607 2459 990
654 2560 1256
710 2666 1566
768 2737 1824
782 2750 1990
774 2726 2111
756 2680 2209
739 2640 2311
716 2618 2431
720 2620 2581
749 2648 2762
783 2688 2941
837 2738 3122
905 2792 3305
624 2535 523
631 2559 669
645 2583 825
655 2636 1014
692 2728 1262
760 2845 1581
837 2941 1891
862 2979 2085
870 2971 2229
853 2930 2341
821 2880 2436
789 2842 2539
775 2824 2669
788 2833 2821
829 2868 2992
895 2915 3172
952 2961 3349
691 2751 581
712 2790 728
715 2804 877
705 2826 1052
729 2895 1267
794 3008 1575
892 3133 1931
939 3194 2167
959 3201 2330
950 3176 2459
922 3128 2559
890 3084 2659
865 3056 2771
863 3049 2901
893 3063 3051
952 3098 3218
998 3134 3390
765 2968 631
787 3013 780
772 3020 931
753 3019 1100
778 3084 1314
835 3185 1598
949 3323 1973
1009 3403 2241
1033 3419 2410
1033 3406 2547
1020 3371 2661
1000 3327 2762
985 3296 2868
977 3280 2990
983 3278 3124
1006 3287 3267
1044 3312 3431
568 105 136
535 100 260
485 95 390
455 110 546
453 141 722
456 173 889
455 203 1050
460 235 1207
473 271 1360
487 304 1512
507 334 1662
534 370 1807
553 410 1961
575 447 2130
601 486 2300
627 526 2461
661 571 2647
557 254 129
562 269 281
510 268 417
466 275 585
458 308 766
461 351 935
469 393 1101
481 436 1263
496 480 1422
518 523 1578
545 561 1734
559 597 1891
595 624 2039
605 652 2202
628 690 2378
661 738 2563
