src/luts/Interstellar_-_Rec709.3dl
# Created by Benjamin (IWLTBAP) : http://luts.iwltbap.com
# Copyright: (C) Copyright 2016 Triune Films and IWLTBAP
# Blockbuster LUTs Pack
0 256 512 768 1023
0 0 74
0 391 608
0 843 1223
0 1220 1767
0 1678 2433
0 739 37
0 767 774
0 958 1288
0 1284 1833
0 1709 2598
0 1386 67
0 1597 879
0 1652 1718
0 1689 2244
0 2010 2976
22 2042 96
0 1802 925
0 2811 2399
0 2504 2861
0 2475 3412
0 3370 0
0 3424 0
0 3677 2029
0 3631 3499
0 3146 3798
575 333 227
889 541 659
562 824 1313
416 1204 1673
117 1687 2249
732 754 233
664 910 955
240 1143 1597
0 1389 2080
0 1769 2830
846 1590 0
497 1785 423
0 1950 1961
0 1923 2567
0 2163 3204
1038 2215 42
866 2284 409
0 2592 2043
0 2717 2995
0 2651 3558
923 3578 0
685 3623 0
0 3707 1629
0 3895 3553
0 3336 3868
1446 728 492
1841 855 823
2204 1223 1208
2025 1554 1573
1685 1736 2340
1761 1043 535
1839 1108 938
2187 1413 1446
2019 1596 1881
1128 1650 2795
2058 1758 534
2109 1935 882
2068 2139 2137
1395 2040 3011
730 2169 3504
1972 2674 0
2037 2716 178
2025 2752 1652
1062 2964 3250
556 2721 3653
1976 3701 0
1867 3787 0
1733 4095 900
10 4002 3059
0 3519 3932
2427 1104 972
2566 1171 1032
2905 1471 1360
3084 1796 1713
3108 2133 2522
2631 1493 865
2656 1327 1013
2924 1616 1558
3073 1954 2061
3337 1979 2961
2925 1972 761
2868 2097 720
3040 2381 2243
3236 2399 2716
2843 2183 3574
2967 3025 756
2953 3047 736
3138 3154 1888
3325 3268 3225
2865 2996 3819
2607 3794 0
2588 3872 0
2927 3976 1319
3019 4095 2565
2684 3796 3971
3236 1516 1298
3262 1522 1315
3436 1820 1607
3459 2110 2154
3964 2307 3114
3308 1942 1076
3324 1759 1198
3449 1928 1771
3486 2269 2422
4086 2313 3358
3379 2406 845
3360 2525 848
3594 2533 2222
3630 2738 2923
4095 2615 3673
3365 2845 882
3360 2899 893
3643 3167 2132
3861 3395 3304
4095 3228 3846
3190 3849 0
3203 3901 0
3503 3969 1322
3819 4051 2802
4090 4095 3984
