src/luts/Interstellar_-_Rec709.3dl
# Created by Benjamin (IWLTBAP) : http://luts.iwltbap.com
# Copyright: (C) Copyright 2016 Triune Films and IWLTBAP
# Blockbuster LUTs Pack
0 128 256 384 512 640 768 896 1023
0 0 74
0 169 308
0 391 608
0 617 917
0 843 1223
0 1043 1500
0 1220 1767
0 1438 2068
0 1678 2433
0 345 83
0 336 391
0 436 623
0 646 935
0 865 1256
0 1060 1549
0 1237 1836
0 1451 2165
0 1690 2553
0 739 37
0 794 368
0 767 774
0 810 1027
0 958 1288
0 1114 1546
0 1284 1833
0 1488 2177
0 1709 2598
0 1080 22
0 1099 197
0 1334 995
0 1211 1228
0 1193 1464
0 1309 1723
0 1459 2001
0 1622 2330
0 1791 2686
0 1386 67
0 1370 210
0 1597 879
0 1803 1531
0 1652 1718
0 1592 1947
0 1689 2244
0 1830 2600
0 2010 2976
0 1728 0
0 1609 343
0 1733 872
0 2245 1680
0 2252 2035
0 2093 2262
0 2014 2545
0 2092 2888
0 2233 3208
22 2042 96
1 1990 404
0 1802 925
0 2266 1565
0 2811 2399
0 2673 2587
0 2504 2861
0 2421 3165
0 2475 3412
128 2453 112
1 2485 361
0 2166 907
0 2562 1535
0 3030 2310
0 3246 2987
0 3030 3185
0 2858 3413
0 2767 3599
0 3370 0
0 3442 0
0 3424 0
0 3526 1262
0 3677 2029
0 3836 3131
0 3631 3499
0 3337 3679
0 3146 3798
161 126 120
299 217 360
163 398 637
109 607 911
22 827 1195
0 1028 1463
0 1216 1721
0 1438 2011
0 1681 2358
158 373 115
167 371 432
87 539 737
4 721 1039
0 917 1328
0 1095 1597
0 1268 1867
0 1473 2185
0 1705 2566
137 832 0
18 863 316
0 860 855
0 924 1151
0 1053 1407
0 1179 1644
0 1331 1915
0 1517 2257
0 1726 2679
119 1196 0
0 1232 136
0 1315 820
0 1338 1320
0 1332 1607
0 1438 1867
0 1568 2146
0 1707 2467
0 1863 2818
220 1506 0
7 1582 26
0 1513 689
0 1920 1555
0 1797 1809
0 1743 2101
0 1822 2406
0 1956 2767
0 2117 3118
394 1834 0
194 1900 0
0 1654 664
0 2094 1447
0 2385 2089
0 2226 2328
0 2164 2693
0 2222 3033
0 2347 3322
498 2134 13
401 2124 150
4 1893 751
0 2136 1406
0 2751 2272
0 2792 2638
0 2606 2900
0 2550 3263
0 2583 3497
522 2614 0
416 2654 39
0 2417 734
0 2501 1363
0 2929 2047
0 3337 3017
0 3158 3206
0 2948 3438
0 2867 3663
141 3457 0
0 3494 0
0 3519 0
0 3534 917
0 3673 1857
0 3830 2853
0 3749 3533
0 3457 3691
0 3254 3840
575 333 227
711 362 400
889 541 659
786 651 1022
562 824 1313
484 1008 1470
416 1204 1673
298 1434 1934
117 1687 2249
652 444 210
671 528 460
866 630 756
602 709 1150
469 910 1364
386 1086 1571
275 1260 1794
115 1473 2086
0 1710 2439
732 754 233
764 811 412
664 910 955
376 1000 1303
240 1143 1597
81 1260 1832
0 1389 2080
0 1555 2414
0 1769 2830
772 1172 69
757 1247 194
354 1430 659
62 1472 1466
15 1449 1780
0 1522 2018
0 1600 2244
0 1703 2527
0 1850 2889
846 1590 0
821 1656 68
497 1785 423
0 1904 1428
0 1950 1961
0 1875 2287
0 1923 2567
0 2029 2891
0 2163 3204
937 1921 0
909 1961 58
717 2058 348
27 2028 1258
0 2523 2183
0 2368 2468
0 2277 2837
0 2310 3137
0 2416 3402
1038 2215 42
995 2219 144
866 2284 409
174 2148 1224
0 2592 2043
0 2941 2737
0 2717 2995
0 2633 3337
0 2651 3558
998 2726 0
958 2766 0
784 2920 165
23 2652 1041
0 2889 1862
0 3331 2866
0 3295 3266
0 3041 3485
0 2941 3714
923 3578 0
882 3566 0
685 3623 0
0 3630 417
0 3707 1629
0 3842 2532
0 3895 3553
0 3589 3719
0 3336 3868
1011 515 322
1141 482 453
1338 680 711
1519 905 976
1445 1070 1186
1405 1161 1450
1103 1231 1762
945 1462 1910
811 1694 2130
1075 640 314
1135 686 456
1360 753 772
1527 966 1042
1455 1097 1276
1268 1123 1621
939 1247 1848
802 1463 2018
683 1709 2307
1228 825 304
1253 880 421
1321 1026 941
1503 1136 1223
1263 1131 1599
915 1216 1887
749 1394 2074
584 1571 2342
400 1773 2757
1336 1191 404
1387 1257 511
1416 1384 855
1297 1518 1523
963 1508 1939
772 1579 2238
515 1647 2499
200 1741 2784
45 1914 3146
1457 1724 192
1449 1770 150
1433 1843 509
1122 1987 1203
715 2092 2140
628 1970 2473
361 1990 2735
50 2039 2980
0 2121 3227
1419 2075 0
1448 2104 40
1472 2149 465
1253 2280 985
401 2488 2078
125 2516 2658
68 2359 2987
0 2367 3232
0 2442 3461
1489 2375 0
1526 2382 102
1527 2404 425
1399 2499 891
643 2520 1868
0 3051 2829
0 2837 3129
0 2684 3404
0 2688 3607
1504 2957 0
1463 2904 0
1467 2985 114
1272 3161 555
303 3119 1548
0 3269 2575
0 3448 3337
0 3140 3549
0 2988 3747
1513 3642 0
1442 3668 0
1344 3692 0
1015 4048 0
1 3872 1113
0 3863 2298
0 3964 3387
0 3747 3749
0 3426 3899
1446 728 492
1531 670 588
1841 855 823
2027 1028 1035
2204 1223 1208
2086 1377 1383
2025 1554 1573
1994 1739 1794
1685 1736 2340
1527 827 495
1586 828 532
1861 895 846
2039 1078 1091
2206 1271 1271
2066 1425 1460
2001 1584 1648
1989 1688 1914
1438 1650 2527
1761 1043 535
1719 1075 499
1839 1108 938
2040 1244 1257
2187 1413 1446
2032 1539 1633
2019 1596 1881
1561 1497 2385
1128 1650 2795
1936 1267 522
1973 1321 517
1983 1432 878
2013 1623 1548
2143 1699 1756
2023 1670 2031
1598 1574 2502
1160 1667 2905
899 1859 3249
2058 1758 534
2075 1827 542
2109 1935 882
2142 2058 1441
2068 2139 2137
1707 2026 2624
1395 2040 3011
1024 2073 3277
730 2169 3504
2109 2345 420
2106 2383 347
2095 2440 324
2115 2480 1012
1955 2537 1885
1531 2636 2800
1342 2438 3115
992 2408 3337
709 2433 3527
1972 2674 0
1965 2708 0
2037 2716 178
2096 2700 916
2025 2752 1652
1312 2975 2684
1062 2964 3250
855 2737 3472
556 2721 3653
1953 3167 0
1940 3194 0
1963 3179 39
2014 3231 578
1887 3378 1250
1126 3404 2299
227 3568 3367
257 3247 3612
237 3033 3778
1976 3701 0
1937 3737 0
1867 3787 0
1834 4042 53
1733 4095 900
751 4095 1815
10 4002 3059
0 3893 3783
0 3519 3932
1957 915 736
2000 882 812
2246 1009 907
2467 1183 1140
2599 1331 1266
2707 1519 1349
2625 1661 1560
2551 1881 1944
2663 1995 2345
2024 1009 724
2053 983 762
2299 1047 932
2480 1222 1185
2600 1365 1318
2706 1552 1415
2616 1689 1666
2541 1899 2036
2752 1908 2566
2220 1261 715
2157 1266 671
2296 1191 965
2478 1336 1299
2592 1480 1468
2702 1645 1600
2571 1806 1903
2662 1846 2265
2404 1771 2963
2453 1498 733
2431 1536 692
2410 1630 922
2484 1720 1569
2606 1796 1802
2690 1908 1982
2670 1933 2252
2569 1835 2826
1813 1659 3337
2531 1796 619
2555 1855 623
2545 1928 733
2623 2090 1528
2646 2271 2204
2729 2283 2399
2682 2142 2815
2065 1962 3291
1614 1995 3636
2588 2388 694
2593 2442 702
2573 2518 685
2671 2598 1382
2743 2687 2053
2779 2735 2712
2491 2585 3169
2087 2493 3515
1718 2490 3746
2458 2938 86
2446 2955 47
2423 2992 1
2589 3027 737
2680 3022 1679
2714 3021 2523
2386 3125 3286
2073 2874 3548
1731 2802 3735
2304 3326 0
2301 3348 0
2337 3376 0
2492 3394 636
2564 3420 1433
2542 3518 2066
2001 3593 3116
1855 3393 3653
1668 3116 3815
2315 3744 0
2300 3781 0
2263 3833 0
2405 3939 323
2428 4085 1041
2411 4095 1779
1804 4095 2666
1410 4025 3772
1363 3634 3965
2427 1104 972
2441 1087 1014
2566 1171 1032
2821 1344 1254
2905 1471 1360
2999 1635 1431
3084 1796 1713
3013 2013 2124
3108 2133 2522
2476 1202 930
2488 1169 964
2588 1198 1024
2832 1378 1292
2917 1512 1417
2999 1664 1509
3089 1836 1826
3012 2038 2219
3258 2043 2665
2631 1493 865
2573 1470 837
2656 1327 1013
2828 1453 1363
2924 1616 1558
2995 1747 1701
3073 1954 2061
3061 2057 2392
3337 1979 2961
2833 1731 863
2783 1755 809
2751 1813 959
2851 1789 1571
2952 1870 1834
3013 2020 2075
3098 2139 2366
3315 2025 2733
3163 2053 3317
2925 1972 761
2933 2022 734
2868 2097 720
2971 2285 1584
3040 2381 2243
3086 2424 2497
3236 2399 2716
3343 2280 3172
2843 2183 3574
2976 2356 751
2982 2401 757
2951 2439 756
3051 2526 1426
3142 2727 2202
3196 2859 2788
3297 2812 3015
3204 2661 3394
2773 2510 3688
2967 3025 756
2960 3035 748
2953 3047 736
3008 3087 1102
3138 3154 1888
3257 3233 2588
3325 3268 3225
3143 3121 3535
2865 2996 3819
2628 3486 0
2624 3481 0
2620 3499 0
2834 3532 368
3002 3556 1411
3122 3569 2209
3204 3627 2937
3057 3570 3650
2835 3330 3860
2607 3794 0
2601 3825 0
2588 3872 0
2798 3923 403
2927 3976 1319
2994 4078 1905
3019 4095 2565
2653 4092 3514
2684 3796 3971
2853 1309 1156
2852 1286 1191
2924 1345 1186
3135 1478 1326
3200 1637 1469
3245 1756 1573
3325 1913 1898
3386 2162 2374
3571 2221 2783
2893 1406 1107
2895 1371 1135
2932 1360 1176
3150 1506 1356
3219 1678 1528
3259 1791 1669
3328 1968 2007
3403 2187 2466
3733 2126 2903
3008 1740 983
2960 1678 987
2983 1539 1091
3166 1580 1419
3237 1767 1656
3280 1889 1868
3318 2064 2186
3461 2219 2628
3851 2072 3123
3160 1990 935
3102 2010 877
3070 2021 964
3193 1913 1576
3263 1941 1847
3319 2149 2209
3349 2260 2459
3697 2215 2874
3850 2165 3384
3258 2233 831
3231 2273 804
3157 2332 789
3272 2470 1606
3355 2434 2205
3395 2480 2519
3433 2577 2781
3862 2395 3182
3795 2419 3611
3306 2480 833
3322 2522 839
3278 2566 833
3343 2685 1453
3446 2895 2259
3511 2928 2803
3533 2946 3063
3842 2780 3373
3772 2765 3740
3324 2886 886
3330 2910 893
3310 2911 892
3344 2947 1186
3495 3061 2056
3597 3257 2756
3644 3343 3275
3745 3263 3505
3701 3169 3787
3301 3546 835
3302 3540 836
3304 3531 838
3301 3531 857
3452 3560 1704
3565 3611 2327
3686 3677 3034
3745 3716 3633
3710 3655 3811
2901 3951 0
2883 3948 0
2875 3950 0
3119 3966 416
3295 3997 1289
3434 4033 2008
3549 4062 2706
3648 4095 3368
3652 3976 3950
3236 1516 1298
3226 1476 1334
3262 1522 1315
3403 1632 1393
3436 1820 1607
3445 1948 1857
3459 2110 2154
3521 2335 2601
3964 2307 3114
3262 1612 1245
3266 1579 1270
3274 1537 1312
3420 1662 1423
3439 1855 1668
3451 1996 1950
3462 2162 2247
3542 2359 2670
4042 2282 3209
3308 1942 1076
3310 1878 1116
3324 1759 1198
3432 1736 1481
3449 1928 1771
3471 2131 2151
3486 2269 2422
3587 2409 2783
4086 2313 3358
3372 2196 954
3329 2231 892
3366 2248 996
3488 2104 1634
3480 2089 1944
3512 2323 2368
3545 2457 2663
3696 2504 2945
4095 2419 3527
3379 2406 845
3378 2449 848
3360 2525 848
3518 2624 1640
3594 2533 2222
3588 2571 2573
3630 2738 2923
3815 2717 3156
4095 2615 3673
3374 2574 854
3373 2625 858
3371 2707 863
3509 2832 1524
3668 3005 2281
3725 2981 2807
3720 3039 3124
3847 3035 3343
4095 2884 3775
3365 2845 882
3364 2868 884
3360 2899 893
3466 3003 1358
3643 3167 2132
3804 3373 2823
3861 3395 3304
3877 3393 3531
4095 3228 3846
3371 3349 936
3371 3355 937
3372 3368 938
3500 3375 1573
3636 3427 2169
3774 3520 2694
3905 3680 3225
3996 3776 3683
4056 3692 3895
3190 3849 0
3166 3871 0
3203 3901 0
3355 3935 586
3503 3969 1322
3658 4008 2067
3819 4051 2802
3979 4095 3492
4090 4095 3984
