src/luts/Interstellar_-_Rec709.3dl
# Created by Benjamin (IWLTBAP) : http://luts.iwltbap.com
# Copyright: (C) Copyright 2016 Triune Films and IWLTBAP
# Blockbuster LUTs Pack
0 64 128 192 256 320 384 448 512 576 640 704 768 832 896 960 1023
0 0 74
0 68 168
0 169 308
0 281 458
0 391 608
0 503 761
0 617 917
0 733 1073
0 843 1223
0 949 1365
0 1043 1500
0 1130 1632
0 1220 1767
0 1322 1910
0 1438 2068
0 1556 2244
0 1678 2433
0 148 76
0 150 211
0 199 320
0 300 464
0 407 622
0 516 780
0 628 936
0 741 1091
0 852 1242
0 954 1384
0 1048 1523
0 1135 1657
0 1226 1794
0 1331 1938
0 1443 2101
0 1562 2282
0 1686 2471
0 345 83
0 364 198
0 336 391
0 362 499
0 436 623
0 536 772
0 646 935
0 758 1098
0 865 1256
0 966 1406
0 1060 1549
0 1148 1689
0 1237 1836
0 1340 1992
0 1451 2165
0 1567 2354
0 1690 2553
0 543 55
0 551 139
0 600 453
0 548 580
0 552 695
0 617 819
0 697 950
0 788 1091
0 893 1248
0 993 1400
0 1085 1545
0 1170 1686
0 1260 1833
0 1360 1993
0 1465 2178
0 1581 2380
0 1697 2595
0 739 37
0 729 78
0 794 368
0 807 659
0 767 774
0 757 897
0 810 1027
0 881 1158
0 958 1288
0 1037 1417
0 1114 1546
0 1195 1685
0 1284 1833
0 1383 1993
0 1488 2177
0 1596 2382
0 1709 2598
0 913 35
0 911 69
0 953 288
0 1072 669
0 1036 896
0 989 995
0 964 1115
0 1002 1242
0 1064 1371
0 1133 1502
0 1203 1630
0 1276 1757
0 1355 1891
0 1437 2036
0 1523 2201
0 1619 2390
0 1726 2605
0 1080 22
0 1082 64
0 1099 197
0 1211 572
0 1334 995
0 1266 1137
0 1211 1228
0 1171 1342
0 1193 1464
0 1244 1592
0 1309 1723
0 1382 1858
0 1459 2001
0 1540 2159
0 1622 2330
0 1704 2508
0 1791 2686
0 1241 18
0 1243 72
0 1233 149
0 1333 532
0 1511 953
0 1574 1274
0 1498 1382
0 1431 1468
0 1377 1577
0 1388 1697
0 1434 1825
0 1497 1965
0 1569 2119
0 1645 2285
0 1724 2466
0 1810 2653
0 1902 2838
0 1386 67
0 1387 127
0 1370 210
0 1431 496
0 1597 879
0 1824 1343
0 1803 1531
0 1727 1630
0 1652 1718
0 1590 1826
0 1592 1947
0 1630 2085
0 1689 2244
0 1756 2417
0 1830 2600
0 1915 2790
0 2010 2976
0 1534 75
0 1526 161
0 1493 290
0 1509 486
0 1674 868
0 1907 1274
0 2102 1671
0 2030 1780
0 1953 1878
0 1875 1981
0 1805 2098
0 1799 2231
0 1830 2384
0 1885 2558
0 1952 2741
0 2030 2925
0 2119 3101
0 1728 0
0 1724 97
0 1609 343
0 1572 508
0 1733 872
0 1945 1219
0 2245 1680
0 2341 1945
0 2252 2035
0 2173 2136
0 2093 2262
0 2028 2400
0 2014 2545
0 2038 2710
0 2092 2888
0 2155 3057
0 2233 3208
0 1918 0
0 1924 95
0 1773 396
0 1645 583
0 1777 893
0 1984 1218
0 2269 1614
0 2550 2054
0 2560 2211
0 2467 2303
0 2388 2410
0 2306 2556
0 2249 2723
0 2227 2873
0 2247 3032
0 2289 3178
0 2349 3308
22 2042 96
25 2050 179
1 1990 404
0 1741 675
0 1802 925
0 2022 1248
0 2266 1565
0 2589 2011
0 2811 2399
0 2769 2490
0 2673 2587
0 2583 2711
0 2504 2861
0 2453 3035
0 2421 3165
0 2438 3293
0 2475 3412
200 2124 234
214 2134 303
77 2120 470
0 1912 746
0 1822 971
0 2045 1280
0 2273 1561
0 2569 1934
0 2897 2422
0 3036 2704
0 2967 2778
0 2865 2881
0 2759 3020
0 2688 3149
0 2635 3297
0 2603 3406
0 2613 3505
128 2453 112
91 2502 138
1 2485 361
0 2233 715
0 2166 907
0 2350 1224
0 2562 1535
0 2774 1833
0 3030 2310
0 3246 2806
0 3246 2987
0 3155 3066
0 3030 3185
0 2929 3306
0 2858 3413
0 2789 3512
0 2767 3599
0 2791 0
0 2836 0
0 2858 0
0 2837 357
0 2786 633
0 2886 1047
0 3026 1440
0 3162 1757
0 3311 2157
0 3470 2715
0 3537 3155
0 3450 3257
0 3327 3338
0 3186 3454
0 3093 3552
0 3012 3624
0 2938 3696
0 3370 0
0 3410 0
0 3442 0
0 3445 0
0 3424 0
0 3455 673
0 3526 1262
0 3598 1679
0 3677 2029
0 3762 2560
0 3836 3131
0 3750 3434
0 3631 3499
0 3476 3585
0 3337 3679
0 3237 3759
0 3146 3798
0 48 91
0 96 216
0 175 317
0 276 454
0 387 603
0 499 755
0 611 907
0 726 1062
0 838 1210
0 942 1350
0 1038 1483
0 1126 1615
0 1219 1748
0 1324 1888
0 1438 2044
0 1556 2218
0 1683 2402
0 152 104
0 155 225
0 239 357
0 339 504
0 436 653
0 535 803
0 638 952
0 748 1105
0 857 1253
0 959 1394
0 1053 1528
0 1142 1660
0 1234 1796
0 1337 1942
0 1449 2104
0 1566 2284
0 1688 2474
0 391 83
0 373 213
0 363 402
0 405 536
0 480 666
0 576 821
0 679 980
0 784 1142
0 888 1299
0 985 1444
0 1075 1581
0 1160 1716
0 1250 1855
0 1351 2007
0 1459 2177
0 1574 2364
0 1694 2563
0 617 7
0 616 167
0 599 385
0 585 601
0 606 739
0 673 870
0 749 1003
0 830 1137
0 925 1288
0 1019 1438
0 1104 1579
0 1187 1720
0 1275 1865
0 1372 2025
0 1476 2207
0 1586 2408
0 1700 2622
0 811 0
0 803 122
0 774 300
0 854 654
0 815 805
0 818 947
0 873 1084
0 942 1218
0 1014 1346
0 1084 1471
0 1153 1594
0 1223 1720
0 1308 1861
0 1402 2020
0 1501 2205
0 1607 2407
0 1718 2624
0 977 0
0 966 83
0 937 200
0 1044 562
0 1086 902
0 1048 1034
0 1033 1169
0 1070 1302
0 1129 1435
0 1193 1566
0 1262 1694
0 1332 1822
0 1406 1955
0 1482 2099
0 1560 2256
0 1646 2435
0 1740 2634
0 1128 0
0 1117 59
0 1097 150
0 1181 485
0 1342 924
0 1321 1153
0 1276 1267
0 1245 1399
0 1263 1529
0 1314 1659
0 1378 1793
0 1448 1931
0 1522 2078
0 1599 2239
0 1674 2408
0 1753 2584
0 1837 2766
0 1271 0
0 1263 57
0 1256 173
0 1301 424
0 1459 828
0 1619 1263
0 1553 1400
0 1503 1509
0 1459 1640
0 1465 1764
0 1507 1897
0 1568 2041
0 1636 2199
0 1708 2369
0 1784 2550
0 1867 2737
0 1960 2922
0 1427 3
0 1420 71
0 1399 231
0 1403 395
0 1551 785
0 1781 1234
0 1867 1547
0 1783 1651
0 1726 1758
0 1674 1892
0 1670 2020
0 1705 2164
0 1761 2327
0 1825 2504
0 1900 2689
0 1984 2876
0 2074 3057
0 1612 1
0 1614 7
0 1541 260
0 1492 404
0 1627 770
0 1837 1154
0 2102 1624
0 2095 1799
0 2009 1899
0 1944 2015
0 1894 2169
0 1878 2307
0 1905 2463
0 1959 2642
0 2027 2829
0 2101 3008
0 2180 3169
60 1779 0
3 1804 1
0 1742 207
0 1594 468
0 1681 767
0 1882 1123
0 2171 1564
0 2379 1948
0 2314 2053
0 2229 2153
0 2158 2287
0 2115 2473
0 2094 2621
0 2115 2788
0 2163 2966
0 2224 3129
0 2296 3269
80 1962 0
24 1969 1
1 1945 204
0 1716 549
0 1725 792
0 1932 1142
0 2187 1500
0 2506 1970
0 2613 2235
0 2525 2322
0 2440 2426
0 2366 2579
0 2333 2790
0 2304 2939
0 2312 3095
0 2357 3239
0 2410 3365
194 2066 42
164 2067 92
67 2066 281
0 1901 597
0 1762 841
0 1963 1167
0 2192 1473
0 2507 1894
0 2798 2355
0 2824 2515
0 2729 2606
0 2638 2720
0 2560 2877
0 2526 3085
0 2490 3216
0 2500 3340
0 2534 3455
340 2152 199
323 2156 235
246 2159 386
23 2104 630
0 1819 896
0 1982 1195
0 2220 1498
0 2487 1824
0 2820 2300
0 3058 2709
0 3026 2799
0 2921 2897
0 2811 3027
0 2734 3164
0 2698 3338
0 2662 3445
0 2667 3544
277 2501 60
234 2531 70
73 2577 181
0 2415 577
0 2198 839
0 2311 1125
0 2526 1459
0 2732 1748
0 2976 2176
0 3225 2707
0 3293 3010
0 3217 3084
0 3091 3191
0 2975 3312
0 2904 3423
0 2851 3550
0 2816 3635
185 2826 0
117 2853 0
0 2903 0
0 2890 218
0 2840 552
0 2869 909
0 3008 1330
0 3144 1682
0 3283 2031
0 3442 2572
0 3564 3095
0 3502 3276
0 3389 3353
0 3239 3459
0 3139 3559
0 3066 3641
0 2994 3726
0 3399 0
0 3418 0
0 3465 0
0 3476 0
0 3460 0
0 3459 392
0 3523 1115
0 3593 1576
0 3672 1938
0 3752 2403
0 3833 2999
0 3821 3419
0 3687 3513
0 3548 3588
0 3395 3683
0 3289 3761
0 3213 3827
161 126 120
235 137 209
299 217 360
199 303 525
163 398 637
135 495 762
109 607 911
75 718 1055
22 827 1195
0 931 1333
0 1028 1463
0 1121 1591
0 1216 1721
0 1321 1859
0 1438 2011
0 1559 2178
0 1681 2358
187 183 112
177 224 236
226 261 419
168 352 537
132 435 659
105 535 807
74 637 952
33 744 1094
1 851 1238
0 953 1374
0 1048 1505
0 1139 1633
0 1232 1766
0 1336 1909
0 1449 2067
0 1570 2242
0 1691 2426
158 373 115
161 375 251
167 371 432
132 450 581
87 539 737
27 628 891
4 721 1039
0 821 1186
0 917 1328
0 1010 1464
0 1095 1597
0 1180 1729
0 1268 1867
0 1369 2015
0 1473 2185
0 1588 2370
0 1705 2566
157 606 40
119 619 193
118 614 404
71 613 634
15 644 790
0 712 928
0 787 1068
0 879 1225
0 970 1373
0 1052 1514
0 1130 1648
0 1207 1782
0 1292 1924
0 1386 2082
0 1487 2264
0 1593 2464
0 1711 2677
137 832 0
78 845 89
18 863 316
0 879 611
0 860 855
0 869 1011
0 924 1151
0 988 1282
0 1053 1407
0 1116 1526
0 1179 1644
0 1250 1774
0 1331 1915
0 1421 2074
0 1517 2257
0 1618 2461
0 1726 2679
110 1042 0
36 1055 1
0 1076 201
0 1026 492
0 1141 910
0 1102 1085
0 1093 1238
0 1130 1376
0 1186 1510
0 1245 1634
0 1305 1755
0 1369 1877
0 1436 2005
0 1504 2144
0 1577 2303
0 1659 2480
0 1753 2678
119 1196 0
22 1230 0
0 1232 136
0 1167 402
0 1315 820
0 1389 1183
0 1338 1320
0 1314 1472
0 1332 1607
0 1379 1737
0 1438 1867
0 1502 2001
0 1568 2146
0 1636 2303
0 1707 2467
0 1779 2640
0 1863 2818
144 1344 0
63 1372 0
0 1388 100
0 1302 356
0 1420 733
0 1631 1211
0 1625 1439
0 1570 1562
0 1536 1716
0 1538 1845
0 1576 1977
0 1630 2121
0 1692 2277
0 1757 2445
0 1831 2623
0 1912 2805
0 1997 2983
220 1506 0
156 1533 0
7 1582 26
0 1452 379
0 1513 689
0 1722 1117
0 1920 1555
0 1855 1690
0 1797 1809
0 1756 1971
0 1743 2101
0 1773 2246
0 1822 2406
0 1882 2580
0 1956 2767
0 2035 2948
0 2117 3118
315 1667 0
254 1692 0
55 1757 14
0 1633 358
0 1585 663
0 1776 1051
0 2063 1535
0 2169 1836
0 2079 1938
0 2016 2064
0 1976 2249
0 1950 2384
0 1972 2543
0 2022 2720
0 2085 2903
0 2156 3077
0 2233 3226
394 1834 0
339 1858 0
194 1900 0
8 1847 295
0 1654 664
0 1832 1043
0 2094 1447
0 2381 1916
0 2385 2089
0 2294 2191
0 2226 2328
0 2193 2542
0 2164 2693
0 2178 2858
0 2222 3033
0 2282 3185
0 2347 3322
421 2022 0
380 2024 0
286 2019 30
53 1995 336
0 1746 699
0 1876 1053
0 2113 1401
0 2433 1860
0 2653 2254
0 2593 2356
0 2501 2459
0 2421 2611
0 2400 2844
0 2366 3000
0 2376 3149
0 2413 3285
0 2463 3411
498 2134 13
472 2130 38
401 2124 150
203 2104 411
4 1893 751
0 1901 1074
0 2136 1406
0 2423 1782
0 2751 2272
0 2879 2552
0 2792 2638
0 2695 2744
0 2606 2900
0 2589 3130
0 2550 3263
0 2552 3384
0 2583 3497
595 2234 136
576 2230 172
521 2227 266
348 2208 493
38 2077 804
0 1930 1104
0 2169 1432
0 2414 1733
0 2739 2180
0 3043 2665
0 3084 2833
0 2982 2922
0 2866 3045
0 2782 3184
0 2758 3377
0 2715 3482
0 2713 3579
522 2614 0
499 2621 2
416 2654 39
142 2679 248
0 2417 734
0 2306 1015
0 2501 1363
0 2708 1682
0 2929 2047
0 3178 2578
0 3337 3017
0 3282 3110
0 3158 3206
0 3029 3328
0 2948 3438
0 2907 3582
0 2867 3663
506 2906 0
483 2916 0
385 2950 0
44 2988 14
0 2940 434
0 2893 761
0 3004 1202
0 3138 1601
0 3268 1931
0 3421 2427
0 3569 2993
0 3564 3301
0 3459 3369
0 3308 3469
0 3189 3569
0 3105 3653
0 3050 3755
141 3457 0
75 3468 0
0 3494 0
0 3530 0
0 3519 0
0 3494 120
0 3534 917
0 3602 1457
0 3673 1857
0 3751 2259
0 3830 2853
0 3871 3366
0 3749 3533
0 3617 3601
0 3457 3691
0 3333 3774
0 3254 3840
367 229 174
417 201 231
507 285 355
597 373 506
525 440 686
411 513 864
366 619 980
329 714 1092
293 816 1214
252 920 1334
205 1018 1449
155 1113 1567
98 1210 1692
25 1318 1826
0 1434 1973
0 1559 2132
0 1687 2305
381 279 174
396 313 272
485 329 388
572 407 548
466 462 737
378 549 884
335 643 997
297 743 1121
258 848 1250
209 947 1369
159 1040 1485
107 1133 1605
38 1226 1733
0 1333 1871
0 1448 2024
0 1569 2191
