src/luts/Mad_Max_Fury_Road_-_Rec709.3dl
# Created by Benjamin (IWLTBAP) : http://luts.iwltbap.com
# Copyright: (C) Copyright 2016 Triune Films and IWLTBAP
# Blockbuster LUTs Pack
0 128 256 384 512 640 768 896 1023
106 201 228
20 297 439
15 412 664
24 550 879
31 699 1092
38 838 1315
45 980 1541
52 1133 1760
68 1279 1964
138 471 241
8 446 461
0 480 631
11 609 854
22 765 1078
32 911 1313
40 1056 1544
47 1222 1790
62 1374 2007
246 806 219
167 792 373
0 751 715
0 760 862
2 849 1037
16 971 1271
28 1115 1513
38 1283 1772
47 1457 2031
329 1117 209
300 1096 302
57 1209 698
0 1100 967
0 1075 1114
0 1156 1311
3 1246 1512
21 1354 1737
33 1524 2010
389 1419 145
360 1398 302
223 1440 602
0 1634 1050
0 1468 1285
0 1414 1421
0 1488 1612
0 1600 1837
8 1720 2079
503 1788 0
433 1722 214
281 1621 581
0 1837 954
0 2029 1422
0 1847 1635
0 1788 1761
0 1857 1965
0 1978 2195
627 2080 5
573 2075 181
276 1803 645
0 1970 948
0 2336 1462
0 2393 1854
0 2229 2003
0 2192 2145
0 2242 2310
816 2582 0
755 2603 61
448 2298 604
85 2286 897
0 2491 1261
0 2854 1982
0 2737 2243
0 2601 2329
0 2553 2439
1040 3305 0
1056 3343 61
1057 3357 122
934 3308 459
533 3361 1106
0 3434 1539
0 3327 2490
0 3079 2529
0 2947 2600
350 277 275
411 304 457
130 429 701
79 559 913
85 698 1111
92 832 1322
97 971 1539
103 1126 1756
118 1272 1953
466 451 255
298 459 460
74 544 710
73 641 898
79 776 1099
87 910 1318
93 1048 1539
100 1215 1783
112 1360 1988
533 849 206
377 852 378
70 801 749
62 818 920
66 902 1100
75 1008 1329
84 1143 1562
91 1306 1816
99 1478 2070
606 1205 134
471 1229 189
217 1171 608
60 1161 1004
58 1147 1191
57 1223 1387
65 1305 1581
78 1382 1782
87 1551 2060
753 1527 35
623 1555 67
376 1421 509
61 1646 1022
60 1538 1333
58 1499 1501
56 1567 1695
55 1671 1919
66 1786 2156
933 1865 0
826 1884 61
511 1806 378
87 1775 878
61 2098 1442
59 1913 1685
57 1879 1849
56 1941 2051
54 2054 2274
1069 2162 0
978 2158 65
694 2112 393
103 1899 866
61 2244 1375
61 2470 1891
59 2285 2049
57 2271 2216
55 2313 2376
1232 2665 0
1154 2688 61
901 2691 145
357 2270 822
61 2456 1184
61 2817 1887
60 2816 2293
58 2650 2367
57 2619 2495
1356 3397 1
1310 3399 61
1174 3437 122
1107 3361 210
733 3358 1016
61 3436 1407
61 3415 2420
60 3150 2580
58 2993 2634
769 407 329
807 398 472
991 488 718
705 586 1034
233 739 1263
144 867 1424
149 998 1605
154 1154 1820
165 1302 2010
886 510 247
787 555 508
951 598 751
512 677 1049
140 821 1229
142 938 1397
147 1067 1591
152 1220 1813
161 1371 2014
1141 748 40
1059 770 288
764 853 821
160 911 1059
137 989 1233
138 1058 1408
141 1165 1599
146 1309 1823
151 1474 2064
1285 1174 67
1197 1183 272
899 1278 569
155 1269 1092
135 1233 1302
131 1286 1469
132 1328 1630
137 1414 1846
141 1596 2136
1409 1555 246
1337 1566 358
1132 1638 457
235 1636 910
137 1651 1428
121 1585 1596
116 1635 1776
119 1725 1990
128 1809 2200
1578 1895 236
1509 1907 342
1320 1942 424
732 1938 685
140 2096 1418
120 1998 1761
114 1957 1935
111 2003 2121
109 2108 2331
1717 2223 271
1639 2213 347
1471 2219 429
1013 2219 648
143 2141 1261
123 2537 1942
117 2353 2114
114 2334 2273
111 2365 2426
1822 2757 0
1769 2752 61
1611 2781 124
1207 2802 391
255 2478 1024
124 2766 1778
121 2903 2343
117 2709 2413
113 2671 2542
1953 3473 92
1888 3470 142
1772 3481 195
1500 3485 233
1064 3402 741
324 3447 1332
122 3448 2339
121 3239 2642
117 3045 2673
1277 503 160
1275 460 389
1550 580 640
1664 731 955
1483 827 1232
1322 926 1516
891 1057 1792
520 1233 1995
331 1368 2143
1377 598 136
1340 638 315
1496 666 677
1662 816 990
1453 899 1269
1125 980 1583
579 1120 1798
250 1272 1947
207 1419 2122
1610 827 128
1572 824 188
1415 935 797
1576 998 1117
1207 1015 1409
560 1090 1647
208 1212 1755
201 1343 1928
203 1505 2155
1923 1093 92
1884 1111 145
1772 1173 450
1389 1335 1251
570 1356 1572
200 1409 1711
197 1436 1825
197 1484 1968
198 1633 2206
2192 1672 30
2146 1670 81
2048 1690 234
1635 1751 954
393 1827 1601
205 1721 1791
197 1723 1915
193 1743 2041
192 1802 2222
2335 2072 150
2291 2074 221
2142 2063 545
1876 2061 895
695 2123 1365
212 2159 1920
196 2051 2054
186 2068 2204
183 2147 2384
2398 2397 160
2358 2393 325
2226 2360 610
2019 2348 863
1356 2360 1154
220 2498 1843
199 2470 2225
179 2384 2327
169 2400 2467
2517 2971 41
2461 2927 92
2349 2869 236
2156 2878 534
1690 2944 790
226 2806 1571
205 2990 2395
180 2775 2467
170 2708 2578
2630 3527 156
2561 3546 217
2460 3562 277
2292 3536 333
1942 3879 561
980 3549 1136
208 3509 2076
185 3336 2710
176 3101 2714
1764 637 205
1750 564 347
1947 665 600
2292 795 890
2441 943 1095
2254 1076 1330
2117 1194 1618
2001 1327 1916
1381 1426 2427
1871 734 202
1888 727 263
1977 742 610
2305 875 912
2443 1022 1124
2217 1154 1395
2062 1257 1677
1925 1370 1978
1011 1471 2518
2095 918 201
2060 920 244
2027 961 645
2227 1019 966
2422 1148 1208
2141 1257 1519
1970 1318 1781
1492 1380 2177
355 1520 2444
2558 1157 270
2459 1169 267
2352 1239 457
2099 1428 1228
2239 1457 1527
1980 1459 1782
1429 1445 2110
573 1490 2294
248 1633 2390
2856 1521 279
2833 1554 334
2720 1604 431
2530 1710 860
2122 1871 1740
1447 1833 2135
471 1872 2351
252 1893 2394
250 1925 2482
2976 2222 169
2949 2232 227
2892 2250 281
2781 2263 706
2404 2276 1358
1148 2376 2222
278 2235 2373
259 2188 2436
253 2180 2505
3075 2631 156
3069 2643 217
3010 2638 288
2850 2605 805
2553 2552 1319
1575 2572 1925
283 2682 2432
265 2486 2496
256 2453 2556
3110 3097 159
3094 3105 220
3027 3084 286
2874 3032 770
2664 3012 1111
1990 3082 1488
325 3030 2228
278 2910 2570
260 2753 2631
3190 3570 160
3161 3596 219
3092 3626 278
2980 3658 358
2797 3764 807
2377 3860 1135
577 3784 1789
288 3481 2749
266 3195 2779
2306 766 470
2281 718 592
2461 788 749
2764 903 1019
2925 1005 1201
3063 1163 1335
2931 1284 1471
2712 1436 1914
2590 1514 2429
2413 873 452
2376 836 540
2514 860 764
2722 976 1028
2927 1079 1225
3057 1235 1364
2907 1350 1517
2664 1491 2005
2548 1543 2526
2618 1037 352
2544 1004 404
2558 986 743
2650 1089 1052
2917 1187 1276
3035 1333 1426
2832 1454 1650
2598 1536 2122
2233 1567 2702
3008 1294 524
2918 1303 493
2838 1372 645
2691 1476 1138
2827 1477 1422
2959 1552 1599
2698 1623 1959
2526 1578 2338
1491 1626 2908
3326 1591 434
3262 1606 450
3193 1652 615
3029 1786 1006
2733 1990 1747
2755 1978 2078
2578 1892 2367
1648 1854 2825
465 1875 2888
3561 2023 280
3545 2054 337
3465 2087 393
3333 2156 822
3127 2269 1381
2748 2413 2248
2265 2346 2660
1230 2332 3007
301 2340 2984
3592 2806 164
3569 2803 225
3517 2800 283
3449 2797 487
3326 2798 1144
3033 2772 1806
2152 2859 2739
1264 2711 3038
316 2635 2964
3640 3225 159
3626 3216 220
3587 3205 281
3495 3186 696
3333 3165 1231
3060 3140 1788
2345 3194 2313
739 3204 2947
330 2930 2960
3669 3612 159
3651 3632 220
3611 3660 282
3524 3689 552
3378 3718 1084
3179 3766 1383
2640 3849 1805
721 3708 2594
353 3375 2947
2836 892 756
2789 869 824
2866 900 873
3053 1014 1106
3382 1100 1275
3447 1210 1395
3493 1381 1661
3305 1535 2007
3163 1605 2512
2945 1012 714
2878 959 792
2934 963 879
3054 1089 1135
3379 1182 1306
3438 1288 1434
3473 1450 1719
3278 1600 2093
3158 1638 2576
3121 1212 625
3024 1141 691
3042 1083 885
3080 1193 1181
3304 1298 1377
3404 1400 1521
3435 1563 1839
3235 1664 2225
3142 1648 2706
3385 1415 649
3277 1412 630
3236 1469 855
3142 1497 1246
3176 1545 1507
3373 1568 1663
3371 1724 2021
3205 1744 2369
3049 1706 2896
3728 1718 503
3661 1738 497
3598 1791 652
3459 1926 1141
3252 2073 1700
3267 2040 2043
3270 2063 2381
3171 1950 2705
2589 1920 3152
3872 2038 412
3859 2053 453
3815 2084 486
3726 2180 1075
3538 2364 1547
3280 2536 2259
3205 2498 2651
3075 2337 2982
2106 2308 3382
3932 2551 246
3931 2567 310
3929 2555 377
3923 2570 454
3820 2654 1225
3636 2779 1876
3295 2915 2713
2992 2846 3099
2145 2784 3467
3973 3350 159
3973 3326 220
3972 3301 282
3961 3281 374
3890 3281 1048
3755 3284 1680
3504 3276 2324
2878 3326 3120
2240 3146 3467
3972 3650 159
3972 3665 220
3972 3689 281
3970 3690 635
3911 3689 1180
3766 3690 1645
3528 3716 2208
2978 3800 2643
2058 3627 3484
3285 1002 878
3265 981 954
3318 1005 982
3483 1095 1163
3661 1201 1330
3841 1308 1470
3800 1430 1737
3755 1644 2263
3676 1685 2682
3383 1130 829
3363 1089 903
3348 1063 971
3502 1167 1186
3623 1290 1375
3836 1391 1521
3784 1506 1788
3749 1711 2323
3687 1731 2738
3530 1356 747
3486 1285 823
3501 1218 950
3528 1271 1227
3547 1412 1457
3817 1507 1627
3752 1623 1909
3744 1785 2427
3696 1768 2840
3726 1557 675
3655 1556 677
3664 1558 985
3588 1512 1301
3553 1589 1580
3747 1672 1785
3714 1796 2094
3743 1878 2558
3684 1823 2969
3890 1818 508
3894 1860 521
3894 1933 718
3839 2062 1259
3676 2118 1736
3622 2086 2029
3683 2107 2394
3721 2089 2748
3643 1961 3149
3928 2115 420
3929 2145 456
3933 2196 499
3928 2310 1128
3910 2495 1647
3738 2610 2217
3658 2554 2636
3666 2502 2945
3567 2340 3363
3971 2480 333
3970 2483 382
3968 2496 435
3966 2559 893
3960 2681 1522
3952 2875 2042
3746 3015 2716
3613 2952 3121
3528 2782 3443
4033 3089 164
4033 3100 225
4029 3082 293
4027 3058 363
4020 3048 647
4004 3089 1610
3993 3218 2334
3764 3354 3093
3509 3289 3467
4034 3797 159
4034 3799 220
4034 3776 281
4034 3757 567
4033 3739 1114
4033 3734 1575
4030 3730 2231
3915 3729 2795
3430 3775 3453
3667 1100 953
3635 1068 1033
3699 1096 1062
3884 1165 1197
3898 1323 1409
3974 1451 1637
3983 1596 1958
3932 1746 2365
3974 1823 2958
3756 1242 896
3744 1200 968
3725 1153 1053
3908 1228 1210
3906 1401 1454
3977 1542 1698
3981 1699 2038
3930 1819 2411
3979 1885 3010
3878 1504 792
3852 1439 870
3883 1363 999
3920 1319 1219
3927 1505 1518
3970 1650 1780
3962 1826 2162
3931 1906 2489
3986 1952 3093
3921 1707 635
3921 1707 665
3917 1711 1019
3930 1647 1332
3941 1663 1616
3949 1801 1894
3949 1978 2296
3934 2033 2613
3986 2047 3178
3948 1908 481
3951 1940 516
3950 2006 839
3947 2114 1331
3956 2110 1780
3961 2120 2103
3940 2190 2468
3938 2227 2775
3982 2189 3243
3985 2221 403
3988 2262 441
3990 2312 529
3985 2423 1191
3988 2566 1658
3985 2647 2218
3985 2606 2584
3931 2621 3004
3968 2534 3343
4020 2486 349
4019 2512 401
4024 2568 457
4017 2662 1052
4016 2776 1584
4022 2963 2081
4018 3070 2715
3932 3021 3153
3947 2928 3406
4070 2979 296
4069 2961 353
4063 2956 597
4053 2981 1149
4047 3023 1569
4048 3125 1925
4049 3290 2506
4048 3437 3116
3927 3367 3521
4095 3672 159
4095 3683 220
4095 3676 282
4095 3571 637
4095 3521 1096
4095 3526 1545
4093 3567 2084
4083 3643 2831
4079 3741 3421
