src/luts/Mad_Max_Fury_Road_-_Rec709.3dl
# Created by Benjamin (IWLTBAP) : http://luts.iwltbap.com
# Copyright: (C) Copyright 2016 Triune Films and IWLTBAP
# Blockbuster LUTs Pack
0 256 512 768 1023
106 201 228
15 412 664
31 699 1092
45 980 1541
68 1279 1964
246 806 219
0 751 715
2 849 1037
28 1115 1513
47 1457 2031
389 1419 145
223 1440 602
0 1468 1285
0 1488 1612
8 1720 2079
627 2080 5
276 1803 645
0 2336 1462
0 2229 2003
0 2242 2310
1040 3305 0
1057 3357 122
533 3361 1106
0 3327 2490
0 2947 2600
769 407 329
991 488 718
233 739 1263
149 998 1605
165 1302 2010
1141 748 40
764 853 821
137 989 1233
141 1165 1599
151 1474 2064
1409 1555 246
1132 1638 457
137 1651 1428
116 1635 1776
128 1809 2200
1717 2223 271
1471 2219 429
143 2141 1261
117 2353 2114
111 2365 2426
1953 3473 92
1772 3481 195
1064 3402 741
122 3448 2339
117 3045 2673
1764 637 205
1947 665 600
2441 943 1095
2117 1194 1618
1381 1426 2427
2095 918 201
2027 961 645
2422 1148 1208
1970 1318 1781
355 1520 2444
2856 1521 279
2720 1604 431
2122 1871 1740
471 1872 2351
250 1925 2482
3075 2631 156
3010 2638 288
2553 2552 1319
283 2682 2432
256 2453 2556
3190 3570 160
3092 3626 278
2797 3764 807
577 3784 1789
266 3195 2779
2836 892 756
2866 900 873
3382 1100 1275
3493 1381 1661
3163 1605 2512
3121 1212 625
3042 1083 885
3304 1298 1377
3435 1563 1839
3142 1648 2706
3728 1718 503
3598 1791 652
3252 2073 1700
3270 2063 2381
2589 1920 3152
3932 2551 246
3929 2555 377
3820 2654 1225
3295 2915 2713
2145 2784 3467
3972 3650 159
3972 3689 281
3911 3689 1180
3528 3716 2208
2058 3627 3484
3667 1100 953
3699 1096 1062
3898 1323 1409
3983 1596 1958
3974 1823 2958
3878 1504 792
3883 1363 999
3927 1505 1518
3962 1826 2162
3986 1952 3093
3948 1908 481
3950 2006 839
3956 2110 1780
3940 2190 2468
3982 2189 3243
4020 2486 349
4024 2568 457
4016 2776 1584
4018 3070 2715
3947 2928 3406
4095 3672 159
4095 3676 282
4095 3521 1096
4093 3567 2084
4079 3741 3421
