src/luts/Mad_Max_Fury_Road_-_Rec709.3dl
# Created by Benjamin (IWLTBAP) : http://luts.iwltbap.com
# Copyright: (C) Copyright 2016 Triune Films and IWLTBAP
# Blockbuster LUTs Pack
0 64 128 192 256 320 384 448 512 576 640 704 768 832 896 960 1023
106 201 228
76 240 314
20 297 439
11 352 556
15 412 664
19 478 771
24 550 879
27 625 986
31 699 1092
35 771 1204
38 838 1315
42 906 1426
45 980 1541
48 1059 1656
52 1133 1760
59 1206 1861
68 1279 1964
120 318 232
72 310 318
25 333 416
2 383 539
7 442 651
13 509 761
18 582 870
23 657 979
27 731 1086
31 803 1199
36 873 1312
39 942 1426
43 1014 1539
47 1095 1657
50 1174 1770
56 1246 1871
66 1320 1974
138 471 241
89 466 317
8 446 461
0 445 542
0 480 631
4 537 741
11 609 854
17 685 965
22 765 1078
27 839 1195
32 911 1313
36 981 1428
40 1056 1544
44 1136 1665
47 1222 1790
52 1296 1897
62 1374 2007
194 636 222
175 619 267
27 641 441
0 589 593
0 579 663
0 611 744
1 655 834
6 719 942
14 793 1054
20 869 1176
25 942 1297
30 1011 1416
35 1087 1536
39 1168 1660
43 1258 1794
47 1339 1914
56 1419 2028
246 806 219
224 781 266
167 792 373
13 815 587
0 751 715
0 732 783
0 760 862
0 801 948
2 849 1037
8 905 1148
16 971 1271
23 1041 1392
28 1115 1513
33 1195 1637
38 1283 1772
42 1374 1910
47 1457 2031
286 963 213
268 947 263
247 943 329
136 989 520
2 984 734
0 922 842
0 894 905
0 914 980
0 955 1067
0 1000 1168
3 1043 1270
10 1088 1375
19 1144 1489
25 1224 1613
31 1309 1747
36 1403 1889
41 1491 2023
329 1117 209
317 1108 258
300 1096 302
230 1126 468
57 1209 698
0 1165 879
0 1100 967
0 1062 1029
0 1075 1114
0 1112 1211
0 1156 1311
0 1201 1412
3 1246 1512
13 1293 1619
21 1354 1737
28 1430 1866
33 1524 2010
364 1272 172
354 1266 233
337 1250 300
291 1257 428
161 1328 626
6 1425 877
0 1349 1015
0 1284 1117
0 1237 1184
0 1240 1266
0 1273 1359
0 1318 1457
0 1368 1560
0 1422 1667
5 1476 1783
15 1524 1898
24 1578 2015
389 1419 145
379 1414 217
360 1398 302
328 1378 397
223 1440 602
31 1549 808
0 1634 1050
10 1539 1189
0 1468 1285
0 1417 1346
0 1414 1421
0 1442 1510
0 1488 1612
0 1541 1720
0 1600 1837
1 1659 1955
8 1720 2079
434 1597 37
419 1584 120
381 1537 300
342 1502 410
263 1537 581
48 1636 768
0 1790 1035
0 1837 1243
1 1727 1369
0 1655 1457
0 1605 1511
0 1595 1583
0 1624 1676
0 1667 1780
0 1722 1895
0 1787 2017
0 1853 2137
503 1788 0
487 1785 31
433 1722 214
358 1629 437
281 1621 581
94 1720 762
0 1837 954
0 2039 1278
0 2029 1422
0 1918 1554
0 1847 1635
0 1800 1690
0 1788 1761
0 1810 1853
0 1857 1965
0 1915 2080
0 1978 2195
562 1964 0
546 1962 31
497 1930 157
380 1777 464
280 1704 608
105 1795 767
0 1904 936
0 2079 1207
0 2273 1490
0 2215 1631
0 2107 1745
0 2039 1817
0 2006 1883
0 1991 1953
0 2011 2044
0 2052 2149
0 2105 2253
627 2080 5
612 2078 43
573 2075 181
447 1999 430
276 1803 645
88 1854 781
0 1970 948
0 2084 1132
0 2336 1462
0 2480 1720
0 2393 1854
0 2291 1944
0 2229 2003
0 2204 2076
0 2192 2145
0 2205 2221
0 2242 2310
706 2194 75
691 2192 125
652 2192 255
537 2165 439
306 1984 669
48 1902 801
0 2017 971
0 2137 1151
0 2305 1366
0 2584 1714
0 2661 1982
0 2566 2065
0 2469 2130
0 2415 2182
0 2398 2244
0 2378 2298
0 2389 2372
816 2582 0
801 2580 31
755 2603 61
644 2518 254
448 2298 604
308 2204 754
85 2286 897
6 2393 1063
0 2491 1261
0 2665 1596
0 2854 1982
0 2840 2187
0 2737 2243
0 2649 2285
0 2601 2329
0 2579 2386
0 2553 2439
876 2874 0
861 2884 31
862 2906 61
844 2888 92
767 2841 188
667 2760 491
522 2776 789
314 2850 974
32 2922 1118
0 2985 1339
0 3082 1865
0 3124 2261
0 3026 2374
0 2907 2392
0 2824 2428
0 2779 2470
0 2747 2517
1040 3305 0
1043 3313 31
1056 3343 61
1063 3361 92
1057 3357 122
1037 3333 153
934 3308 459
740 3330 889
533 3361 1106
160 3395 1239
0 3434 1539
0 3422 2164
0 3327 2490
0 3203 2531
0 3079 2529
0 2996 2561
0 2947 2600
174 231 246
160 246 322
102 294 427
45 352 559
43 414 673
47 480 780
51 549 885
55 621 988
58 693 1091
62 763 1200
65 831 1310
68 899 1422
71 973 1535
74 1053 1650
78 1129 1757
84 1202 1857
93 1276 1958
211 309 255
141 313 324
82 349 434
37 400 561
39 453 667
43 513 771
47 580 875
51 652 979
55 724 1082
59 797 1196
63 866 1307
66 936 1420
70 1009 1535
73 1090 1652
76 1170 1766
82 1241 1865
91 1315 1967
234 490 240
161 471 335
57 454 465
33 464 562
33 501 655
36 556 762
41 623 873
46 699 982
50 775 1091
55 847 1206
59 915 1320
63 984 1433
67 1056 1547
70 1136 1667
74 1221 1790
78 1293 1894
87 1367 1998
284 675 199
228 667 291
109 638 407
34 607 601
30 602 684
30 636 768
32 679 859
38 740 966
44 810 1080
49 884 1201
53 954 1319
58 1024 1438
62 1097 1552
66 1177 1674
70 1265 1806
73 1347 1927
81 1423 2036
323 858 171
286 840 270
229 792 353
58 824 564
30 770 727
30 760 806
29 790 889
29 832 976
32 876 1067
39 923 1174
46 988 1297
51 1056 1416
56 1128 1535
60 1207 1659
65 1295 1795
69 1386 1934
73 1467 2053
366 1018 160
336 999 242
290 952 336
208 972 483
41 1013 723
30 946 856
30 926 931
29 948 1009
29 988 1103
29 1032 1204
32 1072 1303
40 1112 1407
47 1158 1510
53 1236 1634
58 1321 1767
63 1413 1910
67 1502 2045
403 1167 132
380 1151 211
338 1114 327
293 1113 421
121 1192 654
31 1200 872
30 1129 983
30 1099 1062
29 1111 1151
29 1147 1249
28 1191 1350
29 1237 1449
33 1280 1549
42 1320 1652
49 1371 1761
55 1442 1887
60 1535 2031
433 1318 81
413 1306 152
379 1275 309
351 1251 390
232 1306 589
48 1422 848
32 1386 1023
30 1313 1137
29 1277 1221
29 1280 1306
29 1312 1398
28 1357 1497
28 1406 1600
29 1458 1709
34 1510 1822
43 1550 1932
51 1597 2042
486 1480 19
457 1477 67
414 1442 257
374 1397 396
297 1416 553
86 1521 767
31 1649 1042
30 1577 1194
30 1501 1305
29 1461 1383
29 1456 1459
29 1485 1552
28 1531 1655
28 1582 1765
27 1639 1879
28 1698 1999
36 1757 2119
580 1644 0
548 1649 31
481 1648 109
396 1543 394
330 1516 534
137 1608 736
31 1758 989
38 1865 1244
30 1767 1380
30 1689 1481
29 1649 1551
29 1641 1626
28 1667 1719
28 1709 1825
28 1766 1941
27 1830 2062
27 1894 2180
673 1815 0
644 1820 31
573 1841 64
455 1736 318
350 1614 537
197 1688 724
32 1806 914
31 2013 1245
31 2065 1433
30 1954 1568
30 1878 1658
29 1845 1732
29 1835 1806
28 1857 1899
28 1902 2009
27 1958 2125
27 2017 2238
735 1998 0
708 1992 31
645 1983 62
532 1948 252
362 1750 573
206 1760 732
34 1876 903
31 2035 1159
31 2263 1478
31 2254 1638
30 2141 1763
29 2068 1840
29 2049 1925
28 2036 1997
28 2053 2086
28 2094 2191
27 2148 2292
804 2119 1
780 2113 34
725 2103 89
618 2087 282
414 1947 574
196 1824 749
33 1939 912
31 2052 1100
31 2290 1420
31 2488 1717
30 2433 1869
30 2324 1964
29 2258 2026
29 2244 2115
28 2233 2183
28 2245 2257
28 2281 2346
888 2246 44
866 2238 92
817 2230 173
709 2212 337
509 2152 569
184 1915 769
31 1985 932
31 2106 1121
31 2264 1330
31 2541 1660
31 2681 1994
30 2605 2082
30 2501 2151
29 2441 2200
29 2438 2275
28 2418 2330
28 2425 2404
987 2623 0
970 2626 31
921 2637 61
816 2646 93
629 2497 424
409 2253 714
197 2260 868
48 2369 1022
31 2472 1225
31 2633 1539
31 2841 1945
31 2869 2207
30 2775 2268
30 2678 2304
29 2624 2348
29 2614 2414
28 2585 2468
1058 2926 0
1047 2929 31
1005 2938 61
925 2942 92
855 2899 124
746 2819 406
613 2767 707
419 2834 943
122 2904 1090
32 2976 1290
31 3074 1791
31 3140 2204
30 3057 2397
30 2945 2415
30 2854 2447
29 2801 2487
29 2777 2543
1113 3347 0
1107 3352 31
1103 3366 61
1113 3393 92
1111 3396 122
1090 3366 153
1020 3316 318
830 3327 812
634 3357 1065
305 3389 1227
31 3436 1464
31 3431 2084
31 3378 2479
30 3236 2558
30 3113 2552
30 3022 2579
29 2971 2617
350 277 275
364 262 332
411 304 457
257 367 578
130 429 701
76 489 809
79 559 913
82 630 1014
85 698 1111
88 765 1215
92 832 1322
95 900 1429
97 971 1539
100 1050 1651
103 1126 1756
109 1198 1853
118 1272 1953
388 335 277
331 344 346
343 358 458
218 414 577
92 465 693
74 525 801
76 591 902
80 661 1002
83 730 1100
86 798 1206
90 865 1314
93 934 1423
96 1004 1534
99 1083 1647
102 1164 1760
107 1237 1860
116 1311 1961
466 451 255
388 457 341
298 459 460
166 497 594
74 544 710
71 586 803
73 641 898
76 707 997
79 776 1099
83 844 1208
87 910 1318
90 977 1428
93 1048 1539
97 1128 1658
100 1215 1783
104 1287 1886
112 1360 1988
493 653 240
418 652 317
321 648 443
109 635 627
70 635 724
67 665 803
68 709 895
70 768 1001
74 832 1109
78 901 1224
82 967 1336
85 1033 1448
89 1104 1560
93 1182 1681
96 1267 1809
100 1348 1928
106 1420 2032
533 849 206
468 849 269
377 852 378
165 846 532
70 801 749
65 787 836
62 818 920
63 859 1007
66 902 1100
71 951 1213
75 1008 1329
80 1073 1446
84 1143 1562
88 1220 1685
91 1306 1816
95 1396 1952
99 1478 2070
569 1042 167
517 1043 215
426 1042 304
299 1004 452
95 1028 699
64 978 877
60 957 959
59 980 1042
58 1020 1140
60 1062 1240
65 1096 1336
71 1129 1433
77 1177 1538
81 1251 1661
86 1335 1796
90 1428 1941
93 1521 2079
606 1205 134
562 1217 151
471 1229 189
366 1175 409
217 1171 608
68 1233 871
60 1161 1004
59 1135 1098
58 1147 1191
57 1182 1289
57 1223 1387
59 1267 1485
65 1305 1581
72 1335 1675
78 1382 1782
83 1454 1911
87 1551 2060
668 1361 83
621 1367 100
528 1388 113
419 1348 354
322 1289 539
102 1401 805
64 1426 1028
60 1349 1162
59 1317 1261
58 1319 1345
57 1350 1437
57 1392 1536
56 1439 1638
58 1488 1746
63 1535 1855
73 1566 1957
78 1607 2062
753 1527 35
710 1532 53
623 1555 67
491 1553 209
376 1421 509
172 1493 727
61 1646 1022
67 1619 1214
60 1538 1333
59 1504 1424
58 1499 1501
57 1524 1593
56 1567 1695
56 1617 1804
55 1671 1919
57 1732 2038
66 1786 2156
848 1692 5
804 1696 31
727 1720 61
594 1731 114
425 1597 465
260 1574 685
62 1723 942
61 1880 1240
62 1812 1395
60 1727 1510
58 1695 1594
58 1683 1668
57 1706 1760
56 1749 1867
55 1804 1984
55 1864 2101
54 1926 2218
933 1865 0
896 1871 31
826 1884 61
705 1880 96
511 1806 378
316 1662 670
87 1775 878
61 1974 1198
61 2098 1442
61 1999 1587
59 1913 1685
58 1889 1774
57 1879 1849
56 1899 1942
56 1941 2051
55 1995 2164
54 2054 2274
1003 2032 0
960 2030 31
897 2030 61
791 2015 110
598 1976 363
342 1776 673
101 1843 862
61 1995 1113
61 2238 1453
67 2292 1655
60 2181 1783
59 2099 1865
58 2087 1963
57 2079 2041
56 2092 2128
55 2132 2227
55 2181 2325
1069 2162 0
1035 2159 32
978 2158 65
879 2142 161
694 2112 393
389 1942 682
103 1899 866
61 2023 1068
61 2244 1375
61 2474 1696
61 2470 1891
60 2359 1987
59 2285 2049
58 2280 2148
57 2271 2216
56 2280 2288
55 2313 2376
1148 2302 26
1116 2296 63
1064 2291 116
972 2275 234
796 2243 432
500 2135 695
106 1959 882
61 2073 1086
61 2226 1296
61 2495 1615
61 2688 1983
61 2646 2104
59 2537 2175
58 2469 2222
57 2468 2300
57 2451 2359
56 2456 2431
1232 2665 0
1205 2675 31
1154 2688 61
1057 2697 92
901 2691 145
633 2507 551
357 2270 822
106 2348 978
61 2456 1184
61 2608 1475
61 2817 1887
61 2899 2223
60 2816 2293
59 2712 2327
58 2650 2367
58 2648 2441
57 2619 2495
1286 2994 0
1267 2984 31
1236 2975 61
1172 2973 92
1045 2986 122
853 2906 287
725 2806 604
543 2822 887
232 2897 1060
66 2970 1254
61 3066 1699
61 3146 2167
61 3095 2420
60 2988 2445
59 2885 2468
58 2825 2505
58 2809 2568
1356 3397 1
1340 3394 31
1310 3399 61
1246 3412 92
1174 3437 122
1155 3421 153
1107 3361 210
953 3333 659
733 3358 1016
455 3387 1208
61 3436 1407
61 3443 1986
61 3415 2420
61 3275 2586
60 3150 2580
59 3054 2600
58 2993 2634
549 342 311
543 313 353
638 348 451
695 389 583
551 440 732
338 508 867
164 583 980
110 647 1070
112 710 1157
115 779 1258
118 845 1357
121 912 1460
123 983 1565
126 1059 1676
128 1138 1783
133 1209 1876
142 1284 1977
575 387 320
538 399 378
587 396 459
667 435 593
498 483 738
288 549 862
128 616 967
109 679 1054
111 747 1148
114 814 1248
117 878 1347
120 944 1450
122 1015 1557
125 1091 1670
128 1172 1780
132 1242 1875
