src/luts/Minority_Report_-_Rec709.3dl
# Created by Benjamin (IWLTBAP) : http://luts.iwltbap.com
# Copyright: (C) Copyright 2016 Triune Films and IWLTBAP
# Blockbuster LUTs Pack
0 64 128 192 256 320 384 448 512 576 640 704 768 832 896 960 1023
39 56 107
41 66 194
43 86 332
47 123 493
49 182 656
53 237 819
67 302 990
85 367 1165
97 426 1335
123 488 1514
161 551 1687
198 603 1849
217 659 2015
242 728 2204
263 803 2415
292 884 2645
322 966 2887
43 178 129
45 152 224
49 175 355
55 230 514
62 289 675
69 347 841
77 408 1012
88 467 1185
101 530 1360
127 595 1541
165 654 1711
201 706 1873
224 763 2040
247 832 2234
267 906 2450
299 990 2687
324 1075 2929
54 343 150
57 330 257
63 325 410
68 351 545
73 395 691
83 450 854
93 511 1029
100 570 1204
113 632 1384
135 699 1565
166 760 1736
198 815 1903
218 872 2080
251 940 2280
276 1015 2506
303 1097 2743
322 1181 2990
67 512 178
72 507 276
84 533 481
87 512 606
92 530 742
99 572 893
111 626 1056
121 679 1223
133 739 1403
146 802 1582
164 867 1754
180 920 1922
204 976 2102
241 1044 2305
272 1116 2534
299 1198 2778
303 1284 3031
85 688 208
89 683 302
104 720 497
115 722 684
118 707 812
124 725 956
133 768 1115
145 816 1279
155 864 1444
164 917 1608
175 972 1774
186 1025 1944
199 1083 2127
228 1147 2331
262 1218 2558
275 1298 2801
285 1382 3053
103 863 250
110 867 346
122 894 510
143 945 750
150 928 918
152 909 1037
157 922 1181
168 959 1341
179 1007 1503
191 1058 1669
199 1105 1834
210 1158 2005
219 1210 2185
233 1268 2379
249 1332 2593
265 1401 2826
279 1481 3079
126 1047 301
131 1050 395
140 1062 524
162 1113 756
184 1168 1023
185 1136 1157
187 1114 1275
194 1123 1419
202 1157 1572
213 1201 1732
224 1248 1899
235 1301 2076
246 1356 2266
262 1419 2475
273 1480 2692
287 1542 2920
302 1608 3147
149 1224 347
153 1226 444
158 1224 550
179 1271 773
208 1355 1049
227 1388 1282
226 1350 1406
225 1324 1523
229 1327 1658
239 1355 1807
250 1397 1969
260 1444 2151
273 1505 2354
288 1568 2572
302 1627 2799
317 1692 3033
331 1760 3260
170 1387 395
175 1391 496
179 1388 604
196 1416 793
223 1496 1048
258 1613 1369
265 1605 1539
264 1563 1657
263 1532 1771
266 1530 1901
278 1559 2062
287 1601 2243
301 1660 2453
316 1719 2682
329 1776 2907
344 1842 3137
358 1914 3364
190 1551 435
196 1553 542
201 1544 664
211 1552 820
240 1634 1079
273 1751 1367
306 1854 1660
305 1817 1788
305 1777 1913
304 1751 2041
309 1750 2189
320 1780 2368
332 1829 2575
344 1880 2796
357 1935 3022
373 2002 3251
390 2076 3451
212 1741 469
219 1741 576
221 1694 717
228 1681 862
256 1763 1117
285 1870 1371
328 2031 1707
349 2087 1941
347 2040 2065
346 2000 2200
348 1981 2347
355 1990 2526
364 2018 2723
371 2052 2928
387 2108 3150
403 2177 3356
435 2244 3510
239 1932 528
247 1940 637
245 1874 782
247 1816 923
272 1886 1157
300 1993 1402
340 2150 1708
381 2316 2057
390 2327 2237
386 2273 2370
386 2231 2513
389 2218 2685
397 2231 2887
405 2254 3081
418 2302 3267
453 2356 3424
503 2416 3559
274 2103 601
282 2111 710
275 2083 847
267 1964 995
286 2002 1197
316 2120 1446
349 2256 1709
394 2454 2063
428 2601 2406
431 2578 2555
427 2517 2696
426 2473 2848
431 2466 3025
446 2488 3210
465 2509 3349
515 2551 3478
571 2603 3603
315 2263 684
322 2272 793
313 2259 921
293 2152 1077
300 2113 1241
330 2241 1487
361 2370 1729
401 2558 2042
447 2783 2460
472 2885 2753
471 2835 2882
471 2769 3016
476 2728 3139
509 2732 3273
552 2751 3406
586 2769 3523
633 2808 3639
340 2556 718
343 2588 816
335 2571 960
326 2430 1140
334 2400 1294
362 2519 1530
394 2665 1785
425 2817 2050
468 3009 2456
515 3169 2865
547 3166 3026
555 3094 3127
568 3028 3233
593 2998 3343
626 3000 3459
654 3001 3569
686 3020 3680
353 2882 742
361 2921 837
365 2935 937
376 2926 1130
383 2903 1305
408 2987 1566
438 3093 1840
466 3201 2110
497 3328 2458
563 3447 2862
654 3483 3119
665 3434 3227
670 3348 3326
682 3282 3427
703 3262 3530
723 3253 3627
748 3248 3725
410 3411 872
419 3447 963
426 3476 1052
428 3482 1135
429 3469 1215
456 3512 1548
483 3577 1877
511 3627 2184
538 3661 2486
624 3697 2829
775 3721 3135
825 3675 3325
790 3614 3415
780 3545 3508
784 3496 3598
800 3475 3693
806 3454 3778
97 62 105
106 73 218
107 93 351
120 130 507
134 189 671
149 245 833
165 309 1003
182 373 1175
193 429 1343
218 492 1515
252 558 1690
286 615 1856
307 670 2021
330 736 2206
352 809 2414
381 888 2642
408 973 2886
101 166 129
103 158 240
110 198 386
118 254 547
130 309 703
145 364 866
162 423 1035
178 482 1205
191 541 1374
220 605 1552
258 668 1726
289 723 1889
311 780 2055
337 844 2245
358 916 2459
384 999 2699
408 1085 2943
109 353 148
115 340 273
120 342 429
126 376 575
130 423 725
146 480 892
167 538 1064
171 593 1238
191 653 1412
222 720 1592
258 780 1762
290 834 1928
316 889 2100
340 954 2295
361 1026 2518
387 1108 2762
405 1194 3010
122 541 165
130 546 306
136 542 469
143 539 632
148 564 778
158 609 934
170 661 1097
181 708 1260
195 763 1434
223 825 1610
251 888 1781
277 940 1948
298 994 2127
331 1060 2329
361 1132 2558
386 1212 2805
403 1297 3063
138 719 195
146 725 336
153 719 482
171 756 703
174 740 843
181 762 996
191 806 1159
203 853 1325
212 899 1486
228 950 1648
241 1002 1810
265 1048 1973
284 1103 2153
315 1165 2355
351 1235 2584
378 1314 2829
379 1397 3084
156 896 243
165 901 369
170 894 491
191 946 716
205 963 937
208 948 1072
215 963 1225
225 998 1386
235 1046 1550
247 1096 1716
256 1144 1880
272 1195 2054
283 1246 2237
314 1300 2435
338 1360 2643
351 1425 2867
360 1497 3108
177 1072 294
184 1075 410
190 1069 521
209 1111 730
234 1180 1008
241 1171 1184
244 1153 1314
251 1164 1466
259 1198 1621
270 1243 1783
281 1290 1952
292 1342 2134
304 1396 2331
324 1458 2544
338 1517 2755
350 1579 2983
364 1646 3210
199 1240 341
205 1245 459
211 1245 575
225 1266 746
250 1336 1005
280 1418 1297
281 1385 1435
282 1363 1563
286 1370 1707
296 1399 1861
307 1441 2028
317 1488 2215
330 1548 2423
345 1608 2643
359 1670 2870
374 1734 3100
388 1805 3324
219 1407 383
226 1415 501
232 1411 630
241 1413 768
267 1483 1019
302 1600 1328
321 1646 1567
319 1598 1685
319 1572 1809
324 1577 1957
335 1606 2123
345 1648 2309
359 1706 2525
373 1764 2753
387 1823 2980
403 1892 3208
416 1962 3420
245 1582 404
248 1599 520
254 1575 676
258 1554 801
285 1622 1046
314 1725 1320
354 1863 1650
360 1859 1819
359 1813 1942
360 1790 2080
368 1802 2254
378 1830 2437
389 1876 2647
401 1928 2867
416 1988 3097
431 2055 3318
452 2124 3494
278 1757 449
277 1785 553
277 1763 706
279 1702 860
298 1747 1076
327 1849 1336
368 2000 1653
401 2118 1960
402 2085 2097
401 2039 2233
402 2019 2388
413 2044 2599
421 2067 2791
429 2103 2996
445 2162 3214
467 2227 3399
512 2293 3545
305 1952 513
306 1969 619
305 1966 763
301 1861 929
314 1869 1118
343 1977 1377
379 2113 1652
424 2301 2021
444 2371 2273
441 2320 2407
440 2271 2550
443 2256 2723
454 2286 2950
462 2309 3139
477 2352 3312
525 2408 3459
580 2468 3590
340 2117 595
345 2133 700
343 2139 837
326 2053 997
330 1992 1168
358 2097 1416
390 2223 1667
433 2414 2008
475 2606 2396
486 2629 2598
481 2565 2736
479 2514 2882
486 2508 3056
511 2544 3247
542 2565 3381
589 2603 3508
642 2655 3629
381 2278 680
385 2297 787
383 2301 919
360 2263 1071
347 2120 1220
372 2216 1455
403 2348 1705
440 2516 1992
487 2741 2394
523 2912 2771
527 2890 2914
529 2818 3041
535 2771 3157
571 2771 3288
620 2804 3431
656 2822 3548
698 2858 3663
408 2582 713
411 2617 815
401 2646 938
386 2546 1127
383 2426 1282
404 2502 1497
438 2648 1758
468 2797 2014
507 2978 2381
558 3164 2819
612 3213 3045
623 3154 3144
634 3081 3248
653 3037 3355
686 3038 3471
722 3055 3594
749 3064 3704
428 2899 738
429 2937 841
418 2978 941
425 2969 1105
434 2945 1294
452 2984 1522
482 3094 1800
510 3199 2079
539 3317 2397
594 3438 2802
704 3507 3106
729 3471 3243
733 3399 3340
741 3323 3439
761 3296 3543
784 3293 3644
811 3295 3746
459 3434 877
468 3464 975
476 3505 1067
480 3517 1152
481 3509 1233
497 3522 1464
527 3581 1824
555 3631 2143
580 3666 2451
650 3700 2775
809 3730 3091
908 3716 3330
876 3649 3428
840 3579 3518
847 3523 3607
862 3498 3700
880 3488 3795
217 76 113
251 80 238
276 98 389
264 145 547
279 202 703
299 258 860
318 323 1029
330 384 1197
324 436 1360
328 494 1526
352 561 1692
377 623 1857
397 681 2025
418 742 2206
441 814 2411
466 894 2634
495 977 2875
213 160 115
236 188 270
262 216 427
264 273 581
271 322 731
287 377 891
302 437 1060
314 495 1226
309 550 1385
318 609 1551
349 673 1725
375 733 1891
398 790 2056
421 851 2241
446 920 2453
471 1001 2686
492 1088 2930
186 331 138
210 348 296
237 361 462
247 408 618
256 462 781
262 517 945
273 572 1112
275 625 1276
280 678 1439
315 740 1614
348 800 1783
376 856 1950
404 910 2120
430 971 2310
450 1040 2531
474 1122 2779
489 1208 3027
203 530 167
208 556 329
222 563 499
236 568 666
243 600 822
243 642 978
242 691 1140
256 744 1314
275 799 1485
313 858 1655
347 916 1823
376 968 1993
401 1018 2168
425 1081 2366
452 1152 2595
475 1231 2850
489 1318 3108
217 729 193
219 751 340
223 771 515
228 781 706
236 773 882
242 797 1041
252 841 1204
265 885 1368
280 929 1527
306 979 1687
332 1028 1848
356 1075 2012
380 1126 2192
410 1188 2394
444 1257 2622
471 1335 2872
481 1417 3131
230 926 234
233 947 357
232 967 522
240 949 699
260 1000 958
265 986 1113
273 1003 1274
282 1038 1437
295 1084 1601
309 1131 1763
324 1176 1924
343 1224 2095
367 1272 2279
399 1322 2473
435 1381 2684
457 1446 2909
456 1517 3148
254 1107 289
250 1129 390
249 1141 547
257 1113 709
281 1180 972
298 1214 1219
301 1193 1357
309 1207 1518
316 1240 1675
328 1284 1839
337 1330 2006
352 1379 2191
370 1429 2391
393 1487 2602
413 1545 2807
425 1604 3030
439 1673 3255
275 1268 326
275 1294 435
269 1314 584
274 1275 737
296 1328 976
329 1431 1289
338 1428 1474
338 1403 1606
344 1415 1762
354 1444 1921
364 1485 2091
374 1530 2280
387 1586 2491
401 1643 2709
416 1706 2931
431 1771 3156
450 1838 3370
305 1434 365
304 1461 472
292 1499 600
295 1445 785
311 1473 993
345 1578 1283
374 1681 1588
376 1642 1723
376 1612 1853
383 1627 2021
392 1652 2188
403 1694 2379
415 1747 2593
429 1804 2816
444 1865 3046
459 1933 3267
472 1999 3463
341 1602 410
339 1628 509
326 1675 623
318 1629 822
329 1612 1014
356 1704 1280
398 1852 1618
417 1908 1859
414 1857 1983
416 1833 2130
426 1852 2323
435 1876 2506
445 1919 2715
457 1971 2934
472 2033 3160
489 2100 3366
519 2167 3527
374 1784 459
372 1807 556
363 1844 673
344 1829 850
343 1744 1042
371 1835 1309
407 1968 1601
449 2129 1956
458 2136 2140
457 2084 2278
458 2062 2440
470 2094 2667
477 2113 2854
485 2151 3057
501 2211 3266
532 2272 3434
587 2337 3574
403 1982 519
402 1997 621
396 2010 747
378 2008 912
361 1889 1092
385 1958 1344
418 2082 1608
463 2268 1966
497 2407 2304
498 2375 2453
495 2318 2600
498 2296 2769
510 2334 3003
519 2357 3187
540 2402 3350
594 2454 3487
651 2515 3617
435 2150 598
436 2161 699
434 2179 826
416 2175 986
387 2065 1158
399 2074 1380
432 2202 1640
472 2372 1952
519 2588 2360
541 2680 2647
537 2621 2783
534 2559 2923
540 2546 3085
575 2593 3278
616 2615 3409
660 2650 3534
708 2702 3654
470 2320 680
475 2335 784
472 2353 912
455 2348 1067
422 2266 1232
414 2196 1420
446 2329 1681
480 2477 1950
526 2700 2330
570 2914 2756
583 2945 2951
592 2873 3067
596 2819 3180
633 2812 3307
688 2855 3456
723 2870 3571
760 2900 3685
497 2645 700
501 2669 804
497 2712 928
471 2731 1079
444 2564 1285
449 2506 1466
482 2638 1727
512 2787 1992
548 2954 2316
594 3138 2755
673 3260 3057
693 3216 3164
702 3138 3266
716 3082 3371
746 3077 3487
787 3104 3618
812 3111 3726
528 2958 757
529 2977 847
525 3021 953
483 3049 1056
487 3020 1278
498 3008 1479
526 3100 1758
555 3206 2047
583 3314 2350
627 3435 2744
743 3520 3075
795 3509 3261
798 3450 3355
804 3370 3454
821 3330 3556
842 3321 3659
871 3332 3768
533 3477 886
533 3500 981
528 3538 1082
533 3571 1172
535 3565 1255
541 3550 1388
571 3594 1757
600 3641 2098
623 3674 2421
684 3707 2721
837 3739 3040
976 3748 3319
966 3686 3442
924 3617 3529
912 3552 3618
925 3519 3710
945 3510 3805
388 102 151
420 99 269
457 122 416
504 164 580
495 213 751
484 271 911
499 337 1070
510 398 1233
514 460 1403
523 517 1566
536 575 1722
546 634 1877
546 693 2038
544 756 2214
539 820 2409
553 898 2626
576 982 2861
381 205 157
408 231 305
450 244 449
499 291 619
479 341 786
477 400 943
492 461 1102
499 519 1267
500 578 1430
508 631 1586
522 687 1743
528 746 1901
527 803 2066
526 861 2243
534 925 2446
557 1004 2672
