src/luts/Minority_Report_-_Rec709.3dl
# Created by Benjamin (IWLTBAP) : http://luts.iwltbap.com
# Copyright: (C) Copyright 2016 Triune Films and IWLTBAP
# Blockbuster LUTs Pack
0 128 256 384 512 640 768 896 1023
39 56 107
43 86 332
49 182 656
67 302 990
97 426 1335
161 551 1687
217 659 2015
263 803 2415
322 966 2887
54 343 150
63 325 410
73 395 691
93 511 1029
113 632 1384
166 760 1736
218 872 2080
276 1015 2506
322 1181 2990
85 688 208
104 720 497
118 707 812
133 768 1115
155 864 1444
175 972 1774
199 1083 2127
262 1218 2558
285 1382 3053
126 1047 301
140 1062 524
184 1168 1023
187 1114 1275
202 1157 1572
224 1248 1899
246 1356 2266
273 1480 2692
302 1608 3147
170 1387 395
179 1388 604
223 1496 1048
265 1605 1539
263 1532 1771
278 1559 2062
301 1660 2453
329 1776 2907
358 1914 3364
212 1741 469
221 1694 717
256 1763 1117
328 2031 1707
347 2040 2065
348 1981 2347
364 2018 2723
387 2108 3150
435 2244 3510
274 2103 601
275 2083 847
286 2002 1197
349 2256 1709
428 2601 2406
427 2517 2696
431 2466 3025
465 2509 3349
571 2603 3603
340 2556 718
335 2571 960
334 2400 1294
394 2665 1785
468 3009 2456
547 3166 3026
568 3028 3233
626 3000 3459
686 3020 3680
410 3411 872
426 3476 1052
429 3469 1215
483 3577 1877
538 3661 2486
775 3721 3135
790 3614 3415
784 3496 3598
806 3454 3778
217 76 113
276 98 389
279 202 703
318 323 1029
324 436 1360
352 561 1692
397 681 2025
441 814 2411
495 977 2875
186 331 138
237 361 462
256 462 781
273 572 1112
280 678 1439
348 800 1783
404 910 2120
450 1040 2531
489 1208 3027
217 729 193
223 771 515
236 773 882
252 841 1204
280 929 1527
332 1028 1848
380 1126 2192
444 1257 2622
481 1417 3131
254 1107 289
249 1141 547
281 1180 972
301 1193 1357
316 1240 1675
337 1330 2006
370 1429 2391
413 1545 2807
439 1673 3255
305 1434 365
292 1499 600
311 1473 993
374 1681 1588
376 1612 1853
392 1652 2188
415 1747 2593
444 1865 3046
472 1999 3463
374 1784 459
363 1844 673
343 1744 1042
407 1968 1601
458 2136 2140
458 2062 2440
477 2113 2854
501 2211 3266
587 2337 3574
435 2150 598
434 2179 826
387 2065 1158
432 2202 1640
519 2588 2360
537 2621 2783
540 2546 3085
616 2615 3409
708 2702 3654
497 2645 700
497 2712 928
444 2564 1285
482 2638 1727
548 2954 2316
673 3260 3057
702 3138 3266
746 3077 3487
812 3111 3726
533 3477 886
528 3538 1082
535 3565 1255
571 3594 1757
623 3674 2421
837 3739 3040
966 3686 3442
912 3552 3618
945 3510 3805
568 147 178
651 163 457
747 253 781
737 345 1126
702 475 1452
732 590 1761
758 714 2087
753 847 2443
725 994 2859
595 379 185
628 445 523
742 513 869
686 614 1210
678 736 1529
702 836 1831
705 942 2148
691 1059 2528
670 1207 2985
594 697 233
648 766 542
655 854 1004
586 933 1330
590 1031 1659
590 1108 1970
594 1191 2306
640 1309 2730
668 1475 3245
598 1091 326
617 1158 591
469 1273 965
444 1286 1470
471 1327 1792
486 1400 2114
553 1474 2476
612 1570 2875
641 1697 3317
623 1470 403
618 1536 658
505 1639 995
470 1686 1552
491 1710 1972
508 1746 2332
534 1824 2732
557 1932 3153
619 2053 3516
640 1830 510
629 1881 753
572 1973 1058
502 1955 1539
571 2237 2238
571 2160 2573
587 2200 2980
617 2291 3346
722 2410 3616
648 2187 648
648 2227 877
633 2306 1163
553 2241 1599
596 2505 2233
650 2746 2891
658 2642 3164
746 2693 3452
831 2776 3689
702 2708 692
705 2773 924
687 2934 1230
585 2755 1647
636 2943 2245
753 3275 3009
839 3258 3310
869 3155 3527
934 3188 3764
776 3569 905
775 3593 1088
746 3658 1283
663 3674 1622
715 3707 2330
904 3761 2931
1140 3770 3466
1059 3618 3642
1079 3556 3830
962 249 236
1046 243 502
1157 339 824
1263 453 1173
1208 544 1487
1238 631 1826
1204 751 2171
1173 887 2511
1170 1031 2905
981 485 241
1045 538 537
1179 584 898
1266 700 1249
1214 782 1577
1210 864 1923
1150 983 2258
1139 1109 2610
1122 1247 3017
1049 746 245
1094 803 528
1162 929 1043
1229 997 1403
1174 1060 1753
1112 1162 2083
1088 1261 2417
1070 1366 2789
1035 1502 3264
1073 1096 324
1126 1159 600
1181 1274 1044
1132 1394 1612
1082 1454 1980
1061 1520 2334
1017 1582 2685
920 1648 3058
896 1785 3491
1143 1524 390
1167 1576 617
1192 1676 1084
993 1803 1570
911 1851 2167
964 1869 2540
907 1922 2906
789 1976 3245
837 2065 3539
1152 1916 504
1188 1960 787
1207 2035 1188
1021 2162 1591
739 2255 2232
714 2281 2739
717 2291 3113
746 2353 3399
856 2455 3650
1148 2276 629
1194 2326 922
1208 2389 1264
1073 2509 1648
774 2517 2197
765 2845 2973
799 2754 3238
866 2755 3487
947 2835 3716
1080 2855 735
1084 2851 917
1056 2973 1261
920 3173 1653
784 3141 2182
813 3251 2907
972 3374 3359
995 3245 3570
1046 3245 3792
994 3604 899
993 3656 1092
984 3705 1293
962 3912 1590
837 3810 2141
990 3789 2856
1263 3827 3423
1243 3704 3674
1222 3610 3855
1351 365 353
1410 344 609
1580 438 928
1682 519 1237
1780 625 1531
1735 720 1820
1711 822 2135
1726 964 2538
1662 1080 3056
1380 594 353
1441 614 589
1611 665 971
1691 769 1303
1794 873 1603
1734 966 1907
1710 1056 2237
1739 1168 2668
1607 1290 3178
1478 874 381
1491 909 570
1602 976 1058
1691 1067 1440
1795 1160 1749
1722 1231 2072
1721 1302 2452
1642 1379 2902
1543 1526 3358
1566 1152 397
1613 1203 598
1658 1308 1034
1677 1470 1675
1766 1518 2005
1708 1549 2370
1646 1612 2804
1539 1727 3236
1505 1856 3575
1619 1555 446
1650 1614 654
1691 1723 1067
1713 1855 1650
1706 1973 2322
1649 2010 2774
1576 2072 3168
1511 2128 3451
1492 2208 3687
1616 2032 534
1645 2071 731
1693 2151 1040
1713 2282 1679
1631 2396 2300
1505 2480 2981
1519 2465 3272
1500 2495 3505
1470 2545 3719
1638 2448 623
1667 2504 824
1711 2579 1264
1729 2647 1765
1664 2775 2295
1337 2899 2986
1341 2936 3344
1391 2890 3560
1348 2927 3767
1617 3013 761
1636 3057 959
1658 3117 1295
1654 3244 1767
1552 3423 2259
1113 3435 2875
1131 3469 3398
1158 3344 3617
1201 3309 3821
1578 3650 910
1586 3705 1103
1559 3751 1303
1450 3901 1679
1473 3990 2300
1309 3971 2732
1345 3865 3323
1382 3795 3704
1363 3667 3882
1769 465 497
1812 454 736
1977 517 980
2104 607 1309
2215 682 1580
2334 791 1835
2289 880 2173
2242 1017 2652
2266 1144 3199
1800 696 506
1858 701 739
2033 741 1032
2121 844 1375
2238 921 1653
2353 1029 1916
2288 1110 2281
2252 1241 2770
2308 1342 3354
1905 994 508
1904 1019 699
2041 1019 1093
2159 1122 1503
2257 1208 1793
2353 1297 2079
2264 1395 2505
2274 1462 2984
2243 1553 3520
2040 1284 536
2065 1324 724
2091 1415 1077
2175 1535 1702
2267 1595 2059
2341 1656 2406
2303 1696 2828
2277 1743 3335
2116 1822 3617
2106 1595 494
2143 1644 707
2171 1718 985
2231 1894 1701
2275 2069 2427
2354 2091 2799
2297 2087 3205
2208 2134 3490
2172 2257 3771
2103 2078 584
2139 2128 795
2164 2195 1006
2220 2354 1648
2313 2505 2364
2355 2632 3050
2348 2646 3358
2303 2681 3612
2238 2733 3841
2067 2609 676
2093 2656 877
2131 2717 1083
2225 2844 1717
2295 2966 2404
2334 3064 3009
2296 3165 3422
2261 3101 3648
2207 3114 3854
2065 3130 774
2098 3178 974
2137 3253 1275
2197 3381 1874
2255 3463 2447
2299 3564 2893
2108 3575 3385
2147 3494 3694
2179 3434 3886
2063 3695 912
2094 3731 1112
2099 3767 1318
2190 3857 1899
2351 3969 2419
2406 4016 2840
1960 4006 3265
1775 3924 3760
1945 3784 3941
2241 581 645
2285 576 875
2387 617 1083
2565 706 1406
2676 776 1664
2788 871 1907
2882 962 2297
2852 1107 2845
2827 1205 3364
2269 812 633
2328 813 869
2418 838 1108
2597 938 1461
2703 1016 1733
2802 1102 1999
2900 1197 2426
2859 1328 2965
2877 1403 3444
2369 1122 610
2383 1135 810
2478 1090 1125
2631 1186 1546
2730 1284 1873
2811 1359 2174
2917 1479 2670
2866 1557 3148
2965 1610 3564
2506 1417 621
2525 1449 808
2549 1513 1124
2676 1575 1742
2790 1640 2130
2845 1738 2516
2944 1803 2970
2939 1822 3345
2993 1893 3699
2585 1687 581
2639 1738 781
2640 1806 994
2737 2012 1754
2853 2155 2479
2902 2209 2905
3010 2214 3210
3069 2201 3520
2962 2272 3789
2612 2077 611
2664 2124 824
2700 2170 1033
2783 2331 1679
2898 2567 2473
2992 2745 3088
3117 2739 3357
3107 2721 3623
3035 2765 3848
2587 2684 712
2619 2725 917
2658 2764 1121
2710 2862 1556
2851 3044 2315
3046 3209 2987
3166 3297 3452
3112 3287 3699
3080 3293 3922
2494 3245 805
2539 3271 999
2599 3321 1201
2707 3457 1828
2878 3529 2513
3058 3581 2987
3083 3645 3386
3015 3623 3752
2992 3585 3946
2517 3708 906
2560 3742 1107
2601 3779 1313
2824 3859 1991
2993 3915 2554
3030 3988 2936
2986 4037 3309
2739 4017 3726
2820 3898 3990
2789 697 779
2815 692 1008
2877 719 1204
3082 787 1487
3185 882 1775
3257 953 2045
3349 1040 2474
3430 1201 3087
3492 1280 3502
2808 924 746
2865 925 986
2910 939 1228
3123 1012 1535
3219 1120 1843
3279 1186 2134
3379 1290 2591
3464 1422 3200
3551 1491 3554
2901 1275 694
2929 1262 911
2973 1211 1191
3171 1271 1606
3256 1379 1961
3304 1453 2309
3398 1557 2798
3534 1652 3313
3597 1701 3639
3024 1562 670
3033 1590 863
3058 1625 1142
3206 1638 1752
3306 1678 2144
3378 1820 2638
3433 1888 3056
3605 1930 3433
3602 1960 3739
3111 1847 633
3146 1888 830
3137 1942 1050
3270 2129 1803
3416 2194 2487
3464 2258 2934
3526 2328 3247
3643 2317 3554
3597 2353 3832
3154 2166 678
3237 2215 895
3249 2267 1098
3321 2439 1711
3460 2707 2547
3561 2825 3087
3563 2875 3378
3648 2865 3638
3630 2875 3900
3154 2617 734
3211 2666 948
3246 2700 1159
3309 2789 1555
3483 3020 2401
3591 3258 3042
3600 3340 3473
3628 3305 3713
3615 3294 3932
3114 3313 838
3173 3338 1035
3235 3360 1237
3259 3394 1460
3436 3503 2226
3563 3576 2846
3602 3655 3357
3628 3712 3768
3624 3715 3966
3031 3777 926
3069 3793 1122
3137 3810 1349
3392 3874 2048
3466 3920 2572
3522 3960 2992
3543 4001 3370
3587 4049 3723
3566 3982 4004
3369 809 878
3395 804 1118
3449 832 1308
3602 893 1553
3671 1008 1893
3697 1082 2272
3755 1179 2730
3777 1321 3265
3873 1409 3635
3379 1041 849
3442 1050 1094
3499 1048 1344
3655 1115 1610
3700 1238 1977
3720 1323 2381
3771 1424 2841
3815 1545 3315
3896 1632 3680
3422 1384 755
3481 1374 1006
3536 1339 1278
3697 1358 1684
3728 1486 2077
3762 1614 2574
3782 1698 3015
3846 1784 3384
3928 1883 3741
3486 1675 687
3509 1714 870
3592 1758 1170
3749 1749 1801
3781 1785 2242
3797 1942 2791
3821 2031 3178
3876 2091 3466
3952 2214 3805
3476 1950 648
3545 2004 868
3587 2072 1091
3773 2236 1853
3880 2263 2513
3855 2335 2977
3868 2481 3320
3908 2557 3565
3972 2622 3871
3482 2245 700
3548 2295 918
3603 2376 1148
3751 2558 1784
3902 2803 2590
3915 2915 3094
3891 2996 3402
3923 3008 3644
3991 2966 3919
3467 2621 751
3519 2666 962
3565 2719 1186
3693 2875 1685
3864 3123 2482
3920 3322 3077
3945 3372 3477
3941 3373 3727
3992 3327 3956
3449 3198 833
3507 3223 1029
3554 3254 1234
3683 3387 1856
3829 3473 2530
3881 3560 3008
3944 3672 3427
3962 3733 3772
3970 3716 3989
3422 3736 921
3494 3759 1126
3602 3800 1481
3725 3856 2063
3784 3913 2542
3833 3942 2956
3883 3986 3360
3946 4011 3727
3983 4037 4014
