src/luts/Minority_Report_-_Rec709.3dl
# Created by Benjamin (IWLTBAP) : http://luts.iwltbap.com
# Copyright: (C) Copyright 2016 Triune Films and IWLTBAP
# Blockbuster LUTs Pack
0 256 512 768 1023
39 56 107
49 182 656
97 426 1335
217 659 2015
322 966 2887
85 688 208
118 707 812
155 864 1444
199 1083 2127
285 1382 3053
170 1387 395
223 1496 1048
263 1532 1771
301 1660 2453
358 1914 3364
274 2103 601
286 2002 1197
428 2601 2406
431 2466 3025
571 2603 3603
410 3411 872
429 3469 1215
538 3661 2486
790 3614 3415
806 3454 3778
568 147 178
747 253 781
702 475 1452
758 714 2087
725 994 2859
594 697 233
655 854 1004
590 1031 1659
594 1191 2306
668 1475 3245
623 1470 403
505 1639 995
491 1710 1972
534 1824 2732
619 2053 3516
648 2187 648
633 2306 1163
596 2505 2233
658 2642 3164
831 2776 3689
776 3569 905
746 3658 1283
715 3707 2330
1140 3770 3466
1079 3556 3830
1351 365 353
1580 438 928
1780 625 1531
1711 822 2135
1662 1080 3056
1478 874 381
1602 976 1058
1795 1160 1749
1721 1302 2452
1543 1526 3358
1619 1555 446
1691 1723 1067
1706 1973 2322
1576 2072 3168
1492 2208 3687
1638 2448 623
1711 2579 1264
1664 2775 2295
1341 2936 3344
1348 2927 3767
1578 3650 910
1559 3751 1303
1473 3990 2300
1345 3865 3323
1363 3667 3882
2241 581 645
2387 617 1083
2676 776 1664
2882 962 2297
2827 1205 3364
2369 1122 610
2478 1090 1125
2730 1284 1873
2917 1479 2670
2965 1610 3564
2585 1687 581
2640 1806 994
2853 2155 2479
3010 2214 3210
2962 2272 3789
2587 2684 712
2658 2764 1121
2851 3044 2315
3166 3297 3452
3080 3293 3922
2517 3708 906
2601 3779 1313
2993 3915 2554
2986 4037 3309
2820 3898 3990
3369 809 878
3449 832 1308
3671 1008 1893
3755 1179 2730
3873 1409 3635
3422 1384 755
3536 1339 1278
3728 1486 2077
3782 1698 3015
3928 1883 3741
3476 1950 648
3587 2072 1091
3880 2263 2513
3868 2481 3320
3972 2622 3871
3467 2621 751
3565 2719 1186
3864 3123 2482
3945 3372 3477
3992 3327 3956
3422 3736 921
3602 3800 1481
3784 3913 2542
3883 3986 3360
3983 4037 4014
