src/luts/Mission_Impossible_-_Rec709.3dl
# Created by Benjamin (IWLTBAP) : http://luts.iwltbap.com
# Copyright: (C) Copyright 2016 Triune Films and IWLTBAP
# Blockbuster LUTs Pack
0 128 256 384 512 640 768 896 1023
31 25 55
50 99 475
61 175 878
73 263 1259
100 337 1646
132 406 2042
162 483 2442
191 557 2842
224 637 3232
49 417 74
60 468 502
63 560 913
68 647 1304
92 730 1694
136 806 2103
180 869 2521
223 943 2927
276 1029 3334
79 815 119
90 883 564
81 937 973
93 1008 1360
129 1089 1753
173 1175 2159
212 1252 2567
254 1326 2974
294 1400 3366
101 1209 169
113 1277 604
117 1343 1053
134 1391 1430
180 1468 1821
217 1551 2223
251 1625 2628
286 1691 3032
329 1762 3418
131 1600 231
148 1664 657
183 1768 1140
204 1813 1519
228 1872 1901
259 1935 2302
293 1998 2711
328 2054 3100
374 2123 3487
178 2000 321
198 2071 734
235 2170 1189
276 2276 1627
291 2306 2008
314 2336 2398
350 2392 2809
385 2440 3195
430 2500 3574
224 2403 424
249 2467 806
285 2557 1223
343 2699 1707
373 2758 2124
385 2774 2522
417 2808 2916
452 2841 3296
486 2878 3653
290 2793 516
309 2840 875
348 2938 1260
402 3082 1726
448 3205 2242
468 3230 2649
498 3246 3045
520 3249 3396
544 3274 3737
380 3270 548
402 3333 903
432 3416 1284
473 3517 1724
527 3648 2303
548 3667 2753
560 3641 3138
572 3626 3483
583 3625 3787
400 74 76
454 108 503
370 180 906
344 258 1307
373 324 1722
405 398 2139
446 473 2552
494 554 2951
556 646 3339
382 430 84
353 476 521
319 571 933
328 656 1321
361 730 1719
407 794 2132
441 859 2548
492 942 2942
540 1021 3335
349 846 113
349 887 549
340 946 978
355 1020 1370
389 1101 1766
433 1186 2179
477 1254 2586
519 1327 2997
565 1397 3387
365 1238 159
370 1274 569
384 1359 1054
404 1410 1441
448 1492 1837
481 1567 2241
515 1640 2647
553 1705 3051
598 1771 3431
398 1621 219
410 1671 632
444 1774 1125
470 1839 1529
493 1895 1915
525 1957 2320
560 2019 2731
599 2076 3121
645 2140 3504
443 2017 310
458 2078 712
491 2174 1160
542 2299 1632
560 2333 2021
582 2359 2416
620 2414 2829
657 2461 3213
699 2515 3586
490 2421 413
511 2472 790
548 2556 1199
601 2692 1680
642 2785 2133
656 2803 2538
690 2832 2932
723 2861 3311
755 2896 3667
562 2822 506
573 2849 860
608 2942 1245
657 3071 1680
713 3220 2232
739 3256 2654
771 3271 3055
791 3270 3411
814 3296 3753
645 3289 529
666 3343 884
694 3421 1269
734 3516 1697
788 3646 2259
815 3684 2750
827 3660 3141
839 3641 3492
848 3639 3796
877 160 148
971 172 513
955 212 926
827 259 1340
734 339 1742
698 414 2164
736 486 2580
806 584 2993
852 668 3373
895 480 122
906 521 529
818 542 983
716 616 1376
670 712 1777
681 772 2177
724 842 2584
796 924 2991
838 1006 3363
872 857 137
780 915 543
670 969 1013
639 1035 1395
653 1106 1786
701 1179 2197
740 1244 2611
794 1320 3015
845 1388 3408
796 1274 161
690 1319 538
661 1370 1055
673 1417 1452
715 1501 1852
748 1577 2257
782 1647 2669
827 1713 3071
876 1774 3451
747 1695 203
684 1680 601
703 1764 1086
739 1857 1535
762 1912 1929
795 1974 2338
832 2035 2750
874 2090 3139
919 2150 3517
753 2094 289
726 2082 683
751 2168 1121
807 2310 1626
832 2355 2035
855 2380 2434
894 2436 2848
936 2482 3234
976 2529 3602
794 2490 394
783 2483 774
813 2553 1178
865 2684 1644
913 2805 2141
930 2828 2553
968 2855 2948
1005 2890 3339
1031 2914 3683
863 2873 491
854 2883 848
872 2941 1226
920 3069 1650
983 3232 2215
1014 3279 2659
1045 3291 3064
1068 3296 3430
1088 3320 3770
968 3378 532
950 3367 879
972 3434 1264
1005 3530 1691
1056 3650 2226
1088 3706 2749
1100 3678 3149
1110 3660 3505
1119 3655 3808
1336 217 204
1413 233 547
1456 265 939
1427 324 1339
1331 369 1762
1194 427 2177
1156 510 2582
1169 616 3004
1161 687 3404
1353 549 176
1390 583 569
1448 626 971
1342 640 1408
1238 677 1839
1112 762 2250
1086 844 2658
1117 934 3061
1149 998 3418
1389 905 174
1432 950 560
1380 1010 1028
1213 1012 1491
1107 1095 1885
1029 1182 2256
1027 1246 2638
1088 1311 3034
1135 1378 3423
1398 1316 207
1383 1350 538
1138 1407 1062
1053 1452 1508
1042 1524 1908
1040 1601 2307
1066 1663 2705
1114 1716 3095
1164 1771 3475
1391 1736 247
1303 1789 596
1098 1819 1067
1065 1896 1565
1052 1941 1959
1076 1998 2370
1110 2052 2771
1155 2103 3161
1200 2157 3534
1361 2137 302
1233 2206 629
1074 2212 1120
1082 2305 1595
1107 2375 2046
1131 2404 2457
1172 2454 2867
1215 2497 3251
1252 2540 3613
1278 2570 355
1105 2532 761
1108 2579 1187
1131 2671 1611
1184 2823 2145
1207 2851 2569
1245 2874 2964
1285 2915 3361
1309 2942 3705
1287 3005 450
1175 2947 845
1175 2993 1251
1195 3080 1642
1250 3232 2183
1290 3301 2670
1322 3314 3079
1344 3324 3456
1362 3344 3791
1372 3483 558
1284 3467 870
1282 3480 1285
1298 3551 1692
1326 3652 2197
1365 3731 2755
1373 3699 3160
1385 3685 3524
1395 3677 3821
1798 290 292
1874 316 621
1911 334 969
1912 373 1338
1887 426 1754
1823 483 2171
1791 548 2579
1717 640 3026
1709 734 3437
1821 631 258
1876 656 644
1955 684 999
1896 718 1390
1866 755 1825
1811 810 2233
1734 874 2666
1682 978 3090
1683 1061 3496
1856 985 248
1927 1046 636
1913 1101 1081
1919 1135 1472
1824 1127 1918
1747 1177 2344
1643 1259 2760
1621 1344 3162
1612 1407 3549
1916 1367 271
1955 1413 617
1950 1493 1093
1861 1519 1543
1683 1534 1993
1605 1621 2411
1562 1701 2800
1553 1756 3172
1562 1796 3547
1953 1810 312
1959 1855 625
1895 1891 1057
1643 1936 1593
1574 2002 2056
1531 2065 2455
1530 2117 2848
1534 2156 3224
1524 2188 3579
2001 2251 348
1942 2302 680
1791 2320 1139
1592 2348 1607
1516 2466 2111
1500 2480 2520
1520 2516 2927
1535 2541 3297
1541 2564 3644
2014 2671 429
1925 2697 744
1750 2720 1175
1582 2727 1656
1507 2848 2137
1512 2914 2606
1544 2920 3003
1572 2946 3392
1587 2962 3728
1975 3099 491
1929 3164 827
1683 3121 1256
1602 3180 1686
1552 3254 2163
1574 3334 2682
1600 3342 3102
1624 3358 3486
1646 3380 3820
1955 3612 578
1846 3613 874
1721 3613 1216
1654 3626 1703
1642 3682 2209
1643 3753 2744
1647 3724 3175
1663 3710 3543
1690 3721 3850
2268 384 377
2324 403 693
2410 444 1038
2390 462 1383
2411 492 1742
2446 556 2132
2423 646 2606
2414 740 3054
2336 764 3498
2311 724 360
2370 760 733
2425 780 1067
2434 823 1430
2424 844 1806
2439 895 2205
2385 976 2671
2409 1046 3118
2272 1067 3545
2337 1082 339
2442 1145 715
2419 1189 1162
2448 1206 1508
2438 1234 1895
2433 1283 2328
2374 1331 2777
2326 1360 3220
2184 1405 3604
2403 1449 344
2489 1527 708
2504 1623 1185
2429 1647 1626
2443 1666 1999
2367 1667 2455
2288 1680 2909
2199 1727 3319
2125 1788 3690
2474 1862 378
2518 1920 712
2517 1994 1154
2464 2061 1661
2414 2091 2093
2239 2112 2556
2163 2166 2986
2132 2204 3366
2056 2234 3683
2534 2354 419
2548 2412 726
2534 2485 1112
2440 2477 1620
2236 2516 2142
2157 2586 2634
2115 2613 3026
2106 2641 3405
2024 2636 3722
2591 2823 449
2605 2868 781
2538 2905 1223
2411 2888 1697
2211 2928 2167
2115 3040 2704
2077 3030 3098
2096 3055 3491
2046 3048 3796
2610 3236 549
2607 3279 890
2553 3298 1306
2451 3344 1708
2263 3385 2113
2096 3449 2721
2022 3458 3183
2088 3471 3573
2079 3463 3879
2592 3674 647
2581 3699 983
2564 3738 1326
2474 3778 1684
2297 3819 2031
2074 3840 2685
2032 3835 3245
2040 3805 3601
2163 3814 3912
2748 486 456
2782 499 764
2838 525 1087
2864 566 1449
2890 611 1808
2939 657 2192
2963 717 2609
2952 803 3081
2923 838 3492
2794 828 451
2839 860 800
2858 886 1141
2907 921 1499
2911 967 1865
2932 995 2248
2959 1051 2672
2937 1116 3131
2930 1132 3558
2844 1195 426
2922 1238 794
2890 1284 1243
2907 1297 1578
2928 1337 1939
2942 1369 2344
2952 1408 2768
2927 1435 3198
2913 1448 3649
2905 1560 430
2990 1633 777
3013 1703 1225
2941 1742 1709
2953 1740 2040
2955 1768 2454
2958 1780 2877
2942 1776 3332
2853 1792 3736
2972 1949 444
3047 2024 777
3050 2103 1258
3028 2187 1758
2986 2215 2184
3000 2219 2590
2976 2197 3029
2893 2189 3484
2789 2196 3843
3032 2400 471
3064 2449 803
3053 2501 1272
3039 2564 1732
3031 2645 2233
3059 2699 2723
2935 2709 3155
2865 2722 3544
2780 2730 3879
3072 2921 528
3073 2944 884
3067 2983 1299
3050 3035 1708
3011 3067 2190
2953 3121 2758
2797 3162 3219
2774 3187 3609
2760 3195 3922
3086 3337 618
3086 3356 972
3085 3399 1358
3058 3440 1775
3005 3484 2248
2881 3545 2695
2692 3592 3268
2785 3599 3658
2798 3591 3964
3079 3740 712
3075 3755 1036
3075 3796 1393
3060 3841 1770
3012 3901 2167
2868 3932 2558
2732 3964 3282
2828 3956 3689
2857 3934 3997
3187 580 515
3217 594 821
3250 619 1138
3288 659 1509
3301 693 1863
3356 735 2262
3380 788 2671
3394 850 3119
3382 877 3534
3232 916 522
3266 945 861
3277 968 1203
3307 998 1548
3350 1047 1917
3363 1080 2319
3379 1127 2732
3398 1165 3168
3395 1179 3586
3309 1288 500
3347 1330 890
3320 1365 1311
3335 1394 1654
3372 1419 1993
3372 1441 2389
3380 1478 2812
3406 1491 3238
3400 1494 3659
3365 1658 500
3422 1729 881
3411 1770 1336
3389 1808 1766
3390 1810 2088
3391 1824 2471
3407 1854 2918
3414 1843 3331
3405 1836 3754
3436 2050 512
3467 2105 891
3472 2173 1337
3485 2240 1794
3465 2289 2260
3456 2254 2594
3478 2288 3063
3474 2269 3468
3464 2270 3871
3496 2462 551
3501 2489 927
3515 2552 1349
3524 2644 1799
3553 2750 2317
3579 2797 2804
3566 2782 3214
3560 2765 3616
3550 2768 3958
3519 2905 635
3518 2922 971
3527 2969 1367
3536 3038 1792
3548 3121 2286
3608 3216 2855
3637 3262 3323
3607 3281 3735
3635 3279 4028
3523 3380 693
3524 3399 1014
3535 3435 1381
3544 3492 1799
3535 3556 2283
3565 3611 2825
3531 3676 3348
3632 3708 3784
3679 3712 4062
3527 3778 735
3533 3799 1059
3537 3832 1424
3541 3893 1831
3533 3944 2291
3555 3977 2765
3628 4035 3300
3708 4056 3767
3710 4053 4075
3600 659 571
3615 674 880
3640 702 1211
3660 722 1552
3698 761 1905
3726 795 2314
3754 823 2713
3778 892 3176
3796 907 3593
3655 1000 600
3655 1019 950
3670 1043 1286
3697 1071 1614
3735 1107 1965
3736 1127 2351
3757 1166 2773
3791 1214 3227
3812 1219 3642
3724 1375 600
3717 1401 1005
3715 1430 1381
3729 1454 1707
3754 1471 2036
3757 1488 2407
3769 1519 2848
3807 1550 3294
3826 1544 3706
3776 1760 606
3784 1793 1006
3794 1828 1423
3794 1863 1819
3787 1864 2138
3799 1881 2504
3795 1904 2940
3831 1908 3374
3841 1896 3770
3829 2126 628
3831 2165 1006
3857 2235 1427
3881 2297 1876
3878 2351 2323
3862 2315 2645
3868 2349 3073
3881 2331 3492
3885 2314 3853
3885 2501 667
3888 2536 1013
3910 2607 1415
3936 2705 1873
3962 2808 2407
3963 2852 2870
3951 2827 3223
3946 2793 3627
3952 2781 3956
3927 2915 704
3933 2938 1033
3950 2989 1411
3977 3070 1862
3999 3173 2378
4012 3278 2935
4012 3307 3372
4008 3294 3741
4013 3266 4036
3940 3363 744
3945 3384 1050
3954 3417 1426
3978 3473 1856
3996 3544 2339
4020 3626 2880
4029 3703 3399
4034 3744 3791
4038 3740 4068
3966 3823 790
3971 3837 1074
3980 3864 1426
3994 3911 1827
4009 3964 2296
4027 4009 2819
4047 4052 3355
4056 4067 3780
4063 4073 4083
