src/luts/Mission_Impossible_-_Rec709.3dl
# Created by Benjamin (IWLTBAP) : http://luts.iwltbap.com
# Copyright: (C) Copyright 2016 Triune Films and IWLTBAP
# Blockbuster LUTs Pack
0 256 512 768 1023
31 25 55
61 175 878
100 337 1646
162 483 2442
224 637 3232
79 815 119
81 937 973
129 1089 1753
212 1252 2567
294 1400 3366
131 1600 231
183 1768 1140
228 1872 1901
293 1998 2711
374 2123 3487
224 2403 424
285 2557 1223
373 2758 2124
417 2808 2916
486 2878 3653
380 3270 548
432 3416 1284
527 3648 2303
560 3641 3138
583 3625 3787
877 160 148
955 212 926
734 339 1742
736 486 2580
852 668 3373
872 857 137
670 969 1013
653 1106 1786
740 1244 2611
845 1388 3408
747 1695 203
703 1764 1086
762 1912 1929
832 2035 2750
919 2150 3517
794 2490 394
813 2553 1178
913 2805 2141
968 2855 2948
1031 2914 3683
968 3378 532
972 3434 1264
1056 3650 2226
1100 3678 3149
1119 3655 3808
1798 290 292
1911 334 969
1887 426 1754
1791 548 2579
1709 734 3437
1856 985 248
1913 1101 1081
1824 1127 1918
1643 1259 2760
1612 1407 3549
1953 1810 312
1895 1891 1057
1574 2002 2056
1530 2117 2848
1524 2188 3579
2014 2671 429
1750 2720 1175
1507 2848 2137
1544 2920 3003
1587 2962 3728
1955 3612 578
1721 3613 1216
1642 3682 2209
1647 3724 3175
1690 3721 3850
2748 486 456
2838 525 1087
2890 611 1808
2963 717 2609
2923 838 3492
2844 1195 426
2890 1284 1243
2928 1337 1939
2952 1408 2768
2913 1448 3649
2972 1949 444
3050 2103 1258
2986 2215 2184
2976 2197 3029
2789 2196 3843
3072 2921 528
3067 2983 1299
3011 3067 2190
2797 3162 3219
2760 3195 3922
3079 3740 712
3075 3796 1393
3012 3901 2167
2732 3964 3282
2857 3934 3997
3600 659 571
3640 702 1211
3698 761 1905
3754 823 2713
3796 907 3593
3724 1375 600
3715 1430 1381
3754 1471 2036
3769 1519 2848
3826 1544 3706
3829 2126 628
3857 2235 1427
3878 2351 2323
3868 2349 3073
3885 2314 3853
3927 2915 704
3950 2989 1411
3999 3173 2378
4012 3307 3372
4013 3266 4036
3966 3823 790
3980 3864 1426
4009 3964 2296
4047 4052 3355
4063 4073 4083
