src/luts/Mission_Impossible_-_Rec709.3dl
# Created by Benjamin (IWLTBAP) : http://luts.iwltbap.com
# Copyright: (C) Copyright 2016 Triune Films and IWLTBAP
# Blockbuster LUTs Pack
0 64 128 192 256 320 384 448 512 576 640 704 768 832 896 960 1023
31 25 55
39 54 263
50 99 475
57 137 678
61 175 878
68 221 1067
73 263 1259
85 301 1451
100 337 1646
117 373 1840
132 406 2042
148 443 2242
162 483 2442
176 521 2641
191 557 2842
207 599 3037
224 637 3232
36 213 59
44 240 275
55 286 488
60 335 698
57 389 902
55 433 1098
60 475 1287
70 517 1482
86 556 1680
114 589 1883
137 616 2085
151 649 2287
167 681 2489
182 715 2690
200 751 2885
222 793 3080
249 834 3277
49 417 74
54 441 294
60 468 502
65 514 714
63 560 913
61 604 1113
68 647 1304
81 689 1499
92 730 1694
108 768 1899
136 806 2103
161 837 2309
180 869 2521
198 903 2723
223 943 2927
251 990 3133
276 1029 3334
65 619 98
69 641 311
74 671 530
74 703 734
71 745 941
70 784 1139
80 826 1331
94 868 1524
108 909 1722
128 950 1925
149 990 2130
176 1026 2335
200 1065 2541
219 1099 2745
240 1137 2954
256 1176 3150
281 1215 3353
79 815 119
84 842 328
90 883 564
86 907 772
81 937 973
82 971 1170
93 1008 1360
109 1046 1553
129 1089 1753
151 1134 1954
173 1175 2159
193 1217 2365
212 1252 2567
234 1289 2769
254 1326 2974
271 1361 3169
294 1400 3366
91 1013 142
94 1040 348
101 1083 585
99 1118 816
95 1138 1011
97 1161 1201
112 1198 1394
130 1234 1589
153 1276 1786
174 1320 1985
196 1364 2190
215 1403 2394
232 1438 2596
249 1472 2798
267 1508 3001
285 1543 3194
309 1583 3386
101 1209 169
106 1239 371
113 1277 604
118 1325 854
117 1343 1053
120 1364 1240
134 1391 1430
156 1428 1626
180 1468 1821
200 1510 2020
217 1551 2223
234 1588 2424
251 1625 2628
269 1659 2832
286 1691 3032
304 1723 3221
329 1762 3418
114 1405 197
119 1432 397
129 1470 628
139 1518 876
147 1555 1097
153 1572 1286
167 1596 1474
186 1627 1661
206 1668 1861
223 1706 2061
237 1741 2260
253 1776 2464
271 1809 2668
287 1840 2866
307 1872 3065
326 1903 3255
351 1942 3452
131 1600 231
139 1628 432
148 1664 657
163 1710 896
183 1768 1140
192 1790 1333
204 1813 1519
215 1840 1709
228 1872 1901
244 1906 2100
259 1935 2302
276 1968 2507
293 1998 2711
309 2024 2909
328 2054 3100
350 2088 3294
374 2123 3487
155 1798 271
162 1828 474
172 1866 695
187 1908 921
210 1969 1166
230 2018 1386
239 2040 1572
247 2064 1761
256 2086 1951
269 2107 2145
285 2136 2350
301 2162 2555
319 2190 2760
336 2218 2955
356 2246 3149
377 2276 3338
402 2311 3531
178 2000 321
186 2031 522
198 2071 734
212 2111 948
235 2170 1189
262 2239 1427
276 2276 1627
284 2293 1813
291 2306 2008
300 2320 2202
314 2336 2398
331 2363 2607
350 2392 2809
367 2417 3005
385 2440 3195
406 2467 3383
430 2500 3574
200 2201 372
210 2234 569
223 2275 770
236 2315 981
257 2366 1208
286 2435 1447
313 2501 1678
324 2523 1870
332 2533 2066
338 2539 2262
349 2550 2460
362 2568 2655
383 2599 2865
400 2618 3058
417 2638 3244
435 2659 3426
457 2686 3611
224 2403 424
235 2431 609
249 2467 806
265 2507 1008
285 2557 1223
310 2622 1461
343 2699 1707
365 2745 1930
373 2758 2124
377 2763 2322
385 2774 2522
400 2790 2722
417 2808 2916
437 2829 3115
452 2841 3296
467 2857 3474
486 2878 3653
255 2599 473
265 2623 653
280 2657 844
296 2693 1037
313 2734 1238
338 2799 1470
370 2882 1723
400 2955 1976
412 2983 2182
418 2996 2385
425 3001 2588
440 3014 2788
458 3027 2980
474 3035 3166
487 3047 3352
498 3054 3523
515 3075 3696
290 2793 516
296 2808 690
309 2840 875
327 2885 1065
348 2938 1260
373 3004 1476
402 3082 1726
431 3161 1997
448 3205 2242
458 3221 2445
468 3230 2649
481 3239 2850
498 3246 3045
513 3253 3228
520 3249 3396
531 3259 3573
544 3274 3737
329 3011 537
341 3042 710
353 3075 891
370 3121 1079
389 3171 1276
410 3227 1480
436 3295 1724
462 3367 2002
487 3427 2281
499 3446 2503
512 3459 2706
524 3461 2906
535 3460 3100
546 3458 3284
552 3449 3448
556 3445 3604
567 3459 3769
380 3270 548
389 3297 722
402 3333 903
415 3368 1089
432 3416 1284
451 3463 1491
473 3517 1724
500 3584 2009
527 3648 2303
541 3674 2555
548 3667 2753
554 3655 2947
560 3641 3138
568 3634 3319
572 3626 3483
576 3621 3633
583 3625 3787
172 43 69
197 57 278
185 98 491
191 139 698
196 181 899
201 220 1093
209 256 1294
221 295 1494
239 340 1702
254 375 1902
269 412 2100
284 447 2295
299 483 2493
317 517 2696
336 556 2893
361 598 3092
387 640 3286
172 223 64
174 240 279
185 287 494
190 336 705
186 385 908
184 434 1106
189 475 1296
207 513 1495
237 548 1695
257 580 1907
272 612 2118
288 644 2323
307 682 2529
330 723 2729
354 764 2918
380 805 3111
410 847 3307
183 431 76
183 444 291
190 471 508
194 518 721
191 566 922
191 611 1119
198 653 1312
211 694 1506
223 734 1704
244 769 1910
274 801 2113
291 832 2324
308 862 2532
328 898 2733
356 944 2934
378 989 3133
405 1026 3332
198 637 98
201 652 304
203 676 533
202 707 740
198 749 945
201 790 1143
210 832 1337
224 874 1529
238 914 1729
256 954 1931
280 991 2136
309 1026 2344
328 1063 2552
346 1096 2754
369 1135 2961
390 1174 3160
416 1210 3361
213 834 119
213 843 316
220 886 556
216 913 772
211 941 973
213 977 1173
224 1014 1364
240 1053 1558
260 1096 1760
282 1140 1960
304 1182 2168
324 1221 2375
345 1257 2576
366 1292 2780
385 1328 2983
405 1363 3181
429 1401 3375
221 1024 142
223 1040 333
230 1084 570
231 1123 813
226 1142 1010
229 1168 1203
243 1205 1400
263 1241 1594
287 1285 1793
306 1328 1995
327 1370 2199
346 1409 2402
363 1446 2605
380 1479 2808
401 1516 3009
420 1549 3201
444 1587 3394
231 1217 165
235 1239 359
241 1275 585
249 1327 844
250 1350 1053
253 1368 1244
269 1399 1434
291 1437 1630
314 1480 1829
333 1519 2030
349 1559 2232
367 1598 2436
383 1633 2638
400 1665 2840
419 1698 3040
438 1730 3229
463 1767 3425
244 1410 191
248 1434 387
258 1471 613
271 1521 866
282 1563 1097
289 1583 1289
302 1607 1477
319 1638 1665
338 1680 1867
355 1716 2068
370 1752 2268
386 1786 2473
403 1817 2676
420 1848 2874
440 1879 3073
460 1911 3263
484 1947 3458
262 1605 225
270 1633 421
279 1670 648
294 1715 884
314 1771 1131
327 1803 1336
337 1826 1524
348 1854 1714
360 1883 1905
377 1917 2109
392 1946 2311
409 1978 2517
426 2007 2720
443 2035 2919
463 2065 3112
485 2096 3303
510 2132 3496
287 1808 269
294 1833 465
303 1872 684
317 1913 907
339 1971 1154
362 2029 1385
372 2055 1576
380 2078 1766
389 2096 1956
402 2118 2153
419 2146 2360
435 2173 2565
454 2203 2771
471 2229 2964
490 2254 3155
512 2285 3347
537 2320 3536
310 2007 315
317 2036 511
328 2076 723
341 2116 938
363 2171 1176
391 2241 1416
409 2287 1630
418 2307 1817
425 2319 2014
434 2332 2210
447 2346 2405
466 2375 2618
484 2402 2819
503 2430 3016
520 2449 3203
541 2476 3389
564 2504 3578
331 2208 367
340 2238 559
352 2276 762
367 2319 972
386 2366 1191
414 2434 1435
444 2506 1672
459 2536 1876
466 2545 2071
472 2551 2270
483 2563 2469
497 2580 2665
518 2612 2875
536 2633 3069
553 2648 3251
570 2669 3434
593 2697 3620
355 2407 419
365 2433 602
379 2468 797
397 2510 1000
415 2554 1209
440 2618 1445
472 2697 1695
498 2755 1931
508 2773 2129
512 2777 2328
520 2788 2531
536 2804 2730
553 2820 2923
574 2842 3124
586 2849 3302
601 2864 3480
620 2886 3658
389 2606 466
396 2623 645
409 2653 832
427 2693 1029
445 2736 1232
467 2792 1451
497 2873 1702
530 2957 1968
543 2991 2183
553 3007 2388
560 3013 2594
576 3027 2795
593 3038 2986
609 3046 3172
623 3058 3359
633 3063 3529
648 3082 3698
426 2807 513
431 2818 685
441 2843 866
457 2887 1056
477 2939 1251
500 2998 1458
529 3075 1702
560 3160 1981
580 3213 2239
592 3232 2448
604 3243 2652
617 3250 2855
635 3260 3051
648 3263 3233
656 3261 3403
666 3268 3578
679 3286 3744
463 3023 532
472 3047 705
485 3083 885
501 3125 1070
519 3174 1268
540 3229 1466
564 3291 1704
592 3367 1983
619 3432 2270
632 3455 2502
646 3468 2705
658 3471 2908
669 3468 3103
681 3468 3288
686 3458 3453
690 3453 3609
700 3466 3776
510 3275 538
520 3302 711
532 3335 892
545 3372 1080
561 3415 1275
580 3463 1481
603 3517 1710
631 3584 1990
657 3647 2282
676 3686 2553
682 3677 2752
688 3663 2947
693 3650 3140
700 3641 3322
705 3634 3487
708 3628 3636
715 3632 3790
400 74 76
464 89 283
454 108 503
410 141 710
370 180 906
338 222 1108
344 258 1307
358 291 1513
373 324 1722
389 362 1933
405 398 2139
424 434 2344
446 473 2552
470 514 2753
494 554 2951
525 600 3145
556 646 3339
400 238 68
404 257 282
387 280 514
356 325 720
327 372 917
328 415 1112
339 458 1306
357 494 1509
375 531 1716
391 567 1929
407 602 2136
423 637 2342
443 671 2549
473 708 2753
505 754 2951
516 804 3127
544 843 3320
382 430 84
358 449 299
353 476 521
327 522 731
319 571 933
321 613 1126
328 656 1321
340 694 1516
361 730 1719
389 764 1925
407 794 2132
422 824 2341
441 859 2548
463 895 2743
492 942 2942
512 984 3136
540 1021 3335
365 641 98
344 665 305
336 683 538
329 711 749
326 753 953
331 796 1149
341 835 1342
354 876 1536
367 916 1737
385 954 1939
415 987 2145
437 1018 2354
454 1054 2562
475 1091 2765
502 1131 2970
523 1171 3167
551 1207 3370
349 846 113
346 861 307
349 887 549
344 917 777
340 946 978
344 983 1180
355 1020 1370
370 1058 1565
389 1101 1766
412 1144 1971
433 1186 2179
455 1221 2384
477 1254 2586
496 1290 2791
519 1327 2997
540 1362 3191
565 1397 3387
356 1049 136
353 1044 322
359 1080 551
361 1128 810
358 1150 1014
361 1175 1208
376 1212 1404
395 1248 1601
418 1293 1799
438 1335 2002
458 1376 2209
477 1415 2411
493 1449 2615
512 1484 2819
534 1519 3019
555 1552 3211
580 1588 3403
365 1238 159
363 1239 347
370 1274 569
380 1328 834
384 1359 1054
389 1381 1248
404 1410 1441
426 1448 1637
448 1492 1837
466 1531 2039
481 1567 2241
498 1606 2444
515 1640 2647
532 1672 2850
553 1705 3051
574 1738 3240
598 1771 3431
378 1428 183
377 1433 371
387 1470 596
400 1520 851
417 1573 1096
424 1594 1293
437 1619 1482
452 1650 1672
471 1692 1877
487 1727 2076
501 1760 2276
519 1795 2482
536 1827 2685
554 1857 2887
574 1888 3081
595 1920 3273
620 1956 3467
398 1621 219
400 1633 408
410 1671 632
423 1718 871
444 1774 1125
461 1817 1341
470 1839 1529
481 1867 1722
493 1895 1915
509 1928 2117
525 1957 2320
542 1987 2526
560 2019 2731
578 2045 2927
599 2076 3121
620 2105 3312
645 2140 3504
420 1817 263
425 1835 451
434 1874 672
448 1920 896
468 1975 1145
494 2038 1383
506 2069 1581
514 2092 1772
523 2110 1964
536 2131 2161
553 2160 2372
569 2184 2574
588 2213 2779
607 2241 2974
626 2265 3165
648 2294 3354
671 2326 3543
443 2017 310
448 2038 497
458 2078 712
472 2124 929
491 2174 1160
518 2241 1405
542 2299 1632
552 2320 1824
560 2333 2021
569 2345 2217
582 2359 2416
601 2389 2629
620 2414 2829
638 2441 3025
657 2461 3213
676 2484 3397
699 2515 3586
465 2218 360
469 2237 546
481 2277 753
499 2323 963
517 2369 1177
544 2434 1421
574 2508 1667
593 2547 1881
601 2558 2077
607 2565 2278
618 2578 2477
633 2596 2675
654 2625 2886
673 2645 3078
689 2659 3261
705 2677 3441
727 2705 3628
490 2421 413
496 2436 595
511 2472 790
529 2512 993
548 2556 1199
571 2615 1427
601 2692 1680
630 2762 1931
642 2785 2133
647 2792 2333
656 2803 2538
671 2817 2740
690 2832 2932
711 2855 3134
723 2861 3311
737 2874 3489
755 2896 3667
527 2626 464
531 2635 642
541 2656 825
558 2695 1022
575 2734 1222
597 2789 1434
627 2868 1682
659 2957 1956
677 3001 2186
687 3020 2389
696 3028 2598
712 3039 2800
730 3049 2993
745 3057 3179
759 3070 3366
769 3075 3536
784 3094 3707
562 2822 506
567 2833 679
573 2849 860
589 2890 1047
608 2942 1245
629 2997 1444
657 3071 1680
688 3153 1957
713 3220 2232
726 3242 2447
739 3256 2654
753 3262 2859
771 3271 3055
784 3274 3238
791 3270 3411
801 3280 3585
814 3296 3753
602 3047 524
605 3055 697
615 3083 875
632 3128 1063
649 3176 1258
669 3228 1454
692 3289 1681
721 3362 1960
750 3433 2254
767 3466 2502
781 3479 2706
793 3480 2911
804 3477 3105
815 3476 3291
820 3467 3457
824 3461 3615
834 3473 3781
645 3289 529
654 3310 704
666 3343 884
679 3381 1073
694 3421 1269
713 3467 1475
734 3516 1697
762 3583 1968
788 3646 2259
810 3693 2542
815 3684 2750
823 3674 2946
827 3660 3141
835 3650 3326
839 3641 3492
842 3636 3642
848 3639 3796
643 124 116
698 129 296
724 140 511
710 162 723
664 187 926
585 221 1122
544 261 1321
517 297 1522
516 331 1735
530 368 1946
547 404 2153
566 441 2359
589 479 2568
618 521 2775
654 574 2980
673 617 3172
702 660 3358
640 279 106
662 296 301
695 308 512
635 327 743
574 358 944
535 397 1136
505 432 1337
499 461 1540
508 501 1745
524 540 1954
540 574 2158
558 608 2365
585 647 2576
619 690 2782
655 743 2982
672 790 3166
