src/luts/Noir_2_-_Rec709.3dl
# Created by Benjamin (IWLTBAP) : http://luts.iwltbap.com
# Copyright: (C) Copyright 2016 Triune Films and IWLTBAP
# Blockbuster LUTs Pack
0 256 512 768 1023
0 0 0
0 0 0
0 0 0
0 0 0
0 0 0
0 0 0
0 0 0
0 0 0
0 0 0
0 0 0
0 0 0
0 0 0
0 0 0
0 0 0
0 0 0
0 0 0
0 0 0
0 0 0
0 0 0
0 0 0
0 0 0
0 0 0
0 0 0
0 0 0
0 0 0
0 0 0
0 0 0
0 0 0
0 0 0
0 0 0
0 0 0
980 980 980
999 999 999
999 999 999
999 999 999
0 0 0
999 999 999
1024 1024 1024
1024 1024 1024
1024 1024 1024
0 0 0
999 999 999
1024 1024 1024
1024 1024 1024
1024 1024 1024
0 0 0
999 999 999
1024 1024 1024
1024 1024 1024
1024 1024 1024
0 0 0
0 0 0
0 0 0
0 0 0
0 0 0
0 0 0
999 999 999
1024 1024 1024
1024 1024 1024
1024 1024 1024
0 0 0
1024 1024 1024
1998 1998 1998
2014 2014 2014
2014 2014 2014
0 0 0
1024 1024 1024
2014 2014 2014
2048 2048 2048
2048 2048 2048
0 0 0
1024 1024 1024
2014 2014 2014
2048 2048 2048
2048 2048 2048
0 0 0
0 0 0
0 0 0
0 0 0
0 0 0
0 0 0
999 999 999
1024 1024 1024
1024 1024 1024
1024 1024 1024
0 0 0
1024 1024 1024
2014 2014 2014
2048 2048 2048
2048 2048 2048
0 0 0
1024 1024 1024
2048 2048 2048
3040 3040 3040
3047 3047 3047
0 0 0
1024 1024 1024
2048 2048 2048
3047 3047 3047
3071 3071 3071
0 0 0
0 0 0
0 0 0
0 0 0
0 0 0
0 0 0
999 999 999
1024 1024 1024
1024 1024 1024
1024 1024 1024
0 0 0
1024 1024 1024
2014 2014 2014
2048 2048 2048
2048 2048 2048
0 0 0
1024 1024 1024
2048 2048 2048
3047 3047 3047
3071 3071 3071
0 0 0
1024 1024 1024
2048 2048 2048
3071 3071 3071
4095 4095 4095
