src/luts/Noir_3_-_Rec709.3dl
# Created by Benjamin (IWLTBAP) : http://luts.iwltbap.com
# Copyright: (C) Copyright 2016 Triune Films and IWLTBAP
# Blockbuster LUTs Pack
0 128 256 384 512 640 768 896 1023
0 2 1
28 32 35
56 62 70
83 92 104
115 124 141
148 159 181
187 201 231
232 251 290
283 312 367
53 60 67
28 32 36
54 61 68
82 91 103
113 123 139
146 157 179
185 199 229
229 248 286
280 308 362
109 118 134
79 88 99
56 62 70
81 90 101
112 121 138
145 155 177
184 197 226
227 246 283
277 305 358
176 189 217
140 150 171
109 118 134
83 92 103
110 120 136
143 153 174
182 195 224
225 243 280
275 302 355
263 288 336
216 233 269
176 189 217
140 150 171
113 122 139
141 151 172
180 193 221
223 240 277
272 299 351
398 450 538
323 360 428
263 288 337
216 233 269
176 189 217
144 154 176
178 191 219
220 238 274
270 296 347
579 715 785
483 569 660
398 450 538
323 360 428
263 288 337
216 233 269
180 193 221
218 235 271
268 293 344
788 1021 1075
682 877 922
579 715 785
483 569 660
397 449 537
323 359 427
263 288 337
218 236 272
265 290 340
1069 1310 1468
919 1158 1254
787 1021 1074
682 877 922
579 715 785
483 569 660
397 447 537
323 359 427
263 288 336
60 67 75
73 82 92
102 112 127
134 145 164
173 185 212
214 231 266
263 288 336
327 364 433
405 457 548
74 82 93
137 147 168
176 189 216
218 235 271
268 293 344
334 372 443
413 471 560
504 600 688
610 763 824
131 141 161
212 229 264
180 193 221
219 236 272
268 294 344
335 374 445
414 472 562
506 601 691
612 767 827
205 221 255
318 354 420
263 288 338
222 240 277
265 291 341
331 369 440
410 466 556
501 594 685
607 759 820
306 339 402
476 558 649
398 452 539
325 361 430
270 296 347
328 365 434
406 460 549
497 588 679
602 751 813
461 537 629
673 862 910
581 717 786
484 570 660
398 451 539
333 371 442
401 454 543
492 582 672
597 742 807
657 838 887
908 1146 1240
789 1020 1077
682 876 923
581 717 786
484 570 660
406 461 550
488 575 666
592 734 800
884 1123 1207
1222 1469 1661
1071 1312 1468
921 1159 1257
789 1020 1076
682 877 922
581 717 786
489 577 667
586 726 793
1193 1438 1629
1589 1857 2053
1419 1677 1881
1238 1486 1681
1071 1312 1468
921 1159 1257
788 1020 1075
681 877 922
581 718 786
124 134 152
140 150 171
159 170 194
197 212 243
244 265 308
300 331 392
374 420 503
461 537 629
559 682 758
140 150 171
225 244 282
252 275 320
310 344 408
386 435 520
475 556 648
575 708 779
682 877 922
793 1028 1083
160 172 196
254 278 324
389 440 525
478 562 652
580 716 785
686 883 928
800 1033 1092
942 1181 1287
1103 1345 1508
239 259 301
378 425 509
565 693 766
495 586 675
587 727 794
692 892 937
807 1042 1102
951 1190 1300
1113 1355 1522
359 403 482
554 676 753
772 999 1052
682 876 924
595 740 805
687 885 930
801 1034 1093
943 1182 1289
1105 1347 1511
529 636 721
760 987 1035
1048 1288 1434
923 1161 1260
791 1020 1078
695 895 941
795 1027 1084
936 1175 1279
1097 1338 1500
733 952 994
1033 1272 1414
1391 1647 1851
1239 1487 1680
1072 1314 1468
922 1160 1260
802 1034 1094
929 1168 1269
1088 1330 1489
994 1233 1359
1372 1628 1834
1773 2047 2217
1607 1876 2069
1420 1677 1881
1239 1487 1680
1072 1313 1468
930 1169 1271
1080 1322 1479
1326 1580 1784
1753 2028 2202
2165 2439 2538
2001 2278 2407
1804 2079 2244
1607 1875 2069
1419 1677 1881
1239 1487 1680
1072 1313 1468
205 221 255
227 246 284
251 273 318
278 305 359
345 385 460
426 488 579
519 622 708
627 790 846
733 952 995
227 246 284
356 399 477
398 451 538
442 511 602
534 644 727
642 814 867
749 973 1019
878 1116 1198
1032 1272 1414
251 273 318
398 451 538
597 743 808
660 843 892
766 993 1043
899 1138 1228
1056 1296 1446
1229 1477 1670
1419 1677 1882
281 309 363
447 518 609
666 852 900
903 1142 1234
1059 1299 1449
1232 1480 1672
1422 1680 1884
1620 1888 2080
1826 2101 2262
418 476 567
632 798 853
886 1124 1209
1205 1451 1639
1095 1336 1496
1248 1497 1690
1439 1697 1901
1637 1906 2096
1843 2119 2277
606 757 819
850 1089 1162
1195 1440 1628
1571 1836 2033
1420 1678 1881
1261 1511 1706
1429 1687 1891
1627 1896 2087
1833 2109 2268
817 1055 1117
1152 1396 1575
1560 1825 2024
1963 2240 2376
1804 2078 2243
1608 1876 2068
1439 1697 1900
1617 1886 2078
1823 2098 2260
1110 1352 1521
1513 1775 1978
1952 2229 2367
2350 2604 2677
2195 2466 2561
2001 2278 2407
1804 2078 2243
1619 1887 2079
1813 2088 2252
1465 1724 1929
1903 2179 2326
2339 2597 2671
2739 2916 2943
2581 2792 2837
2388 2635 2704
2195 2466 2561
2002 2279 2407
1804 2078 2244
324 360 428
360 403 482
398 450 538
439 506 597
486 573 664
585 723 791
692 893 936
805 1041 1100
949 1187 1296
360 403 482
550 669 747
606 757 819
657 838 888
711 920 964
825 1062 1126
972 1211 1328
1136 1378 1554
1317 1571 1773
398 450 538
606 757 819
841 1078 1148
921 1160 1258
1000 1239 1368
1161 1405 1586
1345 1600 1803
1541 1805 2005
1744 2018 2193
439 506 597
657 838 888
921 1160 1258
1264 1514 1711
1380 1636 1840
1570 1835 2033
1774 2048 2219
1982 2259 2391
2186 2460 2556
492 581 672
717 929 973
1009 1249 1382
1391 1647 1852
1783 2058 2227
1982 2259 2392
2187 2460 2556
2388 2637 2705
2591 2800 2844
682 877 922
957 1196 1307
1327 1581 1783
1754 2028 2202
2156 2430 2531
2026 2303 2427
2206 2476 2569
2407 2652 2717
2610 2815 2857
920 1158 1256
1282 1532 1732
1704 1977 2159
2148 2423 2525
2540 2760 2810
2388 2635 2704
2215 2484 2577
2397 2644 2711
2600 2807 2851
1237 1484 1681
1654 1925 2115
2099 2377 2487
2532 2753 2804
2927 3068 3069
2777 2946 2968
2581 2792 2838
2399 2645 2712
2591 2800 2844
1607 1874 2070
2050 2328 2447
2483 2715 2771
2921 3062 3064
3208 3316 3279
3114 3231 3204
2963 3099 3095
2777 2946 2968
2581 2792 2838
506 602 690
554 675 753
606 757 819
657 838 887
707 915 958
763 991 1039
891 1130 1217
1047 1287 1435
1219 1466 1659
554 675 753
784 1014 1068
850 1089 1162
921 1159 1257
994 1233 1360
1077 1318 1475
1246 1494 1691
1437 1696 1901
1635 1905 2097
606 757 819
850 1089 1162
1181 1426 1610
1282 1533 1732
1373 1629 1833
1472 1732 1936
1665 1936 2123
1873 2149 2302
2079 2357 2471
657 838 887
921 1159 1257
1282 1533 1732
1684 1956 2140
1804 2079 2244
1910 2186 2332
2109 2386 2494
2311 2572 2649
2512 2738 2791
707 915 958
994 1233 1360
1373 1629 1833
1804 2079 2244
2223 2493 2583
2346 2602 2675
2542 2761 2811
2748 2923 2949
2948 3085 3083
770 999 1049
1086 1327 1487
1483 1744 1947
1921 2197 2341
2358 2611 2683
2764 2936 2960
2949 3086 3084
3113 3230 3203
3232 3337 3299
1032 1272 1413
1418 1677 1882
1854 2129 2286
2292 2555 2635
2728 2908 2936
3092 3210 3187
2979 3112 3106
3122 3238 3211
3240 3344 3306
1372 1628 1833
1804 2078 2244
2244 2512 2600
2679 2869 2903
3084 3203 3181
3310 3408 3366
3229 3335 3297
3123 3238 3211
3235 3340 3302
1753 2027 2202
2195 2469 2563
2629 2830 2870
3049 3172 3155
3305 3404 3362
3475 3552 3504
3414 3498 3452
3328 3423 3381
3229 3335 3297
733 953 994
789 1021 1076
849 1089 1161
920 1159 1256
994 1233 1359
1071 1312 1467
1156 1400 1580
1335 1589 1793
1531 1794 1996
789 1021 1076
1104 1345 1511
1195 1440 1628
1282 1533 1732
1372 1628 1833
1465 1725 1929
1565 1830 2029
1763 2037 2210
1971 2248 2383
849 1089 1161
1195 1440 1628
1592 1858 2054
1704 1977 2159
1804 2079 2244
1903 2179 2326
2006 2284 2411
2205 2477 2570
2406 2652 2718
920 1159 1256
1282 1533 1732
1704 1977 2159
2127 2404 2509
2244 2513 2600
2340 2596 2670
2441 2680 2742
2639 2838 2877
2845 3000 3013
994 1233 1359
1372 1628 1833
1804 2079 2244
2244 2513 2600
2657 2852 2889
2777 2946 2969
2879 3028 3036
3055 3178 3160
3187 3297 3262
1071 1312 1467
1465 1725 1929
1903 2179 2326
2340 2596 2670
2777 2946 2969
3135 3250 3220
3207 3315 3278
3310 3408 3365
3403 3489 3443
1164 1408 1590
1573 1839 2037
2015 2293 2419
2450 2687 2748
2887 3035 3042
3212 3319 3282
3413 3497 3451
3485 3561 3512
3552 3623 3574
1512 1774 1977
1952 2229 2366
2387 2636 2704
2826 2985 3001
3176 3287 3253
3395 3481 3436
3544 3615 3566
3492 3568 3519
3556 3626 3577
1903 2179 2326
2339 2597 2671
2777 2946 2968
3148 3261 3229
3373 3462 3418
3538 3610 3560
3645 3714 3667
3606 3675 3627
3553 3623 3575
1033 1272 1414
1111 1352 1522
1194 1439 1628
1281 1532 1733
1372 1628 1834
1465 1725 1929
1560 1824 2024
1657 1928 2117
1864 2139 2294
1111 1352 1522
1504 1765 1969
1608 1875 2070
1703 1977 2159
1804 2079 2244
1903 2179 2326
2001 2278 2407
2102 2379 2489
2301 2564 2642
1194 1439 1628
1608 1875 2070
2034 2311 2434
2148 2424 2526
2244 2513 2600
2340 2597 2670
2436 2676 2738
2534 2755 2806
2737 2915 2942
1281 1532 1733
1703 1977 2159
2148 2424 2526
2560 2776 2823
2679 2869 2903
2777 2946 2968
2873 3023 3032
2968 3102 3097
3124 3239 3211
1372 1628 1834
1804 2079 2244
2244 2513 2600
2679 2869 2903
3069 3189 3169
3148 3261 3230
3204 3312 3276
3258 3361 3322
3355 3447 3403
1465 1725 1929
1903 2179 2326
2340 2597 2670
2777 2946 2968
3148 3261 3230
3364 3454 3410
3415 3499 3453
3454 3534 3486
3526 3598 3549
1560 1824 2024
2001 2278 2407
2436 2676 2738
2873 3023 3032
3204 3312 3276
3415 3499 3453
3562 3632 3584
3595 3664 3616
3643 3712 3666
1662 1933 2122
2107 2384 2493
2540 2759 2810
2972 3106 3100
3261 3364 3324
3456 3535 3488
3596 3665 3617
3689 3760 3715
3722 3794 3751
2049 2327 2446
2482 2715 2771
2920 3061 3064
3231 3337 3299
3435 3517 3470
3581 3650 3602
3680 3750 3705
3751 3825 3783
3722 3794 3751
1419 1677 1883
1513 1774 1978
1607 1875 2070
1702 1976 2160
1804 2079 2245
1903 2179 2326
2000 2278 2406
2099 2377 2487
2195 2470 2563
1513 1774 1978
1943 2220 2359
2050 2328 2447
2148 2425 2526
2244 2513 2600
2339 2597 2671
2435 2676 2738
2531 2753 2804
2628 2829 2870
1607 1875 2070
2050 2328 2447
2467 2702 2760
2580 2792 2837
2678 2868 2903
2778 2946 2968
2874 3023 3032
2966 3100 3095
3050 3173 3156
1702 1976 2160
2148 2425 2526
2580 2792 2837
2990 3121 3113
3085 3204 3181
3148 3261 3230
3204 3312 3276
3257 3360 3321
3305 3403 3361
1804 2079 2245
2244 2513 2600
2678 2868 2903
3085 3204 3181
3318 3415 3372
3373 3463 3418
3415 3499 3453
3453 3533 3485
3489 3564 3516
1903 2179 2326
2339 2597 2671
2778 2946 2968
3148 3261 3230
3373 3463 3418
3533 3604 3555
3567 3637 3588
3594 3663 3615
3620 3688 3641
2000 2278 2406
2435 2676 2738
2874 3023 3032
3204 3312 3276
3415 3499 3453
3567 3637 3588
3667 3737 3691
3689 3760 3715
3706 3778 3734
2099 2377 2487
2531 2753 2804
2966 3100 3095
3257 3360 3321
3453 3533 3485
3594 3663 3615
3689 3760 3715
3760 3834 3793
3776 3851 3812
2195 2470 2563
2628 2829 2870
3050 3173 3156
3305 3403 3361
3489 3564 3516
3620 3688 3641
3706 3778 3734
3776 3851 3812
3837 3917 3884
