src/luts/Noir_2_-_Rec709.3dl
# Created by Benjamin (IWLTBAP) : http://luts.iwltbap.com
# Copyright: (C) Copyright 2016 Triune Films and IWLTBAP
# Blockbuster LUTs Pack
0 64 128 192 256 320 384 448 512 576 640 704 768 832 896 960 1023
0 0 0
0 0 0
0 0 0
0 0 0
0 0 0
0 0 0
0 0 0
0 0 0
0 0 0
0 0 0
0 0 0
0 0 0
0 0 0
0 0 0
0 0 0
0 0 0
0 0 0
0 0 0
0 0 0
0 0 0
0 0 0
0 0 0
0 0 0
0 0 0
0 0 0
0 0 0
0 0 0
0 0 0
0 0 0
0 0 0
0 0 0
0 0 0
0 0 0
0 0 0
0 0 0
0 0 0
0 0 0
0 0 0
0 0 0
0 0 0
0 0 0
0 0 0
0 0 0
0 0 0
0 0 0
0 0 0
0 0 0
0 0 0
0 0 0
0 0 0
0 0 0
0 0 0
0 0 0
0 0 0
0 0 0
0 0 0
0 0 0
0 0 0
0 0 0
0 0 0
0 0 0
0 0 0
0 0 0
0 0 0
0 0 0
0 0 0
0 0 0
0 0 0
0 0 0
0 0 0
0 0 0
0 0 0
0 0 0
0 0 0
0 0 0
0 0 0
0 0 0
0 0 0
0 0 0
0 0 0
0 0 0
0 0 0
0 0 0
0 0 0
0 0 0
0 0 0
0 0 0
0 0 0
0 0 0
0 0 0
0 0 0
0 0 0
0 0 0
0 0 0
0 0 0
0 0 0
0 0 0
0 0 0
0 0 0
0 0 0
0 0 0
0 0 0
0 0 0
0 0 0
0 0 0
0 0 0
0 0 0
0 0 0
0 0 0
0 0 0
0 0 0
0 0 0
0 0 0
0 0 0
0 0 0
0 0 0
0 0 0
0 0 0
0 0 0
0 0 0
0 0 0
0 0 0
0 0 0
0 0 0
0 0 0
0 0 0
0 0 0
0 0 0
0 0 0
0 0 0
0 0 0
0 0 0
0 0 0
0 0 0
0 0 0
0 0 0
0 0 0
0 0 0
0 0 0
0 0 0
0 0 0
0 0 0
0 0 0
0 0 0
0 0 0
0 0 0
0 0 0
0 0 0
0 0 0
0 0 0
0 0 0
0 0 0
0 0 0
0 0 0
0 0 0
0 0 0
0 0 0
0 0 0
0 0 0
0 0 0
0 0 0
0 0 0
0 0 0
0 0 0
0 0 0
0 0 0
0 0 0
0 0 0
0 0 0
0 0 0
0 0 0
0 0 0
0 0 0
0 0 0
0 0 0
0 0 0
0 0 0
0 0 0
0 0 0
0 0 0
0 0 0
0 0 0
0 0 0
0 0 0
0 0 0
0 0 0
0 0 0
0 0 0
0 0 0
0 0 0
0 0 0
0 0 0
0 0 0
0 0 0
0 0 0
0 0 0
0 0 0
0 0 0
0 0 0
0 0 0
0 0 0
0 0 0
0 0 0
0 0 0
0 0 0
0 0 0
0 0 0
0 0 0
0 0 0
0 0 0
0 0 0
0 0 0
0 0 0
0 0 0
0 0 0
0 0 0
0 0 0
0 0 0
0 0 0
0 0 0
0 0 0
0 0 0
0 0 0
0 0 0
0 0 0
0 0 0
0 0 0
0 0 0
0 0 0
0 0 0
0 0 0
0 0 0
0 0 0
0 0 0
0 0 0
0 0 0
0 0 0
0 0 0
0 0 0
0 0 0
0 0 0
0 0 0
0 0 0
0 0 0
0 0 0
0 0 0
0 0 0
0 0 0
0 0 0
0 0 0
0 0 0
0 0 0
0 0 0
0 0 0
0 0 0
0 0 0
0 0 0
0 0 0
0 0 0
0 0 0
0 0 0
0 0 0
0 0 0
0 0 0
0 0 0
0 0 0
0 0 0
0 0 0
0 0 0
0 0 0
0 0 0
0 0 0
0 0 0
0 0 0
0 0 0
0 0 0
0 0 0
0 0 0
0 0 0
0 0 0
0 0 0
0 0 0
0 0 0
0 0 0
0 0 0
0 0 0
0 0 0
0 0 0
0 0 0
0 0 0
0 0 0
0 0 0
0 0 0
0 0 0
0 0 0
0 0 0
0 0 0
0 0 0
0 0 0
0 0 0
0 0 0
0 0 0
0 0 0
0 0 0
0 0 0
0 0 0
0 0 0
241 241 241
248 248 248
248 248 248
248 248 248
248 248 248
248 248 248
248 248 248
248 248 248
248 248 248
248 248 248
248 248 248
248 248 248
248 248 248
248 248 248
248 248 248
248 248 248
0 0 0
248 248 248
256 256 256
256 256 256
256 256 256
256 256 256
256 256 256
256 256 256
256 256 256
256 256 256
256 256 256
256 256 256
256 256 256
256 256 256
256 256 256
256 256 256
256 256 256
0 0 0
248 248 248
256 256 256
256 256 256
256 256 256
256 256 256
256 256 256
256 256 256
256 256 256
256 256 256
256 256 256
256 256 256
256 256 256
256 256 256
256 256 256
256 256 256
256 256 256
0 0 0
248 248 248
256 256 256
256 256 256
256 256 256
256 256 256
256 256 256
256 256 256
256 256 256
256 256 256
256 256 256
256 256 256
256 256 256
256 256 256
256 256 256
256 256 256
256 256 256
0 0 0
248 248 248
256 256 256
256 256 256
256 256 256
256 256 256
256 256 256
256 256 256
256 256 256
256 256 256
256 256 256
256 256 256
256 256 256
256 256 256
256 256 256
256 256 256
256 256 256
0 0 0
248 248 248
256 256 256
256 256 256
256 256 256
256 256 256
256 256 256
256 256 256
256 256 256
256 256 256
256 256 256
256 256 256
256 256 256
256 256 256
256 256 256
256 256 256
256 256 256
0 0 0
248 248 248
256 256 256
256 256 256
256 256 256
256 256 256
256 256 256
256 256 256
256 256 256
256 256 256
256 256 256
256 256 256
256 256 256
256 256 256
256 256 256
256 256 256
256 256 256
0 0 0
248 248 248
256 256 256
256 256 256
256 256 256
256 256 256
256 256 256
256 256 256
256 256 256
256 256 256
256 256 256
256 256 256
256 256 256
256 256 256
256 256 256
256 256 256
256 256 256
0 0 0
248 248 248
256 256 256
256 256 256
256 256 256
256 256 256
256 256 256
256 256 256
256 256 256
256 256 256
256 256 256
256 256 256
256 256 256
256 256 256
256 256 256
256 256 256
256 256 256
0 0 0
248 248 248
256 256 256
256 256 256
256 256 256
256 256 256
256 256 256
256 256 256
256 256 256
256 256 256
256 256 256
256 256 256
256 256 256
256 256 256
256 256 256
256 256 256
256 256 256
0 0 0
248 248 248
256 256 256
256 256 256
256 256 256
256 256 256
256 256 256
256 256 256
256 256 256
256 256 256
256 256 256
256 256 256
256 256 256
256 256 256
256 256 256
256 256 256
256 256 256
0 0 0
248 248 248
256 256 256
256 256 256
256 256 256
256 256 256
256 256 256
256 256 256
256 256 256
256 256 256
256 256 256
256 256 256
256 256 256
256 256 256
256 256 256
256 256 256
256 256 256
0 0 0
248 248 248
256 256 256
256 256 256
256 256 256
256 256 256
256 256 256
256 256 256
256 256 256
256 256 256
256 256 256
256 256 256
256 256 256
256 256 256
256 256 256
256 256 256
256 256 256
0 0 0
248 248 248
256 256 256
256 256 256
256 256 256
256 256 256
256 256 256
256 256 256
256 256 256
256 256 256
256 256 256
256 256 256
256 256 256
256 256 256
256 256 256
256 256 256
256 256 256
0 0 0
248 248 248
256 256 256
256 256 256
256 256 256
256 256 256
256 256 256
256 256 256
256 256 256
256 256 256
256 256 256
256 256 256
256 256 256
256 256 256
256 256 256
256 256 256
256 256 256
0 0 0
248 248 248
256 256 256
256 256 256
256 256 256
256 256 256
256 256 256
256 256 256
256 256 256
256 256 256
256 256 256
256 256 256
256 256 256
256 256 256
256 256 256
256 256 256
256 256 256
0 0 0
0 0 0
0 0 0
0 0 0
0 0 0
0 0 0
0 0 0
0 0 0
0 0 0
0 0 0
0 0 0
0 0 0
0 0 0
0 0 0
0 0 0
0 0 0
0 0 0
0 0 0
248 248 248
256 256 256
256 256 256
256 256 256
256 256 256
256 256 256
256 256 256
256 256 256
256 256 256
256 256 256
256 256 256
256 256 256
256 256 256
256 256 256
256 256 256
256 256 256
0 0 0
256 256 256
485 485 485
497 497 497
497 497 497
497 497 497
497 497 497
497 497 497
497 497 497
497 497 497
497 497 497
497 497 497
497 497 497
497 497 497
497 497 497
497 497 497
497 497 497
0 0 0
256 256 256
497 497 497
512 512 512
512 512 512
512 512 512
512 512 512
512 512 512
512 512 512
512 512 512
512 512 512
512 512 512
512 512 512
512 512 512
512 512 512
512 512 512
512 512 512
0 0 0
256 256 256
497 497 497
512 512 512
512 512 512
512 512 512
512 512 512
512 512 512
512 512 512
512 512 512
512 512 512
512 512 512
512 512 512
512 512 512
512 512 512
512 512 512
512 512 512
0 0 0
256 256 256
497 497 497
512 512 512
512 512 512
512 512 512
512 512 512
512 512 512
512 512 512
512 512 512
512 512 512
512 512 512
512 512 512
512 512 512
512 512 512
512 512 512
512 512 512
0 0 0
256 256 256
497 497 497
512 512 512
512 512 512
512 512 512
512 512 512
512 512 512
512 512 512
512 512 512
512 512 512
512 512 512
512 512 512
512 512 512
512 512 512
512 512 512
512 512 512
0 0 0
256 256 256
497 497 497
512 512 512
512 512 512
512 512 512
512 512 512
512 512 512
512 512 512
512 512 512
512 512 512
512 512 512
512 512 512
512 512 512
512 512 512
512 512 512
512 512 512
0 0 0
256 256 256
497 497 497
512 512 512
512 512 512
512 512 512
512 512 512
512 512 512
512 512 512
512 512 512
512 512 512
512 512 512
512 512 512
512 512 512
512 512 512
512 512 512
512 512 512
0 0 0
256 256 256
497 497 497
512 512 512
512 512 512
512 512 512
512 512 512
512 512 512
512 512 512
512 512 512
512 512 512
512 512 512
512 512 512
512 512 512
512 512 512
512 512 512
512 512 512
0 0 0
256 256 256
497 497 497
512 512 512
512 512 512
512 512 512
512 512 512
512 512 512
512 512 512
512 512 512
512 512 512
512 512 512
512 512 512
512 512 512
512 512 512
512 512 512
512 512 512
0 0 0
256 256 256
497 497 497
512 512 512
512 512 512
512 512 512
512 512 512
512 512 512
512 512 512
512 512 512
512 512 512
512 512 512
512 512 512
512 512 512
512 512 512
512 512 512
512 512 512
0 0 0
256 256 256
497 497 497
512 512 512
512 512 512
512 512 512
512 512 512
512 512 512
512 512 512
512 512 512
512 512 512
512 512 512
512 512 512
512 512 512
512 512 512
512 512 512
512 512 512
0 0 0
256 256 256
497 497 497
512 512 512
512 512 512
512 512 512
512 512 512
512 512 512
512 512 512
512 512 512
512 512 512
512 512 512
512 512 512
512 512 512
512 512 512
512 512 512
512 512 512
0 0 0
256 256 256
497 497 497
512 512 512
512 512 512
512 512 512
512 512 512
512 512 512
512 512 512
512 512 512
512 512 512
512 512 512
512 512 512
512 512 512
512 512 512
512 512 512
512 512 512
0 0 0
256 256 256
497 497 497
512 512 512
512 512 512
512 512 512
512 512 512
512 512 512
512 512 512
512 512 512
512 512 512
512 512 512
512 512 512
512 512 512
512 512 512
512 512 512
512 512 512
0 0 0
256 256 256
497 497 497
512 512 512
512 512 512
512 512 512
512 512 512
512 512 512
512 512 512
512 512 512
512 512 512
512 512 512
512 512 512
512 512 512
512 512 512
512 512 512
512 512 512
0 0 0
0 0 0
0 0 0
0 0 0
0 0 0
0 0 0
0 0 0
0 0 0
0 0 0
0 0 0
0 0 0
0 0 0
0 0 0
0 0 0
0 0 0
0 0 0
0 0 0
0 0 0
248 248 248
256 256 256
256 256 256
256 256 256
256 256 256
256 256 256
256 256 256
256 256 256
256 256 256
256 256 256
256 256 256
256 256 256
256 256 256
256 256 256
256 256 256
