src/luts/Noir_2_-_Rec709.3dl
# Created by Benjamin (IWLTBAP) : http://luts.iwltbap.com
# Copyright: (C) Copyright 2016 Triune Films and IWLTBAP
# Blockbuster LUTs Pack
0 128 256 384 512 640 768 896 1023
0 0 0
0 0 0
0 0 0
0 0 0
0 0 0
0 0 0
0 0 0
0 0 0
0 0 0
0 0 0
0 0 0
0 0 0
0 0 0
0 0 0
0 0 0
0 0 0
0 0 0
0 0 0
0 0 0
0 0 0
0 0 0
0 0 0
0 0 0
0 0 0
0 0 0
0 0 0
0 0 0
0 0 0
0 0 0
0 0 0
0 0 0
0 0 0
0 0 0
0 0 0
0 0 0
0 0 0
0 0 0
0 0 0
0 0 0
0 0 0
0 0 0
0 0 0
0 0 0
0 0 0
0 0 0
0 0 0
0 0 0
0 0 0
0 0 0
0 0 0
0 0 0
0 0 0
0 0 0
0 0 0
0 0 0
0 0 0
0 0 0
0 0 0
0 0 0
0 0 0
0 0 0
0 0 0
0 0 0
0 0 0
0 0 0
0 0 0
0 0 0
0 0 0
0 0 0
0 0 0
0 0 0
0 0 0
0 0 0
0 0 0
0 0 0
0 0 0
0 0 0
0 0 0
0 0 0
0 0 0
0 0 0
0 0 0
0 0 0
0 0 0
0 0 0
0 0 0
0 0 0
0 0 0
0 0 0
0 0 0
0 0 0
485 485 485
497 497 497
497 497 497
497 497 497
497 497 497
497 497 497
497 497 497
497 497 497
0 0 0
497 497 497
512 512 512
512 512 512
512 512 512
512 512 512
512 512 512
512 512 512
512 512 512
0 0 0
497 497 497
512 512 512
512 512 512
512 512 512
512 512 512
512 512 512
512 512 512
512 512 512
0 0 0
497 497 497
512 512 512
512 512 512
512 512 512
512 512 512
512 512 512
512 512 512
512 512 512
0 0 0
497 497 497
512 512 512
512 512 512
512 512 512
512 512 512
512 512 512
512 512 512
512 512 512
0 0 0
497 497 497
512 512 512
512 512 512
512 512 512
512 512 512
512 512 512
512 512 512
512 512 512
0 0 0
497 497 497
512 512 512
512 512 512
512 512 512
512 512 512
512 512 512
512 512 512
512 512 512
0 0 0
497 497 497
512 512 512
512 512 512
512 512 512
512 512 512
512 512 512
512 512 512
512 512 512
0 0 0
0 0 0
0 0 0
0 0 0
0 0 0
0 0 0
0 0 0
0 0 0
0 0 0
0 0 0
497 497 497
512 512 512
512 512 512
512 512 512
512 512 512
512 512 512
512 512 512
512 512 512
0 0 0
512 512 512
980 980 980
999 999 999
999 999 999
999 999 999
999 999 999
999 999 999
999 999 999
0 0 0
512 512 512
999 999 999
1024 1024 1024
1024 1024 1024
1024 1024 1024
1024 1024 1024
1024 1024 1024
1024 1024 1024
0 0 0
512 512 512
999 999 999
1024 1024 1024
1024 1024 1024
1024 1024 1024
1024 1024 1024
1024 1024 1024
1024 1024 1024
0 0 0
512 512 512
999 999 999
1024 1024 1024
1024 1024 1024
1024 1024 1024
1024 1024 1024
1024 1024 1024
1024 1024 1024
0 0 0
512 512 512
999 999 999
1024 1024 1024
1024 1024 1024
1024 1024 1024
1024 1024 1024
1024 1024 1024
1024 1024 1024
0 0 0
512 512 512
999 999 999
1024 1024 1024
1024 1024 1024
1024 1024 1024
1024 1024 1024
1024 1024 1024
1024 1024 1024
0 0 0
512 512 512
999 999 999
1024 1024 1024
1024 1024 1024
1024 1024 1024
1024 1024 1024
1024 1024 1024
1024 1024 1024
0 0 0
0 0 0
0 0 0
0 0 0
0 0 0
0 0 0
0 0 0
0 0 0
0 0 0
0 0 0
497 497 497
512 512 512
512 512 512
512 512 512
512 512 512
512 512 512
512 512 512
512 512 512
0 0 0
512 512 512
999 999 999
1024 1024 1024
1024 1024 1024
1024 1024 1024
1024 1024 1024
1024 1024 1024
1024 1024 1024
0 0 0
512 512 512
1024 1024 1024
1485 1485 1485
1505 1505 1505
1505 1505 1505
1505 1505 1505
1505 1505 1505
1505 1505 1505
0 0 0
512 512 512
1024 1024 1024
1505 1505 1505
1536 1536 1536
1536 1536 1536
1536 1536 1536
1536 1536 1536
1536 1536 1536
0 0 0
512 512 512
1024 1024 1024
1505 1505 1505
1536 1536 1536
1536 1536 1536
1536 1536 1536
1536 1536 1536
1536 1536 1536
0 0 0
512 512 512
1024 1024 1024
1505 1505 1505
1536 1536 1536
1536 1536 1536
1536 1536 1536
1536 1536 1536
1536 1536 1536
0 0 0
512 512 512
1024 1024 1024
1505 1505 1505
1536 1536 1536
1536 1536 1536
1536 1536 1536
1536 1536 1536
1536 1536 1536
0 0 0
512 512 512
1024 1024 1024
1505 1505 1505
1536 1536 1536
1536 1536 1536
1536 1536 1536
1536 1536 1536
1536 1536 1536
0 0 0
0 0 0
0 0 0
0 0 0
0 0 0
0 0 0
0 0 0
0 0 0
0 0 0
0 0 0
497 497 497
512 512 512
512 512 512
512 512 512
512 512 512
512 512 512
512 512 512
512 512 512
0 0 0
512 512 512
999 999 999
1024 1024 1024
1024 1024 1024
1024 1024 1024
1024 1024 1024
1024 1024 1024
1024 1024 1024
0 0 0
512 512 512
1024 1024 1024
1505 1505 1505
1536 1536 1536
1536 1536 1536
1536 1536 1536
1536 1536 1536
1536 1536 1536
0 0 0
512 512 512
1024 1024 1024
1536 1536 1536
1998 1998 1998
2014 2014 2014
2014 2014 2014
2014 2014 2014
2014 2014 2014
0 0 0
512 512 512
1024 1024 1024
1536 1536 1536
2014 2014 2014
2048 2048 2048
2048 2048 2048
2048 2048 2048
2048 2048 2048
0 0 0
512 512 512
1024 1024 1024
1536 1536 1536
2014 2014 2014
2048 2048 2048
2048 2048 2048
2048 2048 2048
2048 2048 2048
0 0 0
512 512 512
1024 1024 1024
1536 1536 1536
2014 2014 2014
2048 2048 2048
2048 2048 2048
2048 2048 2048
2048 2048 2048
0 0 0
512 512 512
1024 1024 1024
1536 1536 1536
2014 2014 2014
2048 2048 2048
2048 2048 2048
2048 2048 2048
2048 2048 2048
0 0 0
0 0 0
0 0 0
0 0 0
0 0 0
0 0 0
0 0 0
0 0 0
0 0 0
0 0 0
497 497 497
512 512 512
512 512 512
512 512 512
512 512 512
512 512 512
512 512 512
512 512 512
0 0 0
512 512 512
999 999 999
1024 1024 1024
1024 1024 1024
1024 1024 1024
1024 1024 1024
1024 1024 1024
1024 1024 1024
0 0 0
512 512 512
1024 1024 1024
1505 1505 1505
1536 1536 1536
1536 1536 1536
1536 1536 1536
1536 1536 1536
1536 1536 1536
0 0 0
512 512 512
1024 1024 1024
1536 1536 1536
2014 2014 2014
2048 2048 2048
2048 2048 2048
2048 2048 2048
2048 2048 2048
0 0 0
512 512 512
1024 1024 1024
1536 1536 1536
2048 2048 2048
2517 2517 2517
2528 2528 2528
2528 2528 2528
2528 2528 2528
0 0 0
512 512 512
1024 1024 1024
1536 1536 1536
2048 2048 2048
2528 2528 2528
2559 2559 2559
2559 2559 2559
2559 2559 2559
0 0 0
512 512 512
1024 1024 1024
1536 1536 1536
2048 2048 2048
2528 2528 2528
2559 2559 2559
2559 2559 2559
2559 2559 2559
0 0 0
512 512 512
1024 1024 1024
1536 1536 1536
2048 2048 2048
2528 2528 2528
2559 2559 2559
2559 2559 2559
2559 2559 2559
0 0 0
0 0 0
0 0 0
0 0 0
0 0 0
0 0 0
0 0 0
0 0 0
0 0 0
0 0 0
497 497 497
512 512 512
512 512 512
512 512 512
512 512 512
512 512 512
512 512 512
512 512 512
0 0 0
512 512 512
999 999 999
1024 1024 1024
1024 1024 1024
1024 1024 1024
1024 1024 1024
1024 1024 1024
1024 1024 1024
0 0 0
512 512 512
1024 1024 1024
1505 1505 1505
1536 1536 1536
1536 1536 1536
1536 1536 1536
1536 1536 1536
1536 1536 1536
0 0 0
512 512 512
1024 1024 1024
1536 1536 1536
2014 2014 2014
2048 2048 2048
2048 2048 2048
2048 2048 2048
2048 2048 2048
0 0 0
512 512 512
1024 1024 1024
1536 1536 1536
2048 2048 2048
2528 2528 2528
2559 2559 2559
2559 2559 2559
2559 2559 2559
0 0 0
512 512 512
1024 1024 1024
1536 1536 1536
2048 2048 2048
2559 2559 2559
3040 3040 3040
3047 3047 3047
3047 3047 3047
0 0 0
512 512 512
1024 1024 1024
1536 1536 1536
2048 2048 2048
2559 2559 2559
3047 3047 3047
3071 3071 3071
3071 3071 3071
0 0 0
512 512 512
1024 1024 1024
1536 1536 1536
2048 2048 2048
2559 2559 2559
3047 3047 3047
3071 3071 3071
3071 3071 3071
0 0 0
0 0 0
0 0 0
0 0 0
0 0 0
0 0 0
0 0 0
0 0 0
0 0 0
0 0 0
497 497 497
512 512 512
512 512 512
512 512 512
512 512 512
512 512 512
512 512 512
512 512 512
0 0 0
512 512 512
999 999 999
1024 1024 1024
1024 1024 1024
1024 1024 1024
1024 1024 1024
1024 1024 1024
1024 1024 1024
0 0 0
512 512 512
1024 1024 1024
1505 1505 1505
1536 1536 1536
1536 1536 1536
1536 1536 1536
1536 1536 1536
1536 1536 1536
0 0 0
512 512 512
1024 1024 1024
1536 1536 1536
2014 2014 2014
2048 2048 2048
2048 2048 2048
2048 2048 2048
2048 2048 2048
0 0 0
512 512 512
1024 1024 1024
1536 1536 1536
2048 2048 2048
2528 2528 2528
2559 2559 2559
2559 2559 2559
2559 2559 2559
0 0 0
512 512 512
1024 1024 1024
1536 1536 1536
2048 2048 2048
2559 2559 2559
3047 3047 3047
3071 3071 3071
3071 3071 3071
0 0 0
512 512 512
1024 1024 1024
1536 1536 1536
2048 2048 2048
2559 2559 2559
3071 3071 3071
3567 3567 3567
3569 3569 3569
0 0 0
512 512 512
1024 1024 1024
1536 1536 1536
2048 2048 2048
2559 2559 2559
3071 3071 3071
3569 3569 3569
3583 3583 3583
0 0 0
0 0 0
0 0 0
0 0 0
0 0 0
0 0 0
0 0 0
0 0 0
0 0 0
0 0 0
497 497 497
512 512 512
512 512 512
512 512 512
512 512 512
512 512 512
512 512 512
512 512 512
0 0 0
512 512 512
999 999 999
1024 1024 1024
1024 1024 1024
1024 1024 1024
1024 1024 1024
1024 1024 1024
1024 1024 1024
0 0 0
512 512 512
1024 1024 1024
1505 1505 1505
1536 1536 1536
1536 1536 1536
1536 1536 1536
1536 1536 1536
1536 1536 1536
0 0 0
512 512 512
1024 1024 1024
1536 1536 1536
2014 2014 2014
2048 2048 2048
2048 2048 2048
2048 2048 2048
2048 2048 2048
0 0 0
512 512 512
1024 1024 1024
1536 1536 1536
2048 2048 2048
2528 2528 2528
2559 2559 2559
2559 2559 2559
2559 2559 2559
0 0 0
512 512 512
1024 1024 1024
1536 1536 1536
2048 2048 2048
2559 2559 2559
3047 3047 3047
3071 3071 3071
3071 3071 3071
0 0 0
512 512 512
1024 1024 1024
1536 1536 1536
2048 2048 2048
2559 2559 2559
3071 3071 3071
3569 3569 3569
3583 3583 3583
0 0 0
512 512 512
1024 1024 1024
1536 1536 1536
2048 2048 2048
2559 2559 2559
3071 3071 3071
3583 3583 3583
4095 4095 4095
