src/luts/Noir_3_-_Rec709.3dl
# Created by Benjamin (IWLTBAP) : http://luts.iwltbap.com
# Copyright: (C) Copyright 2016 Triune Films and IWLTBAP
# Blockbuster LUTs Pack
0 64 128 192 256 320 384 448 512 576 640 704 768 832 896 960 1023
0 2 1
14 17 18
28 32 35
42 47 53
56 62 70
70 78 87
83 92 104
99 108 122
115 124 141
131 141 160
148 159 181
168 180 206
187 201 231
208 224 258
232 251 290
257 280 327
283 312 367
27 31 34
14 17 18
27 31 35
41 47 52
55 62 69
69 77 86
83 92 103
98 107 121
114 124 140
130 140 159
147 158 180
167 179 205
186 200 230
207 223 257
231 249 288
256 279 325
282 310 365
53 60 67
40 45 50
28 32 36
40 46 51
54 61 68
68 76 86
82 91 103
97 106 121
113 123 139
129 139 158
146 157 179
166 178 203
185 199 229
206 222 255
229 248 286
254 278 324
280 308 362
79 88 99
66 74 83
53 60 67
42 48 53
54 60 67
68 75 85
81 90 102
96 106 120
112 122 138
128 138 157
146 156 178
165 177 202
184 198 227
204 220 254
228 247 285
253 276 322
279 306 360
109 118 134
94 103 116
79 88 99
66 74 83
56 62 70
67 75 84
81 90 101
96 105 119
112 121 138
127 138 156
145 155 177
164 176 201
184 197 226
203 219 252
227 246 283
252 275 320
277 305 358
140 150 171
124 134 152
109 118 134
94 103 116
79 88 99
69 77 87
80 89 100
95 104 118
111 120 137
127 137 156
144 154 176
163 175 200
183 196 225
202 218 251
226 244 282
251 273 318
276 303 357
176 189 217
158 169 193
140 150 171
124 134 152
109 118 134
94 103 116
83 92 103
94 103 117
110 120 136
126 136 155
143 153 174
163 174 199
182 195 224
201 217 249
225 243 280
250 272 316
275 302 355
216 233 268
195 210 241
176 189 217
158 169 193
140 150 171
124 134 152
109 118 134
97 107 121
109 119 135
125 135 154
142 152 173
162 173 197
181 194 223
200 216 248
224 242 279
248 270 315
274 301 353
263 288 336
239 259 301
216 233 269
195 210 241
176 189 217
158 169 193
140 150 171
124 134 152
113 122 139
124 134 153
141 151 172
161 172 196
180 193 221
199 215 247
223 240 277
247 269 313
272 299 351
323 360 428
290 320 378
263 288 337
239 259 301
216 233 269
195 210 241
176 189 217
158 169 193
140 150 171
128 138 157
140 151 171
160 171 195
179 192 220
198 214 246
221 239 276
246 268 311
271 298 349
398 450 538
360 403 482
323 360 428
290 320 378
263 288 337
239 259 301
216 233 269
195 210 241
176 189 217
158 169 193
144 154 176
159 170 194
178 191 219
198 213 244
220 238 274
245 266 309
270 296 347
483 569 660
439 506 598
398 450 538
360 403 482
323 360 428
290 320 378
263 288 337
239 259 301
216 233 269
195 210 241
176 189 217
162 174 198
177 190 218
197 212 243
219 237 273
244 265 307
269 295 346
579 715 785
529 636 722
483 569 660
439 506 598
398 450 538
360 403 482
323 360 428
290 320 378
263 288 337
239 259 301
216 233 269
195 210 241
180 193 221
196 211 242
218 235 271
242 263 305
268 293 344
682 877 922
632 799 853
579 715 785
529 636 721
483 569 660
439 506 598
397 449 537
360 403 482
323 360 428
290 320 378
263 288 337
239 259 300
216 233 269
198 213 245
217 234 270
241 262 304
266 292 342
788 1021 1075
733 953 994
682 877 922
632 799 853
579 715 785
529 636 721
483 569 660
439 506 598
397 449 537
360 403 482
323 359 427
290 320 378
263 288 337
239 259 300
218 236 272
240 260 302
265 290 340
919 1158 1254
849 1089 1161
788 1021 1075
733 953 994
682 877 922
632 799 853
579 715 785
528 635 721
483 569 660
439 506 597
397 448 537
360 403 482
323 359 427
290 320 377
263 288 337
240 261 302
264 289 338
1069 1310 1468
994 1233 1359
919 1158 1254
849 1089 1161
787 1021 1074
733 953 994
682 877 922
632 799 853
579 715 785
528 635 720
483 569 660
439 506 597
397 447 537
360 403 482
323 359 427
290 320 377
263 288 336
30 34 38
37 42 46
50 57 63
64 72 81
78 87 98
93 102 115
109 118 134
124 134 153
141 152 173
161 172 196
180 193 221
200 215 247
223 240 277
247 269 313
273 299 351
304 337 399
341 381 455
37 42 47
65 72 82
79 88 99
94 103 117
110 119 135
126 136 154
143 153 175
162 174 198
181 195 223
201 217 250
225 243 280
249 272 316
275 302 355
308 341 404
345 385 459
383 431 516
426 488 578
63 70 79
92 101 115
81 90 101
94 103 117
110 120 136
126 136 155
143 154 175
163 174 199
182 195 224
202 217 250
225 243 281
250 272 317
276 303 356
308 341 405
345 386 460
384 432 517
427 489 580
90 99 112
122 132 150
109 118 134
96 105 119
109 119 135
125 135 154
142 153 174
162 173 198
181 194 223
201 216 249
224 242 279
249 271 315
274 301 354
306 340 403
343 384 458
382 429 515
425 486 576
120 130 147
156 167 191
140 150 171
124 134 152
112 121 138
124 134 153
141 152 173
161 172 197
180 193 221
200 215 248
223 241 278
247 269 313
273 300 352
305 338 400
342 382 455
380 427 512
422 483 573
153 164 187
193 208 239
176 189 217
158 169 193
140 150 171
127 137 156
140 151 172
160 171 195
179 192 220
199 214 246
222 239 276
246 268 312
272 298 350
303 336 398
340 379 452
378 425 509
420 479 570
190 204 235
237 257 298
216 233 269
195 210 241
176 189 217
158 169 193
144 155 176
159 170 194
178 191 219
198 213 245
221 238 275
245 266 310
270 297 348
302 334 395
338 377 450
376 423 506
418 476 567
233 253 292
288 318 375
263 288 337
239 260 301
216 233 269
195 210 241
176 189 217
163 174 199
177 190 218
197 212 243
220 237 273
244 265 308
269 295 346
300 332 393
336 375 447
374 421 504
416 473 564
283 312 367
356 399 477
324 361 429
291 321 379
263 288 337
239 260 301
216 233 269
195 210 241
181 195 223
196 211 242
218 236 272
243 264 306
268 294 344
298 330 390
334 373 444
373 419 501
414 470 561
350 392 468
436 502 592
398 451 538
360 403 482
324 361 429
291 321 379
263 288 337
239 260 301
216 233 269
200 216 248
217 235 270
241 262 304
267 292 342
297 328 388
333 371 442
371 416 498
411 467 558
428 490 582
525 631 715
484 570 660
440 507 598
398 451 538
360 403 482
324 361 429
291 321 379
263 288 338
239 260 301
222 240 277
240 261 302
265 291 340
295 326 385
331 369 439
369 414 496
409 464 555
517 618 706
627 790 847
580 716 786
530 637 721
484 570 660
440 507 598
398 450 538
360 403 482
324 361 429
291 321 379
263 288 338
244 266 309
264 289 339
294 324 383
329 366 436
367 412 493
407 461 552
619 778 836
728 945 988
682 877 922
632 798 854
580 716 785
529 637 721
484 570 660
440 507 598
398 450 538
360 403 482
324 360 429
291 321 379
268 294 345
292 322 381
327 364 434
365 410 490
405 458 549
719 935 975
844 1082 1153
789 1021 1076
733 952 995
682 877 922
632 798 854
580 716 785
529 637 721
484 569 660
440 507 598
398 450 538
360 403 482
324 360 429
296 327 386
325 362 431
364 408 487
403 455 545
832 1072 1138
987 1226 1350
920 1158 1256
850 1089 1162
788 1021 1076
733 952 995
682 877 922
632 798 854
580 716 785
529 636 721
484 569 660
440 507 598
397 449 537
360 403 482
328 365 435
362 405 485
401 452 542
975 1214 1332
1144 1387 1564
1070 1311 1468
995 1234 1361
920 1158 1256
850 1089 1162
788 1021 1075
733 952 995
682 877 922
632 798 853
580 716 785
529 636 720
484 569 660
440 507 598
397 448 537
362 406 485
398 449 539
1131 1373 1548
1318 1571 1774
1237 1485 1681
1152 1396 1575
1070 1311 1468
995 1234 1361
920 1158 1256
850 1089 1162
788 1021 1075
733 952 995
681 877 922
632 798 853
580 717 785
528 635 720
484 569 660
440 507 598
397 447 537
60 67 75
66 74 83
73 82 92
87 96 108
102 112 127
118 128 146
134 145 164
153 164 187
173 185 212
192 206 237
214 231 266
238 258 299
263 288 336
291 322 380
327 364 433
365 409 490
405 457 548
66 74 83
97 106 120
105 115 130
121 131 148
137 147 168
156 167 191
175 188 215
195 210 241
217 234 270
241 262 304
267 292 342
296 328 387
332 370 441
371 416 498
412 467 558
457 531 623
503 597 688
74 82 93
106 116 131
137 147 168
157 168 192
176 189 216
196 210 242
218 235 271
242 263 306
268 293 344
298 330 390
334 372 443
372 417 500
413 471 560
458 533 624
504 600 688
556 679 754
610 763 824
101 110 125
135 146 166
173 186 212
161 173 197
177 190 218
197 212 244
220 237 274
244 265 308
269 295 347
301 333 394
337 376 448
375 421 504
417 475 565
462 539 629
508 605 693
560 685 759
615 770 830
131 141 161
172 184 211
212 229 264
195 210 241
180 193 221
196 211 242
219 236 272
243 264 307
268 294 344
299 331 391
335 374 445
373 419 501
414 472 562
460 536 626
506 601 691
557 681 756
612 767 827
167 179 205
211 227 262
259 283 330
239 260 302
216 234 270
199 215 247
218 235 271
242 263 305
267 292 342
297 329 389
333 371 442
371 416 498
412 469 559
458 532 623
504 598 688
554 676 752
610 763 823
205 221 255
257 280 327
318 354 420
292 322 380
263 288 338
239 260 302
222 240 277
240 261 303
265 291 341
296 327 386
331 369 440
369 414 496
410 466 556
455 530 620
501 594 685
552 672 749
607 759 820
251 273 318
315 350 415
391 442 528
360 403 482
325 361 430
292 322 380
264 289 338
245 267 311
264 289 339
294 325 384
330 367 437
367 412 493
408 463 553
453 526 617
499 591 682
549 668 746
605 755 817
306 339 402
388 437 523
476 558 649
440 508 599
398 452 539
360 404 482
325 361 430
292 322 380
270 296 347
293 323 382
328 365 434
365 410 490
406 460 549
451 523 614
497 588 679
546 664 742
602 751 813
378 425 509
472 553 644
571 703 774
530 639 722
484 570 660
440 508 599
398 452 539
360 404 482
325 361 430
299 331 392
326 363 432
364 408 488
404 457 546
449 520 611
495 585 675
544 660 739
600 747 810
461 537 629
566 695 768
673 862 910
632 798 854
581 717 786
530 639 722
484 570 660
440 508 599
398 451 539
360 404 482
333 371 442
362 406 485
401 454 543
447 517 608
492 582 672
541 656 735
597 742 807
553 674 752
669 858 905
779 1008 1062
734 951 996
682 876 923
632 798 854
581 717 786
530 639 721
484 570 660
440 508 599
398 451 538
368 413 495
399 451 540
445 514 605
490 578 669
538 652 732
594 738 803
657 838 887
774 1004 1055
908 1146 1240
852 1089 1163
789 1020 1077
734 951 996
682 876 923
632 798 854
581 717 786
530 638 721
484 570 660
440 508 599
406 461 550
442 511 602
488 575 666
536 647 729
592 734 800
760 987 1034
902 1141 1232
1057 1297 1448
995 1234 1361
921 1159 1258
852 1089 1163
789 1020 1077
734 951 996
682 876 923
632 798 854
581 717 786
529 638 721
484 570 660
447 518 609
486 572 663
533 643 725
589 730 796
884 1123 1207
1051 1291 1441
1222 1469 1661
1153 1397 1575
1071 1312 1468
995 1234 1362
921 1159 1257
852 1089 1163
789 1020 1076
734 951 996
682 877 922
632 798 854
581 717 786
529 637 720
489 577 667
531 640 722
586 726 793
1032 1272 1413
1215 1461 1655
1402 1659 1863
1327 1581 1783
1238 1486 1681
1153 1397 1575
1071 1312 1468
995 1234 1362
921 1159 1257
852 1089 1163
788 1020 1076
734 951 996
682 877 922
632 798 854
581 718 786
532 641 724
584 722 790
1193 1438 1629
1395 1653 1858
1589 1857 2053
1514 1775 1978
1419 1677 1881
1327 1581 1783
1238 1486 1681
1153 1396 1575
1071 1312 1468
995 1234 1361
921 1159 1257
852 1089 1163
788 1020 1075
734 951 996
681 877 922
632 798 853
581 718 786
90 99 112
97 107 121
105 114 129
113 123 139
128 138 157
146 156 178
165 177 202
184 198 227
205 221 254
228 247 285
253 276 322
279 307 362
312 347 412
350 392 468
389 438 526
433 497 588
479 562 654
97 107 121
131 141 160
140 150 171
150 160 182
168 180 206
187 201 231
208 225 259
232 251 291
257 280 327
284 313 369
318 353 420
356 399 476
395 446 534
439 506 598
486 572 663
533 643 726
