src/luts/Noir_1_-_Rec709.3dl
# Created by Benjamin (IWLTBAP) : http://luts.iwltbap.com
# Copyright: (C) Copyright 2016 Triune Films and IWLTBAP
# Blockbuster LUTs Pack
0 128 256 384 512 640 768 896 1023
16 16 80
64 64 125
126 126 183
194 194 245
270 270 316
338 338 380
425 425 461
506 506 536
599 599 622
71 71 131
168 168 222
245 245 293
316 316 360
391 391 429
483 483 514
580 580 605
680 680 698
770 770 782
140 140 196
257 257 304
368 368 408
462 462 495
561 561 587
645 645 665
743 743 757
839 839 846
961 961 959
209 209 260
333 333 375
470 470 502
625 625 646
719 719 734
817 817 825
930 930 930
1036 1036 1029
1152 1152 1137
301 301 345
424 424 460
570 570 595
732 732 746
901 901 904
992 992 988
1109 1109 1097
1219 1219 1199
1327 1327 1300
381 381 420
519 519 548
675 675 694
839 839 846
1018 1018 1012
1193 1193 1175
1306 1306 1280
1421 1421 1387
1531 1531 1490
479 479 511
637 637 657
777 777 788
960 960 959
1135 1135 1121
1321 1321 1294
1494 1494 1455
1615 1615 1568
1742 1742 1685
576 576 601
735 735 749
899 899 902
1084 1084 1073
1255 1255 1233
1448 1448 1412
1649 1649 1599
1823 1823 1760
1949 1949 1878
684 684 701
860 860 866
1035 1035 1028
1196 1196 1178
1386 1386 1354
1575 1575 1530
1781 1781 1721
1965 1965 1893
2173 2173 2086
83 83 143
174 174 227
242 242 290
322 322 365
410 410 447
503 503 533
584 584 609
691 691 708
797 797 807
190 190 242
338 338 379
427 427 463
510 510 540
610 610 633
705 705 721
815 815 823
916 916 918
1016 1016 1010
262 262 309
432 432 467
577 577 602
676 676 694
776 776 787
881 881 885
983 983 980
1090 1090 1079
1216 1216 1197
352 352 393
528 528 556
687 687 704
849 849 855
957 957 955
1070 1070 1061
1181 1181 1164
1294 1294 1269
1417 1417 1383
446 446 481
628 628 649
797 797 806
970 970 967
1140 1140 1126
1251 1251 1229
1372 1372 1341
1496 1496 1457
1604 1604 1557
541 541 568
742 742 756
904 904 906
1083 1083 1073
1267 1267 1243
1457 1457 1421
1584 1584 1538
1694 1694 1641
1819 1819 1757
641 641 661
855 855 860
1032 1032 1025
1214 1214 1194
1397 1397 1364
1593 1593 1547
1771 1771 1712
1908 1908 1840
2020 2020 1945
745 745 758
980 980 976
1160 1160 1144
1332 1332 1304
1538 1538 1496
1723 1723 1667
1911 1911 1842
2106 2106 2024
2231 2231 2141
881 881 885
1091 1091 1080
1270 1270 1247
1461 1461 1424
1662 1662 1611
1867 1867 1801
2058 2058 1979
2246 2246 2154
2440 2440 2334
142 142 197
261 261 308
375 375 415
472 472 504
556 556 583
658 658 678
754 754 767
866 866 871
959 959 957
261 261 308
443 443 477
579 579 604
688 688 705
785 785 795
883 883 887
1003 1003 998
1106 1106 1094
1220 1220 1200
396 396 434
601 601 625
797 797 806
912 912 914
1014 1014 1008
1129 1129 1116
1245 1245 1223
1367 1367 1337
1480 1480 1441
495 495 525
702 702 718
919 919 920
1098 1098 1087
1217 1217 1197
1337 1337 1309
1440 1440 1405
1560 1560 1517
1689 1689 1636
600 600 623
821 821 829
1040 1040 1033
1228 1228 1208
1409 1409 1376
1530 1530 1488
1656 1656 1605
1765 1765 1707
1888 1888 1821
709 709 725
933 933 933
1166 1166 1150
1355 1355 1326
1541 1541 1498
1735 1735 1679
1850 1850 1786
1976 1976 1903
2097 2097 2016
815 815 824
1050 1050 1042
1291 1291 1266
1479 1479 1441
1682 1682 1629
1858 1858 1794
2055 2055 1977
2189 2189 2101
2306 2306 2210
939 939 939
1170 1170 1153
1429 1429 1394
1605 1605 1558
1804 1804 1743
2005 2005 1930
2205 2205 2116
2379 2379 2278
2520 2520 2410
1060 1060 1052
1285 1285 1261
1564 1564 1520
1742 1742 1686
1933 1933 1863
2143 2143 2059
2330 2330 2233
2527 2527 2416
2710 2710 2586
219 219 269
347 347 388
486 486 517
631 631 653
733 733 748
830 830 837
931 931 932
1039 1039 1032
1160 1160 1145
361 361 401
549 549 576
694 694 710
856 856 862
965 965 963
1075 1075 1066
1188 1188 1170
1306 1306 1280
1422 1422 1388
504 504 534
705 705 721
933 933 933
1102 1102 1091
1218 1218 1198
1326 1326 1299
1456 1456 1419
1567 1567 1523
1698 1698 1644
659 659 678
880 880 884
1121 1121 1108
1357 1357 1327
1480 1480 1442
1602 1602 1556
1720 1720 1665
1842 1842 1779
1960 1960 1888
781 781 792
998 998 994
1249 1249 1227
1490 1490 1451
1682 1682 1629
1806 1806 1745
1933 1933 1863
2055 2055 1977
2173 2173 2086
881 881 885
1125 1125 1111
1380 1380 1349
1623 1623 1575
1811 1811 1750
2008 2008 1933
2137 2137 2052
2261 2261 2168
2387 2387 2285
1002 1002 997
1252 1252 1230
1495 1495 1456
1759 1759 1702
1951 1951 1879
2147 2147 2062
2338 2338 2240
2456 2456 2350
2575 2575 2460
1138 1138 1124
1369 1369 1339
1624 1624 1576
1885 1885 1819
2095 2095 2014
2284 2284 2190
2469 2469 2362
2651 2651 2531
2766 2766 2638
1263 1263 1240
1492 1492 1453
1757 1757 1699
2024 2024 1948
2225 2225 2135
2423 2423 2319
2610 2610 2493
2794 2794 2664
2961 2961 2819
307 307 350
438 438 473
593 593 617
757 757 769
904 904 906
1026 1026 1019
1144 1144 1129
1242 1242 1220
1364 1364 1334
451 451 485
648 648 668
821 821 829
978 978 975
1161 1161 1145
1281 1281 1257
1395 1395 1363
1507 1507 1467
1643 1643 1593
618 618 641
820 820 828
1049 1049 1041
1233 1233 1212
1425 1425 1390
1534 1534 1492
1670 1670 1619
1792 1792 1732
1903 1903 1835
770 770 781
1004 1004 999
1248 1248 1226
1499 1499 1460
1688 1688 1636
1811 1811 1749
1937 1937 1867
2057 2057 1978
2176 2176 2089
951 951 950
1192 1192 1174
1437 1437 1402
1695 1695 1642
1954 1954 1882
2084 2084 2004
2204 2204 2115
2329 2329 2232
2439 2439 2334
1069 1069 1059
1322 1322 1295
1578 1578 1533
1837 1837 1774
2098 2098 2016
2292 2292 2197
2409 2409 2306
2531 2531 2419
2643 2643 2523
1211 1211 1192
1456 1456 1420
1706 1706 1652
1976 1976 1903
2225 2225 2134
2427 2427 2323
2602 2602 2485
2726 2726 2600
2844 2844 2711
1319 1319 1292
1581 1581 1535
1846 1846 1783
2107 2107 2025
2359 2359 2259
2554 2554 2441
2753 2753 2626
2915 2915 2776
3025 3025 2879
1450 1450 1414
1717 1717 1662
1977 1977 1904
2246 2246 2154
2497 2497 2388
2682 2682 2560
2866 2866 2731
3037 3037 2890
3217 3217 3058
395 395 433
551 551 578
698 698 715
869 869 873
1038 1038 1031
1219 1219 1200
1329 1329 1302
1440 1440 1404
1565 1565 1520
553 553 580
769 769 781
935 935 935
1107 1107 1095
1303 1303 1277
1468 1468 1431
1596 1596 1550
1726 1726 1670
1856 1856 1792
713 713 728
945 945 944
1176 1176 1159
1370 1370 1340
1558 1558 1515
1752 1752 1695
1877 1877 1811
1989 1989 1915
2111 2111 2028
906 906 908
1133 1133 1119
1388 1388 1356
1636 1636 1587
1825 1825 1763
2024 2024 1948
2150 2150 2065
2277 2277 2183
2395 2395 2293
1085 1085 1074
1333 1333 1305
1587 1587 1542
1844 1844 1780
2109 2109 2027
2292 2292 2197
2416 2416 2313
2534 2534 2422
2660 2660 2539
1271 1271 1247
1525 1525 1484
1783 1783 1724
2051 2051 1973
2312 2312 2216
2555 2555 2442
2683 2683 2561
2804 2804 2673
2899 2899 2762
1404 1404 1371
1662 1662 1611
1926 1926 1857
2180 2180 2092
2440 2440 2335
2696 2696 2573
2868 2868 2733
2986 2986 2842
3083 3083 2932
1537 1537 1494
1789 1789 1729
2055 2055 1976
2322 2322 2225
2576 2576 2461
2814 2814 2682
3001 3001 2857
3167 3167 3011
3272 3272 3109
1667 1667 1616
1916 1916 1847
2190 2190 2102
2455 2455 2349
2696 2696 2573
2943 2943 2803
3113 3113 2961
3273 3273 3109
3434 3434 3260
505 505 535
667 667 686
815 815 823
986 986 983
1167 1167 1151
1343 1343 1315
1543 1543 1500
1653 1653 1603
1795 1795 1735
664 664 683
890 890 893
1055 1055 1047
1234 1234 1213
1435 1435 1400
1624 1624 1576
1810 1810 1749
1929 1929 1860
2054 2054 1975
839 839 845
1078 1078 1068
1314 1314 1287
1495 1495 1456
1700 1700 1647
1893 1893 1826
2090 2090 2009
2215 2215 2125
2337 2337 2239
1021 1021 1015
1274 1274 1250
1520 1520 1479
1774 1774 1716
1969 1969 1897
2170 2170 2084
2360 2360 2260
2491 2491 2382
2591 2591 2475
1213 1213 1193
1463 1463 1426
1724 1724 1668
1987 1987 1914
2246 2246 2154
2441 2441 2336
2624 2624 2506
2742 2742 2615
2848 2848 2714
1420 1420 1386
1666 1666 1615
1919 1919 1850
2190 2190 2102
2451 2451 2345
2699 2699 2576
2877 2877 2741
2991 2991 2847
3090 3090 2939
1610 1610 1563
1869 1869 1803
2126 2126 2042
2396 2396 2293
2646 2646 2526
2889 2889 2753
3119 3119 2966
3222 3222 3062
3314 3314 3148
1751 1751 1694
1998 1998 1924
2278 2278 2185
2531 2531 2419
2765 2765 2637
3006 3006 2861
3233 3233 3072
3383 3383 3211
3474 3474 3296
1873 1873 1807
2152 2152 2067
2411 2411 2308
2658 2658 2538
2900 2900 2763
3128 3128 2974
3351 3351 3182
3491 3491 3312
3624 3624 3436
617 617 639
784 784 794
940 940 939
1113 1113 1101
1308 1308 1281
1486 1486 1448
1685 1685 1633
1865 1865 1800
1982 1982 1909
776 776 787
1008 1008 1003
1189 1189 1171
1386 1386 1354
1570 1570 1526
1755 1755 1698
1961 1961 1889
2148 2148 2063
2261 2261 2168
957 957 955
1202 1202 1184
1454 1454 1418
1640 1640 1591
1849 1849 1785
2041 2041 1964
2221 2221 2131
2412 2412 2309
2546 2546 2433
1143 1143 1129
1402 1402 1369
1650 1650 1600
1912 1912 1844
2115 2115 2032
2297 2297 2202
2505 2505 2395
2686 2686 2564
2797 2797 2667
1334 1334 1306
1597 1597 1550
1860 1860 1796
2125 2125 2042
2374 2374 2273
2572 2572 2458
2752 2752 2625
2931 2931 2792
3051 3051 2903
1554 1554 1510
1808 1808 1747
2068 2068 1989
2330 2330 2232
2585 2585 2469
2821 2821 2689
2999 2999 2855
3181 3181 3024
3281 3281 3117
1759 1759 1702
2019 2019 1943
2277 2277 2183
2530 2530 2418
2774 2774 2645
3020 3020 2874
3248 3248 3086
3394 3394 3222
3483 3483 3305
1952 1952 1881
2234 2234 2143
2483 2483 2374
2726 2726 2601
2972 2972 2829
3188 3188 3031
3403 3403 3231
3585 3585 3399
3672 3672 3481
2100 2100 2019
2350 2350 2251
2604 2604 2487
2863 2863 2728
3089 3089 2938
3300 3300 3135
3496 3496 3317
3674 3674 3482
3786 3786 3586
727 727 741
890 890 893
1075 1075 1065
1254 1254 1232
1428 1428 1393
1613 1613 1565
1831 1831 1768
2025 2025 1949
2192 2192 2104
898 898 901
1130 1130 1116
1332 1332 1305
1503 1503 1463
1697 1697 1643
1905 1905 1837
2096 2096 2015
2279 2279 2185
2483 2483 2374
1095 1095 1084
1347 1347 1318
1583 1583 1538
1775 1775 1716
1980 1980 1907
2170 2170 2084
2358 2358 2259
2550 2550 2437
2733 2733 2607
1280 1280 1256
1524 1524 1483
1794 1794 1734
2061 2061 1982
2249 2249 2157
2445 2445 2340
2643 2643 2524
2811 2811 2679
2982 2982 2839
1468 1468 1431
1736 1736 1680
2004 2004 1929
2262 2262 2170
2515 2515 2404
2709 2709 2585
2879 2879 2743
3049 3049 2901
3223 3223 3063
1677 1677 1625
1953 1953 1881
2212 2212 2123
2470 2470 2363
2721 2721 2596
2967 2967 2824
3130 3130 2977
3283 3283 3119
3451 3451 3275
1881 1881 1815
2157 2157 2071
2409 2409 2306
2671 2671 2550
2908 2908 2770
3135 3135 2982
3354 3354 3185
3501 3501 3321
3634 3634 3445
2115 2115 2032
2364 2364 2264
2607 2607 2490
2860 2860 2726
3102 3102 2951
3313 3313 3147
3512 3512 3332
3677 3677 3485
3784 3784 3585
2310 2310 2214
2571 2571 2457
2805 2805 2674
3054 3054 2906
3265 3265 3102
3466 3466 3289
3650 3650 3460
3799 3799 3598
3918 3918 3709
