src/luts/Noir_1_-_Rec709.3dl
# Created by Benjamin (IWLTBAP) : http://luts.iwltbap.com
# Copyright: (C) Copyright 2016 Triune Films and IWLTBAP
# Blockbuster LUTs Pack
0 256 512 768 1023
16 16 80
126 126 183
270 270 316
425 425 461
599 599 622
140 140 196
368 368 408
561 561 587
743 743 757
961 961 959
301 301 345
570 570 595
901 901 904
1109 1109 1097
1327 1327 1300
479 479 511
777 777 788
1135 1135 1121
1494 1494 1455
1742 1742 1685
684 684 701
1035 1035 1028
1386 1386 1354
1781 1781 1721
2173 2173 2086
142 142 197
375 375 415
556 556 583
754 754 767
959 959 957
396 396 434
797 797 806
1014 1014 1008
1245 1245 1223
1480 1480 1441
600 600 623
1040 1040 1033
1409 1409 1376
1656 1656 1605
1888 1888 1821
815 815 824
1291 1291 1266
1682 1682 1629
2055 2055 1977
2306 2306 2210
1060 1060 1052
1564 1564 1520
1933 1933 1863
2330 2330 2233
2710 2710 2586
307 307 350
593 593 617
904 904 906
1144 1144 1129
1364 1364 1334
618 618 641
1049 1049 1041
1425 1425 1390
1670 1670 1619
1903 1903 1835
951 951 950
1437 1437 1402
1954 1954 1882
2204 2204 2115
2439 2439 2334
1211 1211 1192
1706 1706 1652
2225 2225 2134
2602 2602 2485
2844 2844 2711
1450 1450 1414
1977 1977 1904
2497 2497 2388
2866 2866 2731
3217 3217 3058
505 505 535
815 815 823
1167 1167 1151
1543 1543 1500
1795 1795 1735
839 839 845
1314 1314 1287
1700 1700 1647
2090 2090 2009
2337 2337 2239
1213 1213 1193
1724 1724 1668
2246 2246 2154
2624 2624 2506
2848 2848 2714
1610 1610 1563
2126 2126 2042
2646 2646 2526
3119 3119 2966
3314 3314 3148
1873 1873 1807
2411 2411 2308
2900 2900 2763
3351 3351 3182
3624 3624 3436
727 727 741
1075 1075 1065
1428 1428 1393
1831 1831 1768
2192 2192 2104
1095 1095 1084
1583 1583 1538
1980 1980 1907
2358 2358 2259
2733 2733 2607
1468 1468 1431
2004 2004 1929
2515 2515 2404
2879 2879 2743
3223 3223 3063
1881 1881 1815
2409 2409 2306
2908 2908 2770
3354 3354 3185
3634 3634 3445
2310 2310 2214
2805 2805 2674
3265 3265 3102
3650 3650 3460
3918 3918 3709
