src/luts/Noir_1_-_Rec709.3dl
# Created by Benjamin (IWLTBAP) : http://luts.iwltbap.com
# Copyright: (C) Copyright 2016 Triune Films and IWLTBAP
# Blockbuster LUTs Pack
0 64 128 192 256 320 384 448 512 576 640 704 768 832 896 960 1023
16 16 80
45 45 107
64 64 125
100 100 159
126 126 183
166 166 219
194 194 245
230 230 279
270 270 316
309 309 353
338 338 380
390 390 428
425 425 461
460 460 493
506 506 536
567 567 593
599 599 622
38 38 101
86 86 146
121 121 177
149 149 204
183 183 236
223 223 273
264 264 311
293 293 338
329 329 371
373 373 412
418 418 455
454 454 487
504 504 534
555 555 582
603 603 626
636 636 657
696 696 713
71 71 131
126 126 182
168 168 222
210 210 260
245 245 293
287 287 332
316 316 360
357 357 397
391 391 429
442 442 476
483 483 514
528 528 557
580 580 605
616 616 638
680 680 698
716 716 731
770 770 782
110 110 168
162 162 216
211 211 262
274 274 320
306 306 350
350 350 390
388 388 427
433 433 468
475 475 508
520 520 549
562 562 589
608 608 631
658 658 678
703 703 719
758 758 770
824 824 832
851 851 857
140 140 196
192 192 244
257 257 304
318 318 361
368 368 408
411 411 448
462 462 495
500 500 530
561 561 587
604 604 627
645 645 665
693 693 710
743 743 757
789 789 799
839 839 846
893 893 896
961 961 959
184 184 237
233 233 282
295 295 340
352 352 393
423 423 459
490 490 521
534 534 562
587 587 611
637 637 658
690 690 707
724 724 738
775 775 786
836 836 843
889 889 892
934 934 934
998 998 993
1055 1055 1047
209 209 260
271 271 318
333 333 375
394 394 432
470 470 502
539 539 566
625 625 646
668 668 686
719 719 734
774 774 785
817 817 825
863 863 868
930 930 930
984 984 980
1036 1036 1029
1084 1084 1074
1152 1152 1137
253 253 301
320 320 363
380 380 419
452 452 485
519 519 548
590 590 614
675 675 693
753 753 766
806 806 815
850 850 856
906 906 908
967 967 965
1016 1016 1010
1062 1062 1053
1133 1133 1120
1179 1179 1162
1233 1233 1213
301 301 345
365 365 405
424 424 460
496 496 527
570 570 595
648 648 668
732 732 746
804 804 814
901 901 904
956 956 955
992 992 988
1053 1053 1045
1109 1109 1097
1166 1166 1150
1219 1219 1199
1275 1275 1251
1327 1327 1300
339 339 380
405 405 442
476 476 508
555 555 582
622 622 644
698 698 714
778 778 789
862 862 867
958 958 957
1032 1032 1025
1097 1097 1086
1157 1157 1141
1207 1207 1188
1265 1265 1242
1322 1322 1295
1382 1382 1351
1430 1430 1395
381 381 420
448 448 482
519 519 548
595 595 619
675 675 694
756 756 768
839 839 846
931 931 932
1018 1018 1012
1094 1094 1083
1193 1193 1175
1236 1236 1215
1306 1306 1280
1366 1366 1336
1421 1421 1387
1473 1473 1436
1531 1531 1490
427 427 462
498 498 529
581 581 606
655 655 675
740 740 754
812 812 821
904 904 906
975 975 972
1076 1076 1066
1162 1162 1146
1258 1258 1236
1346 1346 1317
1405 1405 1372
1462 1462 1425
1525 1525 1483
1576 1576 1531
1638 1638 1589
479 479 511
561 561 587
637 637 657
707 707 723
777 777 788
869 869 874
960 960 959
1051 1051 1043
1135 1135 1121
1222 1222 1201
1321 1321 1294
1412 1412 1378
1494 1494 1455
1567 1567 1523
1615 1615 1568
1690 1690 1637
1742 1742 1685
532 532 561
600 600 623
672 672 690
757 757 769
842 842 849
924 924 925
1015 1015 1009
1106 1106 1094
1187 1187 1170
1289 1289 1264
1387 1387 1355
1472 1472 1434
1577 1577 1532
1670 1670 1619
1739 1739 1683
1780 1780 1721
1844 1844 1781
576 576 601
655 655 675
735 735 749
810 810 819
899 899 902
984 984 980
1084 1084 1073
1173 1173 1157
1255 1255 1233
1349 1349 1320
1448 1448 1412
1544 1544 1502
1649 1649 1599
1730 1730 1674
1823 1823 1760
1884 1884 1818
1949 1949 1878
623 623 645
707 707 723
803 803 812
881 881 884
967 967 964
1051 1051 1043
1149 1149 1134
1231 1231 1210
1316 1316 1289
1426 1426 1391
1516 1516 1475
1609 1609 1562
1700 1700 1647
1808 1808 1746
1887 1887 1820
1986 1986 1912
2057 2057 1978
684 684 701
777 777 788
860 860 866
946 946 945
1035 1035 1028
1111 1111 1099
1196 1196 1178
1293 1293 1268
1386 1386 1354
1483 1483 1445
1575 1575 1530
1668 1668 1617
1781 1781 1721
1869 1869 1804
1965 1965 1893
2075 2075 1995
2173 2173 2086
48 48 110
93 93 152
125 125 182
157 157 211
180 180 232
225 225 275
257 257 305
288 288 334
331 331 373
377 377 416
410 410 446
465 465 498
499 499 529
560 560 587
606 606 629
654 654 673
693 693 710
99 99 157
163 163 217
187 187 239
227 227 277
261 261 308
308 308 352
342 342 384
378 378 417
433 433 468
470 470 503
512 512 542
552 552 579
612 612 635
653 653 672
703 703 719
749 749 762
797 797 807
125 125 181
191 191 243
258 258 305
289 289 334
331 331 373
374 374 413
418 418 454
459 459 492
504 504 534
541 541 569
587 587 612
638 638 658
695 695 712
733 733 747
792 792 802
835 835 842
898 898 901
154 154 208
235 235 284
288 288 333
361 361 401
407 407 444
445 445 479
495 495 526
530 530 559
590 590 614
632 632 653
674 674 692
733 733 747
787 787 797
833 833 840
888 888 891
943 943 942
997 997 992
194 194 246
279 279 325
338 338 379
413 413 449
477 477 509
519 519 548
567 567 593
612 612 635
664 664 683
718 718 734
763 763 775
808 808 817
865 865 870
921 921 922
971 971 968
1021 1021 1015
1087 1087 1076
243 243 291
315 315 359
388 388 426
446 446 480
524 524 553
599 599 622
646 646 666
704 704 720
741 741 755
793 793 803
855 855 861
901 901 903
956 956 954
1013 1013 1007
1060 1060 1052
1123 1123 1110
1169 1169 1153
285 285 330
360 360 400
433 433 468
502 502 533
575 575 600
654 654 673
728 728 743
777 777 788
832 832 840
883 883 886
944 944 943
1001 1001 996
1057 1057 1049
1096 1096 1084
1155 1155 1140
1216 1216 1196
1288 1288 1263
328 328 370
415 415 452
475 475 508
549 549 576
626 626 648
711 711 727
786 786 796
870 870 874
932 932 932
970 970 967
1025 1025 1019
1088 1088 1078
1150 1150 1135
1206 1206 1187
1256 1256 1233
1313 1313 1287
1370 1370 1340
372 372 412
457 457 490
529 529 558
606 606 629
691 691 708
757 757 770
846 846 852
923 923 924
1012 1012 1006
1065 1065 1056
1132 1132 1118
1185 1185 1168
1234 1234 1213
1297 1297 1271
1349 1349 1320
1415 1415 1381
1463 1463 1426
418 418 454
512 512 542
587 587 611
654 654 674
741 741 755
822 822 830
901 901 903
994 994 990
1079 1079 1069
1168 1168 1152
1223 1223 1202
1278 1278 1254
1346 1346 1317
1407 1407 1374
1457 1457 1420
1526 1526 1484
1589 1589 1543
467 467 500
554 554 580
621 621 643
702 702 718
789 789 799
879 879 883
958 958 956
1046 1046 1038
1145 1145 1130
1232 1232 1211
1320 1320 1293
1379 1379 1348
1433 1433 1398
1503 1503 1463
1560 1560 1517
1614 1614 1567
1687 1687 1634
512 512 541
615 615 638
684 684 702
768 768 779
850 850 856
942 942 941
1019 1019 1013
1106 1106 1094
1200 1200 1182
1300 1300 1274
1384 1384 1353
1480 1480 1442
1536 1536 1494
1606 1606 1559
1663 1663 1612
1718 1718 1663
1795 1795 1734
564 564 590
653 653 673
737 737 751
835 835 842
905 905 907
989 989 985
1083 1083 1073
1171 1171 1154
1263 1263 1240
1363 1363 1333
1458 1458 1421
1555 1555 1512
1637 1637 1588
1704 1704 1651
1761 1761 1703
1840 1840 1776
1877 1877 1811
621 621 643
716 716 731
793 793 803
883 883 886
963 963 961
1055 1055 1046
1144 1144 1129
1242 1242 1220
1320 1320 1293
1431 1431 1396
1518 1518 1477
1609 1609 1562
1707 1707 1653
1808 1808 1747
1868 1868 1803
1941 1941 1870
1976 1976 1903
668 668 687
760 760 772
864 864 869
944 944 943
1022 1022 1016
1128 1128 1115
1206 1206 1187
1292 1292 1267
1395 1395 1363
1478 1478 1440
1588 1588 1543
1672 1672 1620
1778 1778 1719
1874 1874 1809
1974 1974 1901
2026 2026 1949
2085 2085 2004
733 733 747
825 825 833
906 906 908
988 988 984
1083 1083 1073
1188 1188 1171
1271 1271 1248
1360 1360 1330
1466 1466 1429
1560 1560 1516
1646 1646 1596
1754 1754 1697
1856 1856 1791
1940 1940 1869
2050 2050 1972
2147 2147 2062
2200 2200 2112
780 780 791
896 896 899
969 969 966
1066 1066 1057
1161 1161 1145
1235 1235 1214
1326 1326 1299
1426 1426 1391
1528 1528 1487
1619 1619 1571
1711 1711 1657
1824 1824 1762
1908 1908 1840
2007 2007 1932
2104 2104 2022
2200 2200 2111
2311 2311 2214
83 83 143
124 124 181
174 174 227
213 213 263
242 242 290
281 281 327
322 322 365
366 366 406
410 410 447
448 448 482
503 503 533
542 542 570
584 584 609
626 626 647
691 691 708
733 733 747
797 797 807
136 136 192
205 205 256
256 256 304
297 297 342
333 333 375
370 370 410
412 412 448
456 456 489
503 503 533
556 556 583
599 599 622
642 642 662
698 698 714
735 735 749
789 789 800
844 844 851
898 898 901
190 190 242
264 264 311
338 338 379
379 379 417
427 427 463
463 463 496
510 510 540
566 566 592
610 610 633
648 648 668
705 705 721
752 752 765
815 815 823
851 851 857
916 916 918
967 967 965
1016 1016 1010
230 230 279
306 306 350
389 389 427
454 454 488
506 506 536
545 545 572
603 603 626
640 640 661
692 692 709
744 744 757
787 787 797
850 850 856
891 891 894
950 950 949
1000 1000 996
1053 1053 1045
1113 1113 1101
262 262 309
353 353 394
432 432 467
509 509 538
577 577 602
630 630 651
676 676 694
723 723 738
776 776 787
830 830 837
881 881 885
934 934 934
983 983 980
1031 1031 1025
1090 1090 1079
1167 1167 1151
1216 1216 1197
298 298 342
393 393 431
477 477 509
550 550 577
629 629 651
703 703 719
767 767 779
809 809 818
868 868 872
914 914 916
967 967 964
1034 1034 1027
1083 1083 1073
1141 1141 1126
1202 1202 1184
1259 1259 1237
1300 1300 1274
352 352 393
443 443 477
528 528 556
611 611 634
687 687 704
761 761 773
849 849 855
908 908 909
957 957 955
1004 1004 999
1070 1070 1061
1130 1130 1116
1181 1181 1164
1235 1235 1214
1294 1294 1269
1360 1360 1331
1417 1417 1383
400 400 437
486 486 517
590 590 614
666 666 684
743 743 757
823 823 831
908 908 910
995 995 991
1055 1055 1046
1107 1107 1095
1163 1163 1147
1219 1219 1199
1272 1272 1249
1346 1346 1317
1393 1393 1361
1453 1453 1417
1515 1515 1474
446 446 481
540 540 568
628 628 649
724 724 738
797 797 806
882 882 886
970 970 967
1052 1052 1043
1140 1140 1126
1204 1204 1185
1251 1251 1229
1319 1319 1292
1372 1372 1341
1430 1430 1395
1496 1496 1457
1547 1547 1504
1604 1604 1557
488 488 519
585 585 609
690 690 707
763 763 775
853 853 859
945 945 944
1029 1029 1022
1121 1121 1108
1196 1196 1178
1291 1291 1266
1357 1357 1327
1421 1421 1387
1470 1470 1433
1540 1540 1497
1599 1599 1553
1654 1654 1604
1720 1720 1665
541 541 568
630 630 651
742 742 756
833 833 840
904 904 906
998 998 993
1083 1083 1073
1181 1181 1164
1267 1267 1243
1356 1356 1327
1457 1457 1421
1521 1521 1480
1584 1584 1538
1627 1627 1578
1694 1694 1641
1754 1754 1696
1819 1819 1757
590 590 614
689 689 706
797 797 806
880 880 884
976 976 973
1060 1060 1051
1141 1141 1127
1244 1244 1223
1327 1327 1300
1422 1422 1388
1520 1520 1479
1610 1610 1563
1673 1673 1622
1745 1745 1688
1806 1806 1745
1869 1869 1804
1928 1928 1858
641 641 661
757 757 770
855 855 860
952 952 951
1032 1032 1025
1118 1118 1105
1214 1214 1194
1304 1304 1278
1397 1397 1364
1485 1485 1446
1593 1593 1547
1680 1680 1627
1771 1771 1712
1848 1848 1784
1908 1908 1840
1970 1970 1897
2020 2020 1945
688 688 705
795 795 805
918 918 919
1000 1000 995
1098 1098 1087
1178 1178 1161
1281 1281 1256
1367 1367 1337
1463 1463 1426
1565 1565 1521
1663 1663 1612
1757 1757 1700
1855 1855 1791
1937 1937 1867
2004 2004 1929
2079 2079 1999
2122 2122 2039
745 745 758
855 855 861
980 980 976
1064 1064 1055
1160 1160 1144
1248 1248 1226
1332 1332 1304
1430 1430 1396
1538 1538 1496
1633 1633 1584
1723 1723 1667
1808 1808 1747
1911 1911 1842
2022 2022 1946
2106 2106 2024
2178 2178 2091
2231 2231 2141
814 814 823
925 925 925
1040 1040 1033
1126 1126 1112
1232 1232 1211
1306 1306 1280
1414 1414 1381
1501 1501 1461
1594 1594 1548
1703 1703 1649
1802 1802 1741
1902 1902 1834
1990 1990 1916
2085 2085 2005
2178 2178 2091
2262 2262 2170
2346 2346 2248
881 881 885
986 986 983
1091 1091 1080
1190 1190 1172
1270 1270 1247
1381 1381 1350
1461 1461 1424
1568 1568 1524
1662 1662 1611
1750 1750 1693
1867 1867 1801
1960 1960 1888
2058 2058 1979
2147 2147 2062
2246 2246 2154
2332 2332 2234
2440 2440 2334
113 113 170
164 164 218
217 217 268
272 272 318
319 319 362
348 348 389
395 395 432
436 436 471
476 476 508
532 532 560
565 565 591
615 615 637
667 667 685
715 715 730
760 760 772
819 819 827
861 861 866
162 162 216
239 239 288
304 304 348
369 369 408
407 407 444
450 450 484
493 493 524
531 531 559
586 586 611
631 631 652
688 688 705
727 727 742
773 773 784
827 827 835
882 882 886
950 950 949
