src/luts/Noir_3_-_Rec709.3dl
# Created by Benjamin (IWLTBAP) : http://luts.iwltbap.com
# Copyright: (C) Copyright 2016 Triune Films and IWLTBAP
# Blockbuster LUTs Pack
0 256 512 768 1023
0 2 1
56 62 70
115 124 141
187 201 231
283 312 367
109 118 134
56 62 70
112 121 138
184 197 226
277 305 358
263 288 336
176 189 217
113 122 139
180 193 221
272 299 351
579 715 785
398 450 538
263 288 337
180 193 221
268 293 344
1069 1310 1468
787 1021 1074
579 715 785
397 447 537
263 288 336
124 134 152
159 170 194
244 265 308
374 420 503
559 682 758
160 172 196
389 440 525
580 716 785
800 1033 1092
1103 1345 1508
359 403 482
772 999 1052
595 740 805
801 1034 1093
1105 1347 1511
733 952 994
1391 1647 1851
1072 1314 1468
802 1034 1094
1088 1330 1489
1326 1580 1784
2165 2439 2538
1804 2079 2244
1419 1677 1881
1072 1313 1468
324 360 428
398 450 538
486 573 664
692 893 936
949 1187 1296
398 450 538
841 1078 1148
1000 1239 1368
1345 1600 1803
1744 2018 2193
492 581 672
1009 1249 1382
1783 2058 2227
2187 2460 2556
2591 2800 2844
920 1158 1256
1704 1977 2159
2540 2760 2810
2215 2484 2577
2600 2807 2851
1607 1874 2070
2483 2715 2771
3208 3316 3279
2963 3099 3095
2581 2792 2838
733 953 994
849 1089 1161
994 1233 1359
1156 1400 1580
1531 1794 1996
849 1089 1161
1592 1858 2054
1804 2079 2244
2006 2284 2411
2406 2652 2718
994 1233 1359
1804 2079 2244
2657 2852 2889
2879 3028 3036
3187 3297 3262
1164 1408 1590
2015 2293 2419
2887 3035 3042
3413 3497 3451
3552 3623 3574
1903 2179 2326
2777 2946 2968
3373 3462 3418
3645 3714 3667
3553 3623 3575
1419 1677 1883
1607 1875 2070
1804 2079 2245
2000 2278 2406
2195 2470 2563
1607 1875 2070
2467 2702 2760
2678 2868 2903
2874 3023 3032
3050 3173 3156
1804 2079 2245
2678 2868 2903
3318 3415 3372
3415 3499 3453
3489 3564 3516
2000 2278 2406
2874 3023 3032
3415 3499 3453
3667 3737 3691
3706 3778 3734
2195 2470 2563
3050 3173 3156
3489 3564 3516
3706 3778 3734
3837 3917 3884
