src/luts/Prometheus_-_Rec709.3dl
# Created by Benjamin (IWLTBAP) : http://luts.iwltbap.com
# Copyright: (C) Copyright 2016 Triune Films and IWLTBAP
# Blockbuster LUTs Pack
0 64 128 192 256 320 384 448 512 576 640 704 768 832 896 960 1023
0 0 0
0 0 249
0 16 545
0 100 777
0 164 967
0 222 1146
0 267 1318
5 305 1484
42 330 1651
79 347 1834
114 368 2033
143 395 2226
173 432 2415
203 477 2601
239 526 2768
273 570 2923
312 617 3076
0 132 6
0 193 326
0 281 595
0 354 812
0 410 997
0 459 1173
0 496 1345
16 529 1513
48 552 1684
75 575 1863
100 599 2050
121 624 2238
143 647 2420
167 680 2588
194 727 2748
219 772 2904
251 821 3054
0 429 156
0 485 417
0 537 650
0 597 863
0 642 1046
0 683 1214
0 722 1379
8 760 1545
38 795 1712
65 821 1889
93 847 2072
121 875 2254
146 894 2431
174 917 2598
209 955 2762
244 992 2923
278 1025 3076
0 668 262
0 730 515
0 780 736
0 820 933
0 862 1117
26 903 1284
46 938 1379
68 970 1476
92 999 1607
115 1027 1741
132 1060 1831
155 1091 1975
179 1120 2125
202 1149 2279
227 1177 2434
253 1208 2588
285 1234 2800
0 886 388
9 942 612
31 992 804
52 1031 964
66 1055 1105
87 1083 1245
110 1114 1377
131 1145 1502
152 1173 1623
171 1199 1745
191 1227 1877
212 1255 2018
234 1285 2167
256 1313 2318
281 1344 2469
304 1375 2616
327 1403 2758
51 1067 485
79 1119 691
102 1162 866
125 1202 1029
139 1229 1169
152 1251 1301
171 1276 1428
190 1305 1552
210 1332 1671
228 1358 1792
246 1385 1921
266 1410 2058
286 1438 2204
308 1469 2353
332 1502 2501
356 1532 2647
379 1561 2788
121 1232 565
148 1280 764
167 1317 928
187 1354 1086
205 1388 1231
217 1410 1361
229 1431 1480
245 1456 1601
262 1481 1717
280 1506 1837
299 1535 1966
318 1560 2099
337 1586 2239
361 1616 2386
386 1647 2533
410 1676 2678
433 1704 2818
187 1390 641
210 1431 830
228 1465 990
246 1500 1143
262 1532 1286
276 1560 1418
286 1580 1535
297 1600 1650
312 1621 1764
329 1645 1881
349 1673 2011
369 1700 2143
390 1727 2279
414 1756 2422
439 1785 2568
462 1812 2713
486 1837 2853
250 1540 713
270 1576 893
287 1612 1052
304 1645 1201
319 1676 1341
334 1703 1471
345 1725 1590
354 1743 1704
365 1760 1813
381 1781 1929
401 1808 2058
422 1836 2190
445 1863 2324
467 1891 2463
493 1918 2608
518 1946 2753
541 1969 2893
314 1694 789
332 1730 958
350 1765 1117
367 1798 1264
383 1827 1402
398 1854 1530
409 1875 1649
420 1895 1764
429 1909 1872
440 1926 1985
458 1950 2111
480 1977 2241
503 2003 2373
526 2028 2509
550 2053 2651
576 2081 2795
599 2108 2935
381 1850 869
398 1885 1029
416 1919 1186
434 1952 1331
450 1981 1465
465 2007 1593
477 2028 1710
488 2047 1823
498 2063 1933
507 2078 2046
522 2096 2167
544 2122 2295
568 2148 2425
591 2175 2562
614 2200 2702
638 2230 2845
662 2260 2987
452 2007 960
471 2046 1121
489 2080 1273
507 2111 1413
523 2139 1538
538 2163 1660
551 2184 1775
565 2205 1888
575 2222 1999
587 2240 2113
601 2259 2232
618 2281 2356
642 2309 2488
664 2337 2625
686 2365 2763
706 2391 2902
726 2419 3042
529 2172 1057
549 2212 1222
568 2246 1368
586 2276 1502
601 2302 1624
615 2324 1737
628 2345 1845
642 2367 1957
655 2388 2071
669 2409 2185
683 2431 2304
699 2454 2426
718 2479 2554
740 2510 2691
761 2539 2828
779 2567 2966
793 2588 3103
611 2344 1160
630 2382 1321
647 2413 1459
664 2442 1589
680 2469 1710
693 2492 1821
705 2513 1927
718 2534 2032
733 2559 2145
750 2584 2259
766 2609 2377
782 2636 2500
798 2662 2625
815 2687 2755
835 2718 2891
852 2748 3032
863 2769 3168
692 2519 1252
710 2557 1411
728 2589 1551
743 2619 1675
758 2644 1791
772 2669 1902
788 2695 2011
802 2719 2116
817 2745 2226
833 2773 2339
849 2800 2455
865 2830 2577
880 2858 2702
894 2884 2830
907 2907 2958
922 2934 3094
933 2954 3229
769 2695 1337
786 2732 1483
804 2767 1629
823 2800 1759
837 2827 1869
851 2854 1976
868 2883 2085
882 2909 2191
896 2937 2301
911 2966 2414
927 2996 2531
942 3026 2652
956 3054 2775
967 3079 2901
980 3102 3028
990 3120 3155
1003 3139 3291
848 2879 1426
866 2920 1568
880 2954 1702
898 2989 1828
913 3018 1936
928 3046 2044
942 3075 2153
957 3102 2261
970 3130 2370
984 3157 2482
997 3183 2595
1012 3211 2716
1026 3239 2839
1038 3262 2964
1053 3285 3093
1070 3307 3222
1084 3318 3348
266 0 0
157 0 256
154 77 577
95 166 786
84 223 958
87 262 1105
101 297 1241
121 332 1371
142 364 1499
163 393 1628
185 419 1765
208 445 1918
231 475 2081
251 511 2246
269 547 2408
294 586 2593
458 613 3108
90 184 53
37 236 352
57 322 600
61 395 801
68 451 968
86 494 1117
110 529 1256
132 562 1387
150 593 1517
166 619 1649
181 644 1790
195 670 1942
206 701 2100
217 733 2260
226 763 2420
240 795 2575
263 843 2722
23 436 199
2 514 454
20 567 664
38 623 848
51 672 1006
69 710 1148
86 743 1280
103 775 1407
121 809 1535
138 841 1665
155 870 1805
173 896 1954
191 923 2108
212 952 2263
233 976 2420
256 1005 2576
285 1042 2726
25 674 295
33 750 538
53 793 734
70 832 908
89 873 1069
108 909 1211
127 940 1342
145 968 1468
164 996 1593
183 1025 1720
201 1053 1855
221 1082 1999
241 1108 2147
261 1132 2301
282 1157 2457
305 1189 2608
329 1221 2755
68 871 373
95 946 616
117 994 805
135 1031 973
150 1059 1124
167 1086 1267
185 1114 1398
203 1143 1524
220 1170 1646
237 1195 1770
254 1220 1902
273 1247 2044
292 1272 2189
311 1296 2339
332 1324 2493
355 1354 2642
376 1383 2786
123 1051 452
154 1119 688
176 1163 871
196 1203 1037
210 1231 1185
223 1253 1321
240 1279 1451
257 1307 1575
275 1334 1696
292 1358 1818
308 1381 1947
325 1404 2084
341 1428 2227
361 1455 2376
382 1485 2526
404 1514 2675
425 1543 2818
185 1224 538
214 1279 756
234 1319 933
253 1356 1095
270 1390 1245
281 1413 1376
293 1434 1502
309 1459 1624
325 1485 1743
341 1510 1864
358 1535 1991
374 1557 2123
391 1580 2262
412 1607 2410
435 1636 2559
458 1667 2708
480 1695 2850
248 1386 620
272 1432 822
291 1468 994
308 1503 1152
324 1536 1299
337 1563 1432
346 1583 1553
358 1605 1671
373 1628 1788
389 1651 1908
407 1676 2035
425 1700 2166
444 1724 2301
466 1751 2445
489 1779 2594
512 1808 2742
535 1835 2884
305 1538 693
329 1582 885
347 1616 1056
362 1649 1208
377 1680 1351
390 1707 1483
402 1730 1607
412 1748 1722
424 1766 1835
439 1788 1954
458 1812 2081
478 1838 2212
499 1865 2346
520 1891 2486
545 1917 2634
570 1945 2784
593 1971 2925
364 1685 763
388 1732 943
406 1768 1115
421 1799 1264
437 1828 1405
450 1854 1535
462 1876 1659
473 1896 1777
482 1911 1887
495 1930 2006
513 1954 2133
535 1980 2264
558 2006 2396
580 2030 2534
604 2056 2678
631 2088 2829
654 2117 2971
428 1837 839
452 1883 1006
468 1919 1174
486 1951 1324
501 1981 1464
516 2007 1593
529 2030 1716
540 2050 1833
551 2066 1947
561 2082 2064
578 2103 2188
601 2130 2320
625 2156 2452
646 2180 2588
669 2208 2731
695 2242 2880
718 2272 3024
499 1998 927
523 2045 1089
539 2080 1249
556 2112 1396
574 2142 1531
589 2167 1656
606 2192 1779
619 2213 1896
630 2231 2011
643 2249 2131
657 2270 2252
676 2294 2383
700 2322 2518
722 2351 2655
745 2380 2795
765 2409 2938
783 2438 3081
574 2163 1022
603 2215 1188
619 2249 1346
636 2280 1485
654 2310 1616
668 2333 1733
683 2357 1849
698 2380 1966
712 2404 2084
728 2427 2205
742 2450 2326
759 2474 2454
780 2502 2587
802 2533 2725
822 2563 2864
838 2590 3005
849 2610 3144
658 2340 1128
686 2394 1294
705 2431 1451
721 2461 1586
738 2491 1714
751 2515 1828
766 2539 1940
780 2564 2052
797 2591 2168
817 2621 2290
834 2649 2411
850 2676 2539
865 2701 2667
881 2725 2799
900 2755 2937
913 2782 3077
920 2796 3211
742 2528 1232
768 2581 1397
787 2618 1549
803 2647 1680
818 2676 1803
834 2704 1917
852 2734 2032
868 2763 2145
884 2792 2258
902 2823 2377
919 2854 2498
935 2885 2624
949 2913 2753
961 2936 2882
973 2956 3011
986 2978 3148
994 2989 3277
823 2714 1329
847 2767 1484
865 2804 1632
882 2837 1767
897 2868 1884
913 2898 1994
930 2930 2108
947 2961 2223
961 2991 2335
977 3022 2453
993 3053 2573
1009 3084 2698
1022 3110 2823
1033 3132 2951
1045 3152 3080
1055 3165 3208
1071 3181 3340
902 2907 1430
924 2961 1579
940 2999 1709
956 3033 1837
972 3063 1954
985 3092 2063
1001 3121 2175
1016 3149 2287
1029 3176 2397
1044 3204 2513
1058 3231 2630
1073 3259 2753
1088 3284 2879
1100 3305 3005
1120 3325 3135
1140 3345 3266
1160 3357 3394
602 0 0
607 0 135
509 102 591
449 185 809
385 256 985
358 304 1150
352 336 1302
356 360 1438
360 377 1569
361 389 1693
360 402 1818
361 421 1953
367 449 2101
377 482 2255
389 516 2409
404 558 2563
423 607 2716
601 235 15
527 240 271
400 322 590
350 409 809
325 473 992
306 506 1159
308 529 1298
317 553 1424
329 577 1549
340 598 1673
352 619 1800
361 644 1941
373 674 2096
376 704 2253
368 734 2410
364 765 2563
372 809 2710
456 454 147
368 502 417
295 557 661
278 623 860
269 673 1028
262 704 1178
268 731 1311
277 759 1436
284 789 1559
290 817 1687
289 844 1822
290 871 1967
296 899 2121
304 929 2276
315 954 2434
329 983 2586
353 1023 2734
276 630 263
207 720 526
188 788 750
196 832 928
205 874 1085
216 909 1227
225 937 1358
237 964 1484
250 991 1609
263 1019 1737
277 1046 1873
292 1072 2016
307 1096 2165
322 1118 2318
340 1140 2473
361 1171 2623
386 1206 2769
208 827 355
193 940 605
203 1002 813
219 1037 985
233 1067 1142
248 1095 1287
263 1120 1418
277 1145 1542
290 1168 1663
305 1191 1788
320 1216 1922
336 1240 2061
351 1263 2206
367 1282 2356
386 1307 2509
406 1337 2658
428 1367 2801
214 1023 437
233 1118 670
253 1172 873
271 1208 1040
284 1237 1194
298 1261 1337
312 1283 1468
326 1306 1592
340 1329 1711
354 1352 1835
369 1374 1965
383 1396 2103
398 1418 2245
413 1439 2393
433 1465 2545
451 1493 2694
470 1520 2836
257 1210 519
284 1278 732
305 1325 931
322 1360 1096
338 1393 1248
349 1417 1387
360 1437 1516
374 1459 1640
388 1481 1758
403 1506 1880
417 1529 2008
431 1550 2142
445 1571 2281
462 1595 2427
482 1621 2579
502 1649 2727
521 1674 2869
307 1377 593
333 1428 790
354 1468 983
371 1502 1148
386 1535 1297
398 1562 1434
407 1582 1559
420 1604 1684
434 1626 1802
449 1649 1923
465 1673 2050
481 1696 2181
497 1718 2318
516 1743 2462
537 1770 2613
558 1798 2762
578 1823 2904
362 1530 665
387 1576 855
406 1614 1039
421 1647 1202
435 1677 1348
448 1704 1483
459 1726 1609
470 1747 1730
483 1766 1847
498 1787 1968
515 1811 2094
533 1836 2226
552 1862 2361
572 1888 2502
594 1914 2653
617 1940 2804
640 1966 2946
415 1673 734
441 1722 913
461 1762 1092
476 1793 1253
490 1823 1398
503 1848 1531
515 1871 1657
526 1892 1779
536 1909 1895
550 1929 2017
567 1953 2145
588 1979 2277
611 2005 2412
632 2029 2550
654 2056 2698
680 2087 2851
703 2116 2994
471 1819 802
499 1868 971
520 1912 1144
535 1944 1306
549 1972 1449
563 1999 1582
576 2022 1708
588 2043 1829
600 2062 1948
611 2080 2070
628 2102 2199
653 2130 2333
677 2157 2468
700 2184 2607
721 2212 2752
748 2246 2903
769 2276 3049
540 1978 888
569 2028 1049
589 2072 1212
604 2105 1371
621 2135 1513
636 2162 1643
652 2187 1770
666 2209 1890
678 2229 2011
692 2249 2135
706 2270 2262
729 2297 2397
755 2329 2536
777 2358 2675
799 2388 2818
818 2418 2962
835 2446 3108
617 2149 988
649 2201 1146
670 2246 1304
684 2277 1453
701 2306 1591
716 2333 1716
732 2359 1837
748 2383 1959
763 2409 2083
779 2433 2208
795 2457 2335
814 2484 2468
836 2513 2606
859 2547 2749
878 2577 2890
894 2605 3033
903 2624 3172
699 2327 1093
731 2386 1254
757 2436 1415
771 2467 1560
787 2496 1694
802 2522 1816
816 2548 1932
832 2573 2049
850 2603 2172
871 2636 2299
891 2667 2426
908 2696 2557
924 2722 2690
941 2749 2827
959 2780 2969
972 2803 3109
976 2814 3241
783 2519 1202
814 2582 1363
839 2630 1520
856 2663 1665
871 2692 1794
887 2721 1914
905 2753 2032
922 2783 2149
940 2815 2269
958 2849 2393
978 2884 2519
995 2916 2649
1010 2946 2782
1024 2968 2915
1037 2987 3048
1051 3007 3185
1057 3013 3310
866 2714 1306
895 2779 1469
916 2828 1622
934 2864 1759
950 2895 1880
966 2925 1996
983 2958 2113
1000 2991 2231
1017 3022 2349
1033 3054 2471
1051 3087 2596
1067 3119 2725
1082 3146 2855
1096 3169 2987
1112 3189 3119
1124 3201 3249
1142 3213 3379
945 2914 1416
973 2979 1572
993 3025 1707
1008 3058 1831
1021 3088 1951
1035 3114 2063
1050 3142 2177
1065 3171 2291
1081 3198 2406
1096 3227 2524
1112 3255 2646
1130 3283 2773
1150 3312 2906
1169 3334 3036
1195 3359 3172
1224 3382 3307
1248 3395 3436
869 68 0
875 29 150
905 79 504
824 186 805
766 251 976
707 308 1145
653 338 1312
604 356 1472
586 377 1628
580 393 1769
571 413 1907
562 441 2039
555 471 2177
548 499 2318
543 524 2459
548 556 2596
563 593 2738
919 270 32
883 234 209
867 273 488
734 410 826
662 484 1017
603 536 1188
565 569 1345
545 584 1493
541 596 1625
539 605 1749
534 613 1872
529 626 2000
525 645 2138
528 669 2288
530 701 2439
531 735 2586
