src/luts/Prometheus_-_Rec709.3dl
# Created by Benjamin (IWLTBAP) : http://luts.iwltbap.com
# Copyright: (C) Copyright 2016 Triune Films and IWLTBAP
# Blockbuster LUTs Pack
0 256 512 768 1023
0 0 0
0 164 967
42 330 1651
173 432 2415
312 617 3076
0 886 388
66 1055 1105
152 1173 1623
234 1285 2167
327 1403 2758
250 1540 713
319 1676 1341
365 1760 1813
445 1863 2324
541 1969 2893
529 2172 1057
601 2302 1624
655 2388 2071
718 2479 2554
793 2588 3103
848 2879 1426
913 3018 1936
970 3130 2370
1026 3239 2839
1084 3318 3348
1117 145 45
1087 251 963
873 350 1634
753 468 2222
708 597 2773
1096 993 353
733 1079 1212
643 1173 1729
591 1260 2243
606 1342 2818
703 1529 632
624 1712 1358
644 1787 1889
677 1852 2392
742 1946 2976
717 2116 925
802 2288 1506
856 2396 2057
944 2522 2628
1015 2642 3213
1029 2912 1384
1119 3118 1930
1178 3224 2405
1281 3355 2950
1429 3471 3516
1880 434 320
1847 379 728
1751 470 1522
1565 439 2232
1337 503 2806
1958 1133 439
1885 1169 1047
1684 1279 1832
1338 1283 2427
1205 1257 2913
1985 1771 790
1820 1874 1430
1488 1921 2041
1266 1943 2543
1218 1992 3101
1701 2298 971
1327 2363 1490
1318 2508 2074
1389 2653 2749
1489 2797 3368
1362 2914 1361
1441 3112 1872
1610 3332 2450
1833 3551 3133
2015 3665 3710
2612 721 570
2495 655 828
2527 676 1381
2390 662 2107
2267 672 2808
2589 1295 605
2577 1232 952
2514 1262 1551
2332 1262 2380
2177 1211 3050
2716 1852 802
2738 1941 1319
2702 1983 1806
2506 2069 2690
2326 1940 3387
2800 2499 1155
2760 2615 1648
2739 2757 2190
2538 2930 2973
2657 3102 3682
2749 3214 1388
2780 3405 1993
2804 3561 2543
2691 3715 3255
2984 3852 3893
3361 1037 796
3267 1023 1025
3268 1013 1403
3218 967 2036
3004 857 2784
3314 1469 793
3321 1417 1091
3279 1433 1534
3214 1399 2227
3016 1319 2977
3485 2037 946
3568 2046 1273
3540 2020 1688
3424 2080 2505
3342 2212 3385
3685 2691 1209
3715 2854 1730
3734 3018 2293
3743 3138 2987
3668 3256 3786
3716 3481 1789
3782 3684 2392
3818 3801 2856
3814 3905 3402
3947 4051 4058
