src/luts/Prometheus_-_Rec709.3dl
# Created by Benjamin (IWLTBAP) : http://luts.iwltbap.com
# Copyright: (C) Copyright 2016 Triune Films and IWLTBAP
# Blockbuster LUTs Pack
0 128 256 384 512 640 768 896 1023
0 0 0
0 16 545
0 164 967
0 267 1318
42 330 1651
114 368 2033
173 432 2415
239 526 2768
312 617 3076
0 429 156
0 537 650
0 642 1046
0 722 1379
38 795 1712
93 847 2072
146 894 2431
209 955 2762
278 1025 3076
0 886 388
31 992 804
66 1055 1105
110 1114 1377
152 1173 1623
191 1227 1877
234 1285 2167
281 1344 2469
327 1403 2758
121 1232 565
167 1317 928
205 1388 1231
229 1431 1480
262 1481 1717
299 1535 1966
337 1586 2239
386 1647 2533
433 1704 2818
250 1540 713
287 1612 1052
319 1676 1341
345 1725 1590
365 1760 1813
401 1808 2058
445 1863 2324
493 1918 2608
541 1969 2893
381 1850 869
416 1919 1186
450 1981 1465
477 2028 1710
498 2063 1933
522 2096 2167
568 2148 2425
614 2200 2702
662 2260 2987
529 2172 1057
568 2246 1368
601 2302 1624
628 2345 1845
655 2388 2071
683 2431 2304
718 2479 2554
761 2539 2828
793 2588 3103
692 2519 1252
728 2589 1551
758 2644 1791
788 2695 2011
817 2745 2226
849 2800 2455
880 2858 2702
907 2907 2958
933 2954 3229
848 2879 1426
880 2954 1702
913 3018 1936
942 3075 2153
970 3130 2370
997 3183 2595
1026 3239 2839
1053 3285 3093
1084 3318 3348
602 0 0
509 102 591
385 256 985
352 336 1302
360 377 1569
360 402 1818
367 449 2101
389 516 2409
423 607 2716
456 454 147
295 557 661
269 673 1028
268 731 1311
284 789 1559
289 844 1822
296 899 2121
315 954 2434
353 1023 2734
208 827 355
203 1002 813
233 1067 1142
263 1120 1418
290 1168 1663
320 1216 1922
351 1263 2206
386 1307 2509
428 1367 2801
257 1210 519
305 1325 931
338 1393 1248
360 1437 1516
388 1481 1758
417 1529 2008
445 1571 2281
482 1621 2579
521 1674 2869
362 1530 665
406 1614 1039
435 1677 1348
459 1726 1609
483 1766 1847
515 1811 2094
552 1862 2361
594 1914 2653
640 1966 2946
471 1819 802
520 1912 1144
549 1972 1449
576 2022 1708
600 2062 1948
628 2102 2199
677 2157 2468
721 2212 2752
769 2276 3049
617 2149 988
670 2246 1304
701 2306 1591
732 2359 1837
763 2409 2083
795 2457 2335
836 2513 2606
878 2577 2890
903 2624 3172
783 2519 1202
839 2630 1520
871 2692 1794
905 2753 2032
940 2815 2269
978 2884 2519
1010 2946 2782
1037 2987 3048
1057 3013 3310
945 2914 1416
993 3025 1707
1021 3088 1951
1050 3142 2177
1081 3198 2406
1112 3255 2646
1150 3312 2906
1195 3359 3172
1248 3395 3436
1117 145 45
1157 108 352
1087 251 963
988 331 1297
873 350 1634
786 400 1943
753 468 2222
718 531 2499
708 597 2773
1173 546 156
1131 533 502
926 706 1069
795 794 1411
726 817 1692
706 829 1939
684 846 2190
664 887 2474
640 947 2750
1096 993 353
942 1051 819
733 1079 1212
679 1133 1492
643 1173 1729
617 1221 1972
591 1260 2243
580 1287 2531
606 1342 2818
856 1234 463
669 1278 903
604 1450 1298
599 1494 1579
599 1520 1819
601 1542 2061
603 1560 2322
617 1588 2606
653 1641 2896
703 1529 632
625 1611 1015
624 1712 1358
630 1751 1632
644 1787 1889
659 1819 2133
677 1852 2392
701 1893 2678
742 1946 2976
640 1832 778
662 1906 1094
689 1978 1422
703 2022 1701
721 2063 1956
749 2108 2224
792 2161 2493
829 2212 2776
875 2277 3084
717 2116 925
761 2203 1207
802 2288 1506
826 2342 1791
856 2396 2057
893 2453 2336
944 2522 2628
987 2589 2919
1015 2642 3213
862 2481 1132
919 2605 1438
963 2694 1726
995 2753 1991
1032 2820 2247
1076 2898 2522
1120 2972 2806
1166 3026 3092
1193 3052 3360
1029 2912 1384
1083 3037 1681
1119 3118 1930
1144 3167 2162
1178 3224 2405
1220 3287 2665
1281 3355 2950
1359 3424 3240
1429 3471 3516
1523 297 187
1503 256 381
1570 288 808
1455 379 1260
1368 379 1582
1254 365 1931
1094 394 2242
1065 477 2529
1049 572 2811
1575 656 249
1533 588 487
1554 662 906
1396 800 1400
1269 865 1706
1094 881 2026
1020 893 2308
958 897 2563
928 927 2815
1623 1044 381
1576 1123 760
1496 1169 1158
1263 1203 1534
1134 1240 1828
1041 1237 2086
987 1235 2315
910 1242 2565
870 1288 2831
1601 1429 597
1474 1471 962
1331 1516 1346
1124 1520 1664
1051 1552 1907
982 1584 2138
911 1596 2385
857 1594 2651
871 1633 2932
1501 1702 715
1258 1632 984
1098 1702 1364
1000 1827 1699
966 1866 1967
929 1877 2209
892 1877 2455
889 1897 2728
926 1949 3021
1323 1914 784
1055 1932 1096
986 2004 1418
968 2086 1726
943 2112 2001
966 2155 2285
975 2188 2544
999 2227 2821
1051 2299 3135
995 2181 939
952 2217 1178
986 2300 1461
1017 2375 1753
1023 2413 2054
1059 2476 2360
1123 2556 2670
1162 2620 2961
1209 2689 3269
1011 2469 1098
1040 2559 1357
1092 2671 1646
1131 2752 1922
1163 2818 2207
1216 2907 2515
1290 3002 2833
1365 3082 3146
1408 3121 3425
1149 2890 1347
1199 3014 1636
1248 3112 1894
1289 3183 2137
1332 3248 2405
1403 3331 2701
1519 3438 3026
1627 3534 3343
1695 3574 3615
1880 434 320
1808 387 463
1847 379 728
1850 417 1169
1751 470 1522
1688 464 1856
1565 439 2232
1394 444 2534
1337 503 2806
1891 759 347
1854 675 535
1853 713 842
1867 797 1304
1739 855 1675
1646 879 2027
1447 877 2376
1307 896 2640
1252 933 2882
1958 1133 439
1935 1170 745
1885 1169 1047
1871 1199 1419
1684 1279 1832
1532 1312 2135
1338 1283 2427
1253 1250 2672
1205 1257 2913
1996 1451 600
1946 1514 964
1909 1596 1308
1835 1617 1619
1626 1613 1919
1446 1622 2230
1313 1588 2470
1223 1568 2706
1186 1597 2979
1985 1771 790
1904 1823 1127
1820 1874 1430
1702 1905 1738
1488 1921 2041
1369 1938 2302
1266 1943 2543
1195 1937 2802
1218 1992 3101
1905 2063 921
1776 2057 1168
1600 2035 1403
1464 2092 1719
1341 2205 2051
1311 2260 2369
1270 2273 2629
1251 2294 2899
1332 2394 3235
1701 2298 971
1508 2322 1218
1327 2363 1490
1304 2435 1760
1318 2508 2074
1318 2564 2426
1389 2653 2749
1405 2696 3036
1489 2797 3368
1354 2566 1130
1283 2609 1379
1285 2669 1601
1330 2768 1878
1376 2866 2189
1420 2948 2536
1525 3068 2887
1625 3169 3223
1687 3224 3519
1362 2914 1361
1394 3016 1625
1441 3112 1872
1517 3219 2144
1610 3332 2450
1695 3427 2778
1833 3551 3133
1961 3638 3453
2015 3665 3710
2241 576 448
2124 514 552
2147 502 754
2178 528 1085
2131 513 1429
2068 561 1791
2003 548 2172
1908 554 2533
1780 560 2826
2190 850 433
2157 764 598
2160 792 851
2171 824 1175
2129 848 1560
2020 878 1928
1948 892 2332
1780 856 2670
1686 872 2925
2262 1217 520
2281 1215 734
2236 1192 964
2179 1227 1310
2180 1263 1729
2041 1311 2119
1898 1307 2476
1740 1257 2789
1623 1264 3019
2318 1514 633
2299 1560 934
2289 1605 1238
2253 1612 1482
2225 1613 1818
2042 1674 2239
1856 1666 2565
1683 1591 2871
1611 1581 3109
2347 1793 790
2310 1851 1121
2295 1917 1416
2284 1981 1692
2242 2004 1990
2035 2012 2335
1817 1998 2664
1658 1922 2921
1667 1958 3226
2348 2111 977
2294 2162 1268
2263 2215 1535
2209 2267 1796
2123 2322 2100
1916 2377 2458
1750 2392 2752
1666 2396 3017
1783 2509 3380
2272 2440 1119
2205 2465 1328
2138 2497 1556
2010 2524 1800
1837 2568 2094
1750 2681 2480
1778 2774 2848
1771 2816 3149
1907 2938 3513
2058 2715 1166
1950 2748 1400
1854 2792 1638
1741 2844 1884
1706 2930 2178
1760 3053 2554
1848 3171 2961
1967 3270 3317
2062 3341 3632
1883 3026 1341
1832 3129 1674
1834 3213 1918
1869 3298 2159
1954 3411 2463
2077 3540 2838
2198 3648 3224
2342 3728 3566
2381 3753 3816
2612 721 570
2469 659 648
2495 655 828
2510 667 1065
2527 676 1381
2469 652 1705
2390 662 2107
2321 645 2473
2267 672 2808
2507 944 522
2478 874 676
2495 891 894
2498 904 1120
2494 916 1466
2412 888 1815
2325 908 2223
2275 933 2611
2187 940 2931
2589 1295 605
2621 1268 762
2577 1232 952
2513 1266 1247
2514 1262 1551
2443 1239 1976
2332 1262 2380
2283 1264 2755
2177 1211 3050
2661 1588 690
2685 1607 910
2691 1604 1124
2647 1587 1344
2568 1619 1671
2537 1618 2130
2416 1652 2535
2319 1596 2900
2224 1519 3175
2716 1852 802
2727 1896 1057
2738 1941 1319
2738 1979 1574
2702 1983 1806
2649 1993 2228
2506 2069 2690
2382 2011 3054
2326 1940 3387
2773 2138 948
2773 2190 1208
2764 2260 1493
2770 2333 1762
2773 2420 2060
2742 2466 2419
2566 2513 2843
2401 2500 3177
2482 2587 3525
2800 2499 1155
2772 2558 1410
2760 2615 1648
2759 2681 1898
2739 2757 2190
2663 2839 2552
2538 2930 2973
2409 2962 3324
2657 3102 3682
2762 2866 1296
2730 2932 1544
2723 2983 1747
2714 3037 1964
2655 3095 2245
2475 3158 2602
2392 3269 3029
2491 3396 3452
2691 3481 3785
2749 3214 1388
2735 3307 1696
2780 3405 1993
2815 3497 2286
2804 3561 2543
2687 3610 2852
2691 3715 3255
2891 3808 3620
2984 3852 3893
3007 884 688
2849 849 770
2884 844 939
2884 843 1124
2895 837 1363
2899 841 1700
2800 781 2047
2696 750 2452
2634 745 2775
2850 1054 622
2835 1012 771
2853 1029 971
2866 1041 1177
2855 1040 1424
2844 1034 1776
2732 985 2169
2636 966 2544
2604 989 2875
2936 1377 692
2945 1332 827
2914 1303 1003
2869 1316 1244
2868 1320 1495
2854 1307 1864
2730 1250 2298
2655 1248 2663
2645 1270 2992
3019 1654 763
3067 1653 927
3069 1624 1080
3025 1597 1281
2944 1622 1589
2924 1609 1935
2785 1536 2415
2731 1563 2792
2715 1561 3122
3108 1932 853
3147 1949 1029
3181 1965 1222
3201 1975 1429
3143 1953 1665
3030 1987 2057
2919 1906 2558
2866 1963 2969
2862 1958 3340
3193 2225 968
3230 2267 1166
3270 2323 1386
3295 2381 1626
3285 2452 1950
3235 2472 2269
3163 2475 2767
3062 2535 3205
3101 2625 3555
3281 2546 1119
3314 2614 1352
3324 2680 1590
3317 2756 1866
3321 2855 2187
3325 2981 2576
3308 3045 2983
3198 3102 3422
3254 3193 3734
3361 2925 1280
3344 3023 1580
3326 3110 1864
3343 3194 2125
3356 3278 2406
3328 3358 2731
3271 3446 3132
3304 3560 3565
3379 3617 3873
3392 3371 1552
3390 3503 1937
3436 3610 2251
3468 3690 2516
3479 3747 2743
3445 3783 2993
3323 3805 3282
3420 3899 3660
3515 3958 3973
3361 1037 796
3222 1027 880
3267 1023 1025
3278 1023 1203
3268 1013 1403
3253 986 1684
3218 967 2036
3091 892 2442
3004 857 2784
3228 1192 736
3228 1168 879
3237 1165 1041
3268 1188 1247
3252 1183 1454
3232 1165 1743
3175 1137 2120
3052 1083 2555
2976 1055 2867
3314 1469 793
3319 1429 934
3321 1417 1091
3286 1417 1289
3279 1433 1534
3257 1427 1821
3214 1399 2227
3087 1342 2667
3016 1319 2977
3388 1734 858
3433 1717 1012
3440 1690 1155
3422 1677 1334
3357 1697 1616
3325 1717 1930
3300 1701 2352
3172 1657 2808
3134 1686 3144
3485 2037 946
3531 2034 1104
3568 2046 1273
3585 2041 1446
3540 2020 1688
3441 2083 2090
3424 2080 2505
3323 2075 3008
3342 2212 3385
3588 2357 1063
3632 2399 1240
3670 2435 1421
3701 2469 1627
3691 2514 1931
3636 2546 2293
3573 2580 2708
3520 2613 3253
3546 2784 3623
3685 2691 1209
3720 2771 1449
3715 2854 1730
3718 2943 2018
3734 3018 2293
3757 3108 2634
3743 3138 2987
3691 3130 3433
3668 3256 3786
3730 3034 1419
3700 3162 1791
3723 3275 2093
3751 3372 2367
3770 3446 2618
3778 3503 2878
3779 3566 3212
3790 3616 3569
3794 3675 3925
3716 3481 1789
3758 3604 2127
3782 3684 2392
3802 3746 2625
3818 3801 2856
3816 3849 3110
3814 3905 3402
3877 3982 3741
3947 4051 4058
