src/luts/Saving_Private_Ryan_-_Rec709.3dl
# Created by Benjamin (IWLTBAP) : http://luts.iwltbap.com
# Copyright: (C) Copyright 2016 Triune Films and IWLTBAP
# Blockbuster LUTs Pack
0 128 256 384 512 640 768 896 1023
5 18 17
14 16 233
39 42 558
60 67 870
68 80 1197
119 118 1535
156 160 1850
208 203 2175
256 245 2492
67 371 91
58 329 343
81 339 653
96 350 964
109 377 1282
144 409 1616
186 432 1938
235 465 2265
281 503 2584
159 734 186
149 710 434
157 725 755
167 737 1059
192 774 1395
219 789 1714
253 827 2043
289 862 2365
324 896 2668
259 1109 277
244 1103 533
248 1113 851
258 1132 1174
278 1152 1487
304 1178 1815
332 1207 2136
364 1248 2445
395 1277 2752
387 1523 403
355 1502 637
352 1508 951
361 1527 1279
375 1551 1601
395 1571 1913
416 1590 2223
444 1620 2532
475 1652 2840
524 1942 537
478 1904 751
463 1903 1044
467 1925 1382
476 1946 1705
486 1958 2009
507 1978 2315
531 2000 2614
554 2015 2910
662 2379 694
614 2317 883
585 2309 1149
578 2325 1475
586 2346 1808
592 2354 2107
601 2363 2399
622 2381 2688
643 2396 2985
811 2821 852
760 2749 1026
717 2713 1256
700 2722 1570
697 2734 1899
705 2749 2209
710 2754 2491
716 2763 2768
737 2781 3069
962 3263 1009
918 3209 1198
862 3126 1382
833 3121 1656
816 3126 1985
815 3134 2290
822 3147 2579
829 3159 2871
835 3165 3171
193 20 16
207 30 264
237 57 579
262 79 884
276 89 1192
307 116 1503
361 156 1826
411 197 2148
460 239 2469
253 344 66
257 348 363
277 362 682
295 386 997
310 407 1319
359 439 1648
408 473 1974
462 502 2296
507 537 2605
346 737 176
353 754 469
348 761 783
358 783 1100
379 806 1420
409 836 1749
451 870 2081
503 901 2394
550 936 2694
455 1141 289
466 1172 579
435 1160 880
442 1176 1203
464 1200 1523
487 1222 1853
516 1255 2170
547 1290 2479
589 1318 2790
594 1561 422
603 1593 698
553 1570 985
547 1581 1313
558 1599 1632
578 1620 1946
600 1638 2252
630 1668 2560
662 1703 2866
736 2002 576
740 2011 822
681 1977 1077
660 1986 1412
665 2004 1740
675 2018 2044
696 2037 2341
718 2054 2636
745 2075 2944
883 2445 735
872 2440 971
812 2379 1189
784 2387 1503
778 2402 1836
784 2412 2141
792 2423 2436
812 2438 2727
832 2449 3029
1027 2876 891
1012 2873 1127
958 2796 1313
915 2786 1599
897 2796 1926
898 2808 2238
904 2817 2527
910 2825 2811
927 2837 3113
1167 3296 1036
1155 3303 1283
1111 3247 1481
1060 3189 1697
1032 3202 2010
1017 3204 2325
1019 3214 2614
1022 3219 2907
1027 3226 3209
497 63 52
527 70 314
530 83 607
564 109 924
568 117 1219
591 144 1531
625 177 1841
655 212 2156
695 250 2473
576 388 109
584 397 402
585 393 697
593 413 1007
592 430 1319
619 459 1642
654 483 1971
698 507 2290
739 531 2597
608 774 203
666 811 494
655 826 836
619 842 1147
639 871 1463
680 900 1790
718 933 2116
764 965 2423
814 994 2737
712 1176 302
775 1220 600
743 1246 939
681 1252 1260
693 1272 1577
719 1291 1894
762 1319 2202
806 1355 2516
863 1385 2825
878 1607 448
946 1645 729
905 1673 1051
780 1656 1364
776 1674 1690
791 1690 1997
816 1708 2302
850 1734 2598
903 1769 2906
1051 2054 616
1091 2082 887
1082 2098 1172
907 2077 1462
887 2083 1791
893 2096 2101
907 2106 2393
927 2125 2675
957 2148 2985
1238 2491 767
1228 2517 1037
1205 2518 1302
1057 2486 1556
1006 2487 1884
1006 2500 2197
1013 2512 2490
1022 2517 2768
1040 2524 3076
1402 2929 923
1369 2941 1188
1316 2944 1443
1210 2878 1654
1134 2881 1962
1121 2896 2292
1124 2909 2583
1129 2916 2876
1136 2913 3174
1532 3349 1070
1486 3356 1329
1450 3368 1597
1367 3313 1797
1284 3271 2039
1245 3287 2361
1237 3299 2665
1239 3308 2969
1241 3310 3272
874 133 117
895 136 371
882 137 660
878 143 943
901 157 1257
934 187 1575
962 217 1884
976 247 2191
990 278 2500
1011 463 186
1010 470 459
980 459 740
964 448 1030
969 478 1351
971 504 1666
977 523 1995
995 543 2306
1012 561 2611
1090 850 268
1138 886 564
1100 891 873
1036 883 1160
1024 911 1485
1030 939 1809
1045 970 2129
1069 997 2437
1095 1016 2737
1137 1243 363
1212 1286 655
1233 1319 986
1146 1331 1324
1113 1356 1638
1126 1386 1949
1168 1419 2265
1179 1448 2564
1207 1469 2864
1287 1667 502
1360 1705 781
1385 1764 1115
1330 1779 1440
1227 1766 1754
1220 1797 2066
1239 1818 2365
1247 1833 2657
1282 1861 2974
1469 2108 651
1520 2151 929
1512 2187 1243
1487 2210 1557
1355 2191 1860
1300 2194 2166
1286 2214 2456
1305 2227 2750
1346 2242 3061
1645 2551 811
1668 2584 1080
1634 2601 1380
1638 2624 1682
1484 2598 1951
1381 2589 2256
1346 2606 2550
1354 2616 2832
1388 2630 3148
1799 2984 968
1800 3000 1230
1754 3016 1520
1754 3027 1803
1632 2994 2042
1466 2979 2332
1391 2995 2635
1420 3007 2943
1419 3010 3243
1940 3397 1115
1915 3413 1377
1883 3420 1655
1861 3428 1930
1782 3386 2147
1645 3361 2394
1484 3375 2715
1467 3383 3032
1498 3393 3339
1293 196 182
1292 193 417
1283 195 707
1268 196 996
1240 197 1284
1292 233 1614
1334 266 1933
1349 295 2241
1357 321 2537
1458 537 264
1471 537 529
1438 519 793
1403 516 1081
1363 511 1378
1382 559 1717
1382 580 2028
1376 593 2334
1359 606 2637
1570 911 341
1595 959 637
1609 970 940
1508 956 1209
1462 956 1506
1454 989 1831
1447 1023 2152
1438 1044 2459
1423 1064 2762
1665 1310 438
1701 1358 728
1709 1406 1063
1651 1417 1374
1567 1400 1653
1545 1430 1986
1554 1461 2291
1540 1485 2588
1550 1506 2889
1729 1716 547
1781 1755 825
1775 1794 1143
1782 1851 1501
1706 1857 1818
1657 1874 2132
1685 1910 2428
1686 1938 2722
1686 1958 3031
1878 2168 704
1924 2209 978
1907 2216 1269
1918 2293 1637
1888 2302 1938
1789 2296 2237
1766 2312 2528
1771 2332 2819
1772 2346 3131
2037 2611 863
2074 2654 1132
2051 2656 1417
2041 2693 1750
2024 2718 2051
1941 2709 2331
1860 2702 2623
1837 2709 2916
1838 2727 3231
2188 3031 1009
2198 3064 1278
2177 3066 1558
2156 3084 1871
2155 3115 2165
2047 3096 2419
1926 3080 2695
1908 3090 3014
1882 3097 3311
2328 3439 1146
2308 3464 1420
2304 3464 1701
2272 3480 1994
2276 3499 2275
2171 3467 2495
2039 3454 2760
1931 3457 3096
1968 3471 3406
1711 283 270
1705 275 480
1711 278 754
1685 278 1042
1648 271 1333
1637 275 1630
1687 310 1957
1713 342 2280
1724 367 2579
1875 596 343
1895 605 593
1899 577 842
1838 581 1141
1792 576 1428
1776 579 1730
1790 624 2074
1784 648 2384
1744 663 2668
2008 960 419
2021 1023 706
2079 1044 1007
2018 1018 1262
1921 1027 1560
1878 1030 1854
1861 1070 2190
1842 1089 2483
1787 1094 2779
2109 1365 509
2133 1413 792
2130 1481 1136
2136 1503 1442
2060 1486 1706
1992 1478 1998
1953 1505 2316
1920 1533 2628
1911 1549 2915
2191 1776 620
2217 1815 891
2220 1881 1227
2225 1935 1573
2200 1944 1873
2118 1928 2141
2027 1944 2447
2051 1975 2760
2056 1996 3067
2264 2191 739
2305 2242 1014
2298 2269 1311
2295 2312 1656
2311 2354 1994
2280 2389 2299
2163 2383 2575
2179 2410 2892
2218 2442 3213
2413 2635 896
2444 2682 1168
2434 2696 1456
2428 2716 1771
2435 2775 2119
2415 2810 2410
2343 2806 2690
2278 2801 2992
2313 2833 3317
2550 3059 1041
2565 3099 1308
2563 3122 1604
2552 3129 1903
2549 3169 2222
2532 3219 2520
2468 3208 2791
2401 3197 3097
2386 3200 3399
2675 3458 1164
2671 3498 1443
2664 3516 1741
2651 3526 2032
2660 3554 2324
2639 3600 2619
2564 3574 2869
2452 3550 3163
2462 3561 3473
2127 368 356
2120 360 559
2159 366 807
2111 362 1095
2055 353 1383
2034 350 1670
2027 354 1970
2073 386 2304
2080 412 2614
2286 659 421
2313 673 665
2359 638 897
2308 639 1183
2213 644 1487
2189 641 1776
2161 639 2077
2180 686 2417
2132 710 2717
2406 1038 494
2443 1085 772
2521 1110 1065
2516 1074 1305
2386 1094 1621
2331 1095 1917
2286 1107 2212
2245 1140 2533
2188 1143 2814
2514 1432 592
2552 1487 873
2553 1544 1207
2606 1566 1504
2576 1545 1762
2464 1555 2058
2409 1558 2340
2323 1574 2650
2275 1581 2956
2622 1827 696
2648 1886 974
2644 1950 1306
2649 2015 1649
2652 2027 1950
2607 2014 2204
2512 2002 2469
2410 2003 2770
2414 2034 3111
2712 2236 799
2724 2293 1080
2724 2345 1400
2721 2400 1744
2723 2426 2059
2721 2460 2354
2637 2456 2614
2524 2454 2909
2555 2490 3259
2767 2643 920
2790 2698 1193
2794 2734 1496
2783 2763 1812
2789 2798 2139
2804 2856 2458
2791 2905 2767
2734 2906 3058
2730 2939 3381
2888 3064 1058
2911 3113 1328
2907 3152 1642
2893 3167 1944
2907 3204 2251
2918 3278 2580
2923 3312 2884
2865 3314 3178
2847 3321 3464
3006 3476 1193
3015 3517 1468
3014 3544 1768
3006 3568 2067
3028 3599 2364
3025 3651 2666
3015 3687 2963
2940 3672 3242
2944 3681 3543
2541 452 442
2534 445 629
2600 455 861
2579 454 1126
2458 433 1434
2439 432 1726
2421 429 2010
2405 431 2314
2429 455 2641
2687 727 502
2730 723 731
2784 702 953
2812 704 1211
2677 715 1538
2618 718 1840
2588 708 2126
2560 696 2424
2525 734 2748
2782 1114 579
2845 1153 847
2924 1159 1122
2982 1106 1341
2872 1147 1661
2776 1168 1975
2744 1167 2259
2675 1170 2553
2621 1187 2863
2891 1497 663
2932 1556 947
2957 1604 1266
3021 1603 1541
3026 1582 1792
2895 1606 2108
2860 1614 2393
2772 1618 2678
2705 1623 2997
2996 1885 758
3023 1951 1048
3031 2023 1389
3036 2061 1711
3083 2075 1998
3063 2063 2255
2956 2069 2528
2875 2061 2802
2778 2056 3120
3112 2283 864
3124 2344 1150
3121 2415 1486
3110 2474 1824
3120 2506 2136
3130 2531 2424
3083 2537 2676
2986 2510 2941
2892 2510 3258
3239 2668 961
3232 2731 1244
3192 2792 1577
3191 2847 1914
3200 2883 2224
3209 2932 2529
3209 2969 2829
3144 2968 3106
3108 2982 3399
3264 3074 1082
3269 3122 1348
3264 3177 1670
3266 3209 1985
3281 3245 2291
3290 3303 2602
3315 3360 2934
3313 3398 3245
3314 3427 3531
3360 3489 1212
3371 3526 1486
3387 3565 1795
3385 3593 2095
3402 3631 2395
3418 3682 2698
3430 3730 3020
3422 3757 3320
3403 3777 3606
2933 531 522
2931 524 696
3007 538 926
3062 546 1164
2953 532 1458
2859 518 1776
2845 516 2063
2812 509 2351
2773 506 2641
3051 788 575
3086 781 786
3142 762 1004
3236 774 1247
3140 777 1546
3021 776 1881
3006 775 2174
2983 764 2460
2917 756 2761
3128 1163 641
3192 1196 903
3283 1185 1160
3364 1118 1369
3322 1160 1663
3173 1212 2011
3143 1222 2310
3107 1218 2587
3034 1215 2885
3245 1544 725
3291 1607 1011
3343 1634 1305
3425 1614 1561
3497 1581 1800
3347 1624 2121
3263 1647 2430
3218 1668 2721
3119 1659 3026
3377 1930 816
3409 1995 1103
3412 2070 1441
3435 2091 1744
3529 2083 2007
3525 2066 2262
3367 2096 2567
3316 2111 2853
3188 2090 3150
3534 2323 913
3544 2392 1206
3515 2463 1551
3520 2523 1885
3538 2553 2187
3580 2567 2461
3547 2573 2723
3451 2582 3014
3334 2557 3281
3659 2708 1015
3639 2776 1310
3597 2849 1654
3605 2908 1986
3614 2955 2294
3614 3001 2593
3615 3028 2883
3597 3039 3163
3527 3028 3433
3740 3089 1114
3712 3159 1406
3673 3220 1737
3673 3273 2067
3686 3321 2369
3681 3369 2664
3692 3413 2980
3698 3450 3297
3680 3461 3557
3702 3504 1242
3702 3543 1509
3720 3583 1817
3724 3616 2121
3746 3660 2421
3750 3702 2713
3761 3747 3028
3776 3790 3358
3779 3826 3643
