src/luts/Saving_Private_Ryan_-_Rec709.3dl
# Created by Benjamin (IWLTBAP) : http://luts.iwltbap.com
# Copyright: (C) Copyright 2016 Triune Films and IWLTBAP
# Blockbuster LUTs Pack
0 256 512 768 1023
5 18 17
39 42 558
68 80 1197
156 160 1850
256 245 2492
159 734 186
157 725 755
192 774 1395
253 827 2043
324 896 2668
387 1523 403
352 1508 951
375 1551 1601
416 1590 2223
475 1652 2840
662 2379 694
585 2309 1149
586 2346 1808
601 2363 2399
643 2396 2985
962 3263 1009
862 3126 1382
816 3126 1985
822 3147 2579
835 3165 3171
497 63 52
530 83 607
568 117 1219
625 177 1841
695 250 2473
608 774 203
655 826 836
639 871 1463
718 933 2116
814 994 2737
878 1607 448
905 1673 1051
776 1674 1690
816 1708 2302
903 1769 2906
1238 2491 767
1205 2518 1302
1006 2487 1884
1013 2512 2490
1040 2524 3076
1532 3349 1070
1450 3368 1597
1284 3271 2039
1237 3299 2665
1241 3310 3272
1293 196 182
1283 195 707
1240 197 1284
1334 266 1933
1357 321 2537
1570 911 341
1609 970 940
1462 956 1506
1447 1023 2152
1423 1064 2762
1729 1716 547
1775 1794 1143
1706 1857 1818
1685 1910 2428
1686 1958 3031
2037 2611 863
2051 2656 1417
2024 2718 2051
1860 2702 2623
1838 2727 3231
2328 3439 1146
2304 3464 1701
2276 3499 2275
2039 3454 2760
1968 3471 3406
2127 368 356
2159 366 807
2055 353 1383
2027 354 1970
2080 412 2614
2406 1038 494
2521 1110 1065
2386 1094 1621
2286 1107 2212
2188 1143 2814
2622 1827 696
2644 1950 1306
2652 2027 1950
2512 2002 2469
2414 2034 3111
2767 2643 920
2794 2734 1496
2789 2798 2139
2791 2905 2767
2730 2939 3381
3006 3476 1193
3014 3544 1768
3028 3599 2364
3015 3687 2963
2944 3681 3543
2933 531 522
3007 538 926
2953 532 1458
2845 516 2063
2773 506 2641
3128 1163 641
3283 1185 1160
3322 1160 1663
3143 1222 2310
3034 1215 2885
3377 1930 816
3412 2070 1441
3529 2083 2007
3367 2096 2567
3188 2090 3150
3659 2708 1015
3597 2849 1654
3614 2955 2294
3615 3028 2883
3527 3028 3433
3702 3504 1242
3720 3583 1817
3746 3660 2421
3761 3747 3028
3779 3826 3643
