src/luts/Saving_Private_Ryan_-_Rec709.3dl
# Created by Benjamin (IWLTBAP) : http://luts.iwltbap.com
# Copyright: (C) Copyright 2016 Triune Films and IWLTBAP
# Blockbuster LUTs Pack
0 64 128 192 256 320 384 448 512 576 640 704 768 832 896 960 1023
5 18 17
8 11 121
14 16 233
25 28 394
39 42 558
50 55 712
60 67 870
65 75 1033
68 80 1197
83 94 1367
119 118 1535
135 139 1692
156 160 1850
185 182 2014
208 203 2175
231 225 2335
256 245 2492
31 187 49
25 154 155
30 144 282
43 156 441
55 169 599
66 179 756
74 188 916
78 195 1073
82 202 1237
103 227 1412
125 244 1574
140 254 1727
165 274 1891
196 296 2058
220 316 2219
243 336 2378
267 355 2536
67 371 91
57 335 193
58 329 343
68 330 496
81 339 653
90 343 808
96 350 964
99 358 1120
109 377 1282
129 406 1454
144 409 1616
162 416 1775
186 432 1938
209 449 2102
235 465 2265
259 485 2427
281 503 2584
112 552 138
100 520 236
101 520 387
107 524 552
117 528 705
124 535 859
129 543 1012
133 554 1169
148 577 1336
166 594 1507
181 599 1668
198 613 1829
215 630 1992
236 648 2157
258 668 2319
282 687 2475
304 703 2627
159 734 186
147 707 288
149 710 434
151 715 592
157 725 755
163 730 906
167 737 1059
175 751 1223
192 774 1395
206 781 1558
219 789 1714
236 808 1878
253 827 2043
270 843 2204
289 862 2365
307 880 2519
324 896 2668
208 917 228
197 902 341
195 904 485
198 910 641
202 919 801
207 928 962
211 934 1118
220 946 1278
234 962 1443
247 972 1601
261 984 1764
277 1000 1930
292 1017 2091
308 1036 2249
325 1055 2406
341 1072 2559
357 1087 2710
259 1109 277
248 1102 395
244 1103 533
243 1104 687
248 1113 851
252 1121 1011
258 1132 1174
267 1142 1330
278 1152 1487
290 1164 1651
304 1178 1815
318 1192 1979
332 1207 2136
347 1227 2290
364 1248 2445
380 1264 2598
395 1277 2752
320 1315 337
305 1305 453
298 1302 583
295 1304 736
298 1311 903
303 1320 1066
307 1328 1225
316 1340 1387
326 1352 1545
337 1362 1705
348 1373 1864
360 1384 2021
373 1398 2177
388 1416 2333
403 1435 2486
418 1450 2637
434 1465 2795
387 1523 403
367 1510 513
355 1502 637
352 1502 786
352 1508 951
356 1518 1119
361 1527 1279
366 1538 1439
375 1551 1601
385 1563 1759
395 1571 1913
404 1577 2068
416 1590 2223
429 1605 2378
444 1620 2532
459 1635 2686
475 1652 2840
456 1729 468
434 1717 575
414 1701 693
407 1699 836
406 1705 996
409 1716 1166
414 1726 1334
419 1738 1494
424 1748 1651
431 1757 1808
440 1764 1960
448 1771 2112
460 1783 2267
473 1796 2423
487 1807 2577
500 1820 2727
515 1834 2878
524 1942 537
502 1922 640
478 1904 751
466 1898 889
463 1903 1044
463 1913 1211
467 1925 1382
472 1938 1548
476 1946 1705
480 1953 1858
486 1958 2009
495 1965 2161
507 1978 2315
519 1990 2465
531 2000 2614
543 2008 2761
554 2015 2910
594 2164 615
570 2132 708
545 2109 815
528 2100 944
523 2106 1096
520 2113 1258
521 2126 1430
527 2139 1599
532 2149 1760
535 2154 1911
538 2159 2060
544 2164 2211
555 2173 2363
566 2183 2507
577 2193 2651
587 2199 2797
597 2203 2945
662 2379 694
639 2347 780
614 2317 883
593 2306 1003
585 2309 1149
580 2314 1307
578 2325 1475
581 2337 1645
586 2346 1808
589 2350 1959
592 2354 2107
595 2359 2254
601 2363 2399
611 2371 2543
622 2381 2688
633 2391 2836
643 2396 2985
734 2595 770
710 2565 858
684 2528 953
662 2511 1064
650 2510 1201
642 2514 1354
638 2523 1522
637 2531 1690
641 2541 1854
645 2547 2010
648 2551 2158
651 2555 2302
653 2557 2443
658 2561 2583
669 2572 2726
680 2584 2874
691 2592 3028
811 2821 852
785 2788 941
760 2749 1026
735 2720 1129
717 2713 1256
706 2713 1404
700 2722 1570
695 2725 1735
697 2734 1899
702 2744 2058
705 2749 2209
707 2752 2352
710 2754 2491
712 2756 2630
716 2763 2768
726 2772 2913
737 2781 3069
886 3043 931
862 3014 1020
837 2977 1111
809 2934 1198
785 2914 1313
773 2913 1453
764 2918 1612
756 2922 1777
753 2927 1942
756 2934 2100
760 2942 2249
763 2948 2395
766 2951 2536
769 2955 2676
772 2959 2820
775 2964 2964
784 2969 3116
962 3263 1009
940 3237 1100
918 3209 1198
890 3166 1285
862 3126 1382
842 3117 1507
833 3121 1656
824 3125 1818
816 3126 1985
813 3128 2145
815 3134 2290
819 3141 2434
822 3147 2579
826 3154 2726
829 3159 2871
832 3164 3022
835 3165 3171
87 13 11
93 16 129
99 21 248
111 34 404
124 47 564
137 60 717
148 71 871
156 78 1028
163 82 1185
174 91 1343
203 112 1508
228 133 1672
251 153 1832
277 174 1992
301 194 2151
324 215 2311
351 236 2470
110 163 33
110 157 162
117 152 295
130 164 454
145 177 613
158 188 770
168 198 934
174 205 1096
181 217 1257
200 233 1419
222 248 1582
248 267 1745
274 287 1911
301 307 2073
327 327 2234
351 346 2391
376 366 2550
149 348 68
146 338 199
148 336 354
162 341 513
175 350 668
186 358 824
193 368 982
198 375 1140
207 386 1298
223 398 1462
243 416 1629
265 434 1792
288 450 1953
315 465 2116
344 482 2280
371 502 2439
392 520 2594
196 530 116
198 533 248
197 535 404
203 539 568
212 545 721
220 554 874
226 561 1027
231 572 1184
243 584 1349
259 598 1517
276 616 1681
293 635 1843
311 650 2007
337 665 2171
365 683 2331
391 702 2487
413 720 2637
247 720 168
251 729 303
245 728 450
247 732 609
253 741 767
258 747 920
262 755 1076
270 767 1240
283 781 1404
297 794 1566
311 810 1729
327 828 1897
343 845 2063
360 860 2223
387 878 2381
411 896 2531
432 914 2680
300 921 226
304 932 359
295 929 502
292 929 654
295 936 811
300 945 975
304 953 1133
313 964 1292
325 976 1451
337 989 1615
351 1002 1783
365 1019 1949
380 1036 2111
395 1054 2265
414 1072 2420
432 1090 2573
452 1105 2724
352 1122 284
359 1139 418
346 1134 555
338 1129 704
338 1130 861
343 1139 1024
349 1151 1188
358 1162 1344
369 1174 1504
380 1184 1671
393 1197 1837
406 1213 1998
420 1229 2153
436 1248 2307
452 1266 2461
469 1282 2614
485 1296 2770
418 1330 345
425 1348 482
403 1336 610
392 1332 755
388 1330 915
392 1340 1079
397 1350 1242
405 1361 1401
415 1372 1560
425 1383 1722
437 1394 1881
449 1405 2038
462 1420 2194
477 1437 2349
493 1454 2502
510 1471 2657
526 1486 2813
488 1538 411
492 1553 543
466 1540 666
451 1533 806
445 1534 965
447 1544 1135
451 1554 1296
455 1561 1452
463 1572 1613
474 1585 1773
484 1594 1928
493 1599 2081
505 1611 2235
519 1625 2391
535 1641 2546
551 1659 2699
567 1676 2853
560 1752 480
561 1761 605
532 1745 722
512 1734 854
505 1736 1011
502 1746 1182
506 1756 1351
509 1762 1508
513 1769 1664
521 1779 1822
530 1788 1973
538 1794 2124
550 1806 2278
564 1819 2433
578 1831 2585
591 1844 2736
607 1860 2889
630 1973 555
629 1973 673
598 1947 783
574 1934 907
564 1934 1056
560 1944 1225
560 1956 1400
564 1966 1565
568 1972 1720
571 1977 1873
577 1983 2023
587 1993 2173
599 2005 2326
611 2016 2476
623 2025 2623
635 2034 2773
647 2043 2925
700 2193 637
697 2192 748
670 2158 848
641 2139 966
627 2137 1105
621 2145 1270
617 2156 1445
619 2168 1616
624 2176 1775
627 2181 1927
631 2187 2078
637 2193 2226
647 2201 2374
658 2209 2519
668 2217 2665
679 2224 2813
690 2230 2964
771 2409 713
767 2410 829
742 2375 918
712 2347 1030
693 2342 1161
682 2343 1318
677 2354 1489
676 2364 1660
679 2372 1821
683 2377 1975
686 2381 2126
689 2386 2273
694 2390 2417
704 2397 2561
714 2406 2707
726 2415 2856
736 2420 3007
843 2628 792
837 2628 908
812 2592 994
785 2559 1095
762 2547 1221
747 2544 1371
739 2552 1535
734 2559 1702
735 2566 1865
740 2575 2024
743 2579 2175
746 2583 2320
748 2586 2461
752 2589 2602
762 2598 2744
772 2607 2892
783 2615 3047
917 2849 872
909 2845 985
883 2811 1075
856 2770 1163
832 2748 1278
815 2747 1424
803 2751 1584
794 2754 1746
793 2760 1910
795 2769 2069
798 2774 2221
801 2779 2366
803 2781 2506
806 2784 2647
810 2790 2786
819 2797 2931
830 2807 3087
988 3062 947
981 3061 1061
956 3032 1155
930 2989 1240
903 2952 1340
883 2950 1478
871 2955 1633
859 2955 1790
852 2957 1953
852 2964 2113
855 2971 2262
858 2977 2408
860 2979 2549
863 2982 2691
867 2988 2836
869 2991 2983
878 2998 3137
1063 3280 1026
1057 3280 1143
1036 3257 1240
1012 3227 1339
984 3178 1420
958 3150 1529
942 3157 1678
930 3158 1831
919 3160 1995
913 3161 2156
912 3166 2306
915 3173 2450
918 3178 2594
921 3182 2740
923 3186 2887
927 3192 3041
929 3193 3187
193 20 16
200 23 122
207 30 264
221 43 421
237 57 579
250 69 731
262 79 884
269 86 1037
276 89 1192
287 98 1347
307 116 1503
334 136 1664
361 156 1826
387 176 1987
411 197 2148
435 218 2308
460 239 2469
216 156 32
220 159 160
227 160 306
238 171 464
253 183 620
267 193 771
276 202 928
284 209 1090
291 220 1251
309 234 1410
332 248 1568
358 265 1730
384 284 1897
411 304 2061
434 322 2218
455 340 2373
479 358 2528
253 344 66
254 347 204
257 348 363
267 353 522
277 362 682
286 374 840
295 386 997
300 395 1156
310 407 1319
333 420 1483
359 439 1648
384 457 1812
408 473 1974
435 487 2136
462 502 2296
487 518 2452
507 537 2605
299 540 120
302 549 257
303 552 418
303 554 581
310 563 736
317 575 892
322 584 1046
329 594 1206
343 606 1370
360 621 1535
382 641 1696
405 664 1860
430 677 2025
456 689 2187
485 705 2346
510 723 2500
531 743 2651
346 737 176
351 746 309
353 754 469
347 756 627
348 761 783
353 773 941
358 783 1100
366 791 1258
379 806 1420
393 820 1581
409 836 1749
430 855 1917
451 870 2081
474 884 2240
503 901 2394
528 919 2546
550 936 2694
398 937 233
405 950 366
406 962 522
394 959 674
391 962 830
393 969 989
398 978 1148
408 990 1307
419 1002 1467
432 1014 1633
445 1026 1801
461 1042 1968
478 1062 2128
498 1081 2283
523 1097 2439
543 1112 2590
568 1128 2741
455 1141 289
464 1158 425
466 1172 579
446 1165 726
435 1160 880
437 1166 1039
442 1176 1203
452 1188 1362
464 1200 1523
475 1210 1687
487 1222 1853
501 1237 2013
516 1255 2170
532 1274 2325
547 1290 2479
564 1303 2635
589 1318 2790
522 1350 355
532 1366 489
533 1382 639
508 1373 783
490 1362 933
487 1364 1094
492 1376 1258
500 1387 1420
510 1400 1579
521 1411 1740
532 1420 1900
543 1431 2057
557 1447 2213
572 1463 2368
588 1479 2523
605 1496 2678
622 1511 2830
594 1561 422
603 1575 555
603 1593 698
574 1582 837
553 1570 985
544 1570 1149
547 1581 1313
551 1589 1472
558 1599 1632
569 1613 1792
578 1620 1946
588 1627 2099
600 1638 2252
615 1653 2407
630 1668 2560
646 1685 2712
662 1703 2866
665 1780 495
672 1790 621
672 1799 757
641 1785 887
617 1776 1031
604 1773 1193
602 1784 1366
606 1792 1526
609 1799 1684
616 1809 1841
625 1818 1993
634 1824 2142
646 1835 2294
660 1847 2446
672 1858 2594
687 1872 2747
703 1891 2903
736 2002 576
739 2008 696
740 2011 822
706 1983 942
681 1977 1077
667 1977 1237
660 1986 1412
661 1996 1582
665 2004 1740
669 2010 1893
675 2018 2044
684 2027 2193
696 2037 2341
707 2046 2488
718 2054 2636
731 2064 2787
745 2075 2944
809 2225 657
808 2228 777
806 2225 895
772 2187 1000
745 2176 1130
730 2180 1284
722 2189 1458
719 2197 1630
722 2206 1791
725 2211 1943
729 2218 2095
735 2225 2243
745 2233 2389
755 2240 2534
765 2247 2681
776 2255 2832
788 2263 2987
883 2445 735
878 2445 855
872 2440 971
841 2398 1063
812 2379 1189
793 2376 1332
784 2387 1503
778 2395 1674
778 2402 1836
781 2407 1991
784 2412 2141
788 2418 2291
792 2423 2436
802 2430 2580
812 2438 2727
822 2445 2876
832 2449 3029
956 2662 811
949 2662 930
942 2657 1050
915 2615 1135
885 2589 1249
861 2578 1387
849 2585 1550
841 2593 1717
837 2598 1882
839 2605 2041
842 2611 2192
844 2616 2340
848 2622 2485
851 2624 2625
860 2631 2768
868 2635 2917
878 2640 3071
1027 2876 891
1019 2875 1006
1012 2873 1127
988 2838 1220
958 2796 1313
931 2782 1441
915 2786 1599
903 2790 1760
897 2796 1926
896 2802 2085
898 2808 2238
900 2812 2384
904 2817 2527
907 2821 2670
910 2825 2811
917 2829 2958
927 2837 3113
1096 3083 962
1089 3088 1084
1083 3089 1205
1060 3061 1305
1034 3015 1388
1006 2987 1499
987 2992 1650
972 2994 1807
962 2998 1968
958 3005 2130
957 3007 2281
958 3011 2426
961 3015 2569
964 3019 2713
967 3024 2861
969 3027 3009
976 3030 3158
1167 3296 1036
1160 3300 1160
1155 3303 1283
1134 3282 1386
1111 3247 1481
1082 3198 1564
1060 3189 1697
1043 3197 1853
1032 3202 2010
1021 3202 2168
1017 3204 2325
1018 3210 2471
1019 3214 2614
1020 3215 2758
1022 3219 2907
1025 3224 3062
1027 3226 3209
320 36 28
344 41 143
350 43 283
357 55 437
377 69 595
395 83 754
405 93 906
409 97 1052
414 101 1204
421 111 1359
438 128 1514
460 145 1669
482 163 1826
505 182 1985
527 202 2145
549 223 2307
574 243 2469
360 175 46
375 181 183
376 175 324
381 184 479
399 195 636
414 204 790
420 213 943
422 220 1097
423 229 1254
434 242 1410
454 253 1566
476 270 1726
501 289 1892
526 308 2057
549 326 2217
569 344 2372
