src/luts/Skyfall_-_Rec709.3dl
# Created by Benjamin (IWLTBAP) : http://luts.iwltbap.com
# Copyright: (C) Copyright 2016 Triune Films and IWLTBAP
# Blockbuster LUTs Pack
0 128 256 384 512 640 768 896 1023
43 52 65
52 56 228
75 94 458
74 151 751
85 210 1039
93 251 1385
107 290 1724
147 387 2072
192 496 2376
82 266 72
78 287 261
68 349 546
73 448 849
77 541 1179
88 598 1539
105 669 1891
132 813 2235
172 934 2544
130 573 133
102 619 361
74 707 664
69 821 995
81 941 1357
101 1032 1727
122 1127 2082
154 1222 2392
190 1321 2670
132 1078 296
108 1102 527
98 1176 834
101 1257 1174
115 1347 1539
140 1434 1891
164 1512 2216
193 1577 2493
231 1648 2750
276 1607 517
219 1599 739
195 1622 1016
185 1672 1373
181 1721 1704
203 1773 2015
235 1833 2307
259 1889 2575
276 1946 2831
511 2089 804
418 2074 1037
357 2041 1244
318 2044 1533
300 2070 1842
305 2115 2124
308 2157 2389
309 2200 2645
334 2249 2908
615 2437 1002
551 2430 1216
479 2403 1407
424 2394 1649
395 2409 1933
381 2439 2215
380 2472 2471
381 2505 2717
397 2546 2965
756 2793 1183
648 2759 1343
560 2728 1523
509 2727 1754
469 2735 2007
446 2758 2292
452 2791 2546
458 2829 2795
499 2873 3045
1079 3139 1383
867 3106 1549
719 3068 1708
649 3059 1914
595 3063 2150
574 3078 2400
573 3106 2641
597 3145 2881
686 3191 3134
287 80 71
268 72 233
273 110 477
263 184 787
269 237 1105
282 263 1438
305 310 1762
362 393 2098
415 480 2390
318 303 77
321 319 272
300 368 560
288 476 877
300 543 1208
320 574 1559
320 640 1905
338 765 2235
392 883 2541
413 616 131
414 648 381
285 744 698
255 854 1034
264 952 1397
279 1037 1765
314 1127 2107
360 1225 2412
397 1335 2706
529 1144 287
495 1154 569
339 1212 876
298 1319 1228
302 1384 1598
321 1449 1937
353 1532 2249
394 1617 2527
434 1698 2790
818 1715 525
602 1741 873
497 1728 1131
428 1739 1434
400 1762 1757
413 1809 2060
437 1874 2340
456 1933 2605
466 1997 2869
1084 2147 721
775 2164 1105
649 2149 1354
580 2135 1599
539 2136 1887
526 2163 2165
526 2202 2423
521 2242 2674
531 2297 2938
1136 2499 986
926 2504 1270
767 2492 1499
694 2481 1718
648 2482 1972
606 2487 2247
607 2520 2500
601 2555 2746
601 2596 2996
1272 2861 1206
1007 2837 1420
881 2827 1622
791 2814 1825
719 2804 2055
676 2811 2321
676 2840 2575
674 2876 2821
725 2922 3077
1644 3207 1400
1397 3184 1621
1240 3168 1804
1052 3141 1983
923 3137 2203
844 3140 2430
828 3162 2670
878 3196 2911
1107 3245 3170
792 172 104
765 151 265
707 154 523
643 217 813
595 259 1171
591 277 1508
609 323 1820
650 401 2143
707 487 2424
874 413 122
846 399 294
765 429 586
682 539 925
605 591 1290
610 608 1632
622 659 1956
664 748 2266
718 852 2560
957 770 161
948 791 374
896 839 731
751 910 1098
669 958 1472
663 1015 1799
662 1081 2123
697 1192 2432
722 1296 2753
1196 1277 277
1157 1274 544
1080 1301 910
751 1352 1315
638 1427 1668
635 1494 1993
667 1576 2296
695 1661 2566
692 1753 2854
1451 1792 471
1349 1811 817
1167 1808 1169
858 1810 1499
701 1849 1821
691 1887 2116
697 1949 2392
712 2010 2650
699 2072 2927
1614 2212 639
1466 2237 1048
1087 2233 1419
921 2217 1668
837 2225 1928
784 2247 2215
777 2278 2473
763 2313 2717
757 2364 2982
1754 2544 825
1621 2568 1196
1269 2573 1553
1088 2564 1793
961 2561 2020
866 2565 2291
857 2593 2543
843 2624 2789
838 2659 3039
1955 2919 1089
1656 2917 1442
1453 2915 1698
1321 2913 1918
1134 2899 2125
1006 2899 2366
946 2910 2615
955 2942 2861
1136 2996 3128
2246 3244 1282
2045 3260 1625
1871 3255 1877
1762 3255 2099
1575 3235 2288
1443 3230 2484
1380 3239 2711
1406 3264 2952
1578 3305 3215
1348 290 154
1295 259 312
1262 251 549
1156 280 863
1038 261 1173
949 260 1523
949 294 1822
987 352 2133
1044 434 2424
1469 552 181
1429 529 348
1383 523 599
1293 617 973
1170 631 1306
1058 636 1693
1060 671 2006
1094 752 2299
1119 868 2593
1659 926 210
1629 939 419
1586 973 748
1447 997 1125
1233 1056 1525
1115 1080 1868
1098 1103 2175
1116 1179 2463
1154 1259 2784
1789 1414 325
1758 1435 587
1708 1474 923
1571 1500 1350
1294 1490 1727
1198 1523 2047
1194 1570 2327
1234 1643 2601
1242 1775 2922
1959 1894 507
1916 1916 823
1793 1898 1139
1597 1887 1501
1310 1927 1875
1174 1971 2175
1139 2027 2445
1137 2085 2699
1107 2156 2983
2102 2278 598
2019 2307 993
1835 2313 1372
1543 2302 1710
1368 2297 1973
1171 2327 2261
1129 2358 2522
1074 2394 2766
1082 2446 3037
2298 2573 593
2162 2621 1087
1969 2652 1520
1684 2653 1849
1509 2648 2093
1356 2659 2339
1244 2676 2589
1233 2708 2841
1262 2744 3097
2493 2916 726
2329 2966 1278
2176 2996 1660
2005 3008 1962
1783 3002 2221
1622 2993 2430
1477 2995 2658
1509 3025 2910
1720 3076 3188
2615 3243 1104
2515 3298 1580
2394 3316 1872
2330 3328 2128
2260 3335 2370
2120 3324 2574
2031 3326 2782
1978 3336 3013
2062 3368 3264
1846 416 208
1793 379 363
1763 390 621
1630 381 905
1522 371 1211
1388 317 1531
1294 321 1850
1305 361 2137
1345 418 2425
1987 717 225
1960 708 404
1891 702 674
1820 731 1026
1684 715 1360
1523 655 1691
1417 642 2007
1443 698 2292
1483 776 2580
2164 1089 253
2141 1103 457
2080 1131 794
2005 1143 1155
1836 1149 1572
1669 1131 1873
1573 1119 2209
1577 1181 2497
1583 1259 2808
2318 1510 351
2281 1529 613
2219 1570 970
2173 1611 1337
2000 1586 1710
1791 1605 2057
1676 1624 2379
1662 1645 2655
1703 1748 2961
2427 1928 476
2374 1968 805
2303 1988 1153
2221 2011 1495
2091 2028 1881
1882 2043 2217
1817 2087 2500
1781 2141 2753
1805 2228 3047
2563 2295 476
2479 2354 944
2399 2381 1346
2281 2390 1685
2109 2372 1972
1928 2420 2316
1806 2454 2586
1741 2494 2834
1788 2557 3119
2719 2614 469
2611 2670 997
2493 2717 1496
2381 2735 1827
2205 2741 2122
2065 2748 2397
1942 2775 2655
1922 2807 2910
1957 2848 3180
2858 2932 533
2738 2983 1083
2612 3040 1623
2525 3079 1966
2406 3094 2265
2277 3092 2513
2197 3098 2737
2156 3113 2981
2256 3149 3250
2920 3241 950
2834 3304 1474
2765 3349 1854
2701 3373 2142
2663 3389 2393
2613 3394 2620
2507 3387 2826
2465 3397 3051
2473 3417 3292
2294 580 250
2249 560 439
2213 565 701
2140 557 1012
1986 505 1259
1857 448 1580
1696 393 1885
1649 409 2170
1692 463 2457
2421 873 268
2409 890 469
2343 880 746
2271 905 1106
2113 819 1369
1987 776 1704
1842 717 2024
1793 730 2305
1805 769 2577
2567 1207 303
2572 1229 497
2521 1253 820
2438 1283 1191
2321 1269 1576
2158 1205 1889
2023 1133 2180
1962 1129 2457
1963 1189 2757
2709 1570 349
2704 1594 561
2664 1621 893
2585 1678 1325
2512 1699 1699
2367 1702 2090
2228 1671 2355
2174 1669 2653
2157 1735 2965
2828 1961 425
2809 2005 723
2743 2055 1151
2678 2094 1532
2636 2132 1877
2505 2123 2224
2390 2143 2496
2320 2189 2769
2318 2260 3067
2903 2299 461
2860 2355 833
2775 2431 1364
2711 2457 1702
2657 2484 2006
2577 2511 2346
2489 2531 2619
2452 2574 2886
2459 2633 3174
3004 2627 478
2956 2681 861
2849 2770 1508
2787 2806 1870
2714 2823 2154
2636 2818 2415
2579 2851 2694
2520 2887 2969
2537 2931 3246
3111 2962 590
3051 3017 1051
2952 3101 1659
2893 3144 2020
2833 3158 2297
2771 3163 2539
2707 3164 2772
2670 3178 3018
2690 3208 3287
3109 3293 1145
3075 3343 1543
3039 3390 1902
3001 3417 2193
2971 3429 2430
2941 3438 2651
2890 3445 2871
2836 3446 3081
2816 3459 3316
2680 710 300
2637 706 504
2595 707 756
2533 713 1080
2433 658 1356
2267 583 1646
2139 508 1944
2058 479 2191
2078 524 2484
2792 979 322
2788 994 524
2724 990 802
2650 1020 1152
2564 1000 1491
2381 894 1759
2281 843 2067
2183 800 2310
2167 827 2590
2915 1301 356
2928 1318 546
2897 1348 853
2806 1380 1256
2720 1396 1623
2538 1280 1908
2452 1266 2214
2352 1202 2457
2323 1221 2756
3035 1643 397
3048 1666 586
3035 1700 884
2946 1772 1400
2891 1806 1753
2761 1777 2117
2652 1762 2391
2551 1692 2633
2498 1678 2955
3143 2011 453
3146 2046 688
3110 2113 1130
3051 2172 1575
3014 2230 1944
2949 2248 2278
2836 2244 2560
2722 2222 2774
2703 2292 3078
3214 2335 498
3199 2389 821
3135 2491 1400
3095 2542 1786
3058 2578 2095
3021 2611 2398
2947 2608 2657
2845 2616 2900
2822 2664 3181
3261 2650 569
3231 2715 956
3158 2813 1550
3115 2867 1930
3080 2896 2215
3048 2913 2472
3001 2933 2740
2962 2949 2997
2955 2987 3269
3287 3020 845
3249 3082 1277
3209 3145 1716
3175 3190 2066
3144 3208 2344
3115 3214 2579
3072 3218 2802
3054 3234 3058
3045 3256 3316
3294 3351 1343
3281 3393 1666
3262 3426 1964
3241 3450 2240
3223 3459 2467
3208 3468 2685
3176 3477 2898
3146 3485 3117
3114 3494 3341
3005 797 348
2974 790 533
2946 803 783
2888 820 1124
2824 810 1468
2662 706 1719
2566 657 2028
2495 610 2262
2455 596 2508
3113 1073 371
3106 1075 569
3060 1073 832
2996 1124 1220
2930 1131 1567
2790 1034 1846
2684 989 2136
2598 937 2374
2545 906 2615
3225 1396 416
3233 1401 609
3206 1426 916
3126 1482 1376
3065 1499 1699
2970 1453 2014
2841 1395 2272
2752 1354 2527
2678 1286 2780
3316 1723 459
3328 1746 667
3309 1785 997
3248 1878 1529
3209 1910 1875
3150 1919 2201
3012 1829 2424
2945 1850 2687
2849 1779 2948
3399 2073 519
3397 2120 807
3372 2201 1245
3334 2268 1691
3305 2332 2067
3274 2351 2363
3217 2350 2626
3114 2326 2851
3022 2293 3080
3442 2407 655
3420 2482 1052
3398 2567 1498
3377 2623 1884
3353 2662 2195
3329 2687 2472
3295 2690 2715
3222 2681 2951
3132 2677 3190
3461 2737 853
3438 2812 1249
3423 2885 1666
3403 2936 2013
3378 2965 2306
3362 2981 2553
3346 2999 2793
3305 3001 3034
3233 3003 3277
3460 3102 1188
3456 3146 1492
3442 3192 1830
3419 3221 2133
3399 3239 2402
3387 3249 2628
3372 3259 2850
3351 3269 3097
3336 3286 3342
3485 3396 1467
3477 3427 1751
3467 3450 2012
3451 3468 2275
3442 3481 2505
3434 3493 2720
3420 3500 2932
3404 3510 3148
3394 3518 3366
3279 852 389
3255 832 562
3236 849 795
3189 889 1157
3136 897 1521
3055 858 1816
2943 794 2107
2897 789 2372
2829 737 2606
3381 1160 436
3371 1149 628
3343 1141 864
3297 1220 1292
3245 1240 1643
3198 1232 1969
3063 1124 2212
3014 1140 2491
2929 1069 2723
3465 1474 481
3457 1481 703
3428 1505 1027
3385 1563 1452
3358 1603 1790
3325 1615 2120
3222 1530 2348
3166 1557 2628
3061 1472 2856
3536 1804 565
3531 1852 863
3507 1897 1216
3479 1965 1653
3453 1999 1992
3426 2016 2284
3388 2008 2536
3313 1982 2767
3214 1945 2985
3590 2159 704
3577 2237 1091
3565 2303 1453
3551 2355 1835
3535 2402 2174
3511 2405 2439
3485 2407 2679
3422 2378 2892
3346 2368 3120
3614 2517 957
3602 2593 1332
3602 2648 1652
3593 2691 1984
3581 2720 2276
3570 2738 2535
3552 2740 2769
3516 2743 3004
3437 2728 3231
3627 2848 1187
3627 2906 1489
3627 2961 1804
3617 2996 2104
3610 3016 2369
3602 3030 2606
3593 3043 2843
3580 3045 3076
3530 3043 3311
3652 3177 1417
3652 3209 1665
3647 3237 1946
3634 3258 2217
3628 3271 2457
3623 3282 2681
3618 3293 2903
3611 3301 3136
3594 3309 3361
3673 3430 1578
3665 3453 1837
3657 3470 2093
3647 3486 2348
3637 3496 2578
3632 3510 2801
3624 3519 3021
3614 3531 3237
3608 3538 3434
