src/luts/Skyfall_-_Rec709.3dl
# Created by Benjamin (IWLTBAP) : http://luts.iwltbap.com
# Copyright: (C) Copyright 2016 Triune Films and IWLTBAP
# Blockbuster LUTs Pack
0 64 128 192 256 320 384 448 512 576 640 704 768 832 896 960 1023
43 52 65
43 52 142
52 56 228
67 72 328
75 94 458
73 121 609
74 151 751
79 180 890
85 210 1039
89 232 1206
93 251 1385
97 265 1555
107 290 1724
120 331 1894
147 387 2072
171 439 2228
192 496 2376
46 142 67
49 144 152
62 159 243
73 180 353
73 203 500
73 242 649
75 286 797
83 330 948
90 366 1111
91 388 1285
95 407 1467
102 433 1642
113 467 1815
123 525 1989
139 589 2155
153 654 2307
171 716 2456
82 266 72
83 273 162
78 287 261
71 313 387
68 349 546
70 395 697
73 448 849
75 497 1006
77 541 1179
80 573 1360
88 598 1539
96 626 1716
105 669 1891
117 742 2071
132 813 2235
147 874 2391
172 934 2544
109 405 93
107 418 189
96 439 298
83 471 435
75 518 597
70 570 756
66 629 915
66 688 1080
71 741 1257
79 784 1446
89 819 1632
99 857 1812
109 910 1991
123 976 2167
139 1032 2322
157 1084 2473
179 1136 2618
130 573 133
120 586 235
102 619 361
85 663 511
74 707 664
69 758 825
69 821 995
74 883 1171
81 941 1357
92 990 1544
101 1032 1727
109 1073 1908
122 1127 2082
138 1178 2244
154 1222 2392
167 1273 2535
190 1321 2670
143 793 196
122 803 309
103 832 433
83 882 585
77 930 744
77 981 906
82 1034 1078
88 1089 1262
97 1145 1447
106 1193 1635
115 1237 1816
127 1281 1989
142 1328 2157
155 1365 2307
169 1406 2448
187 1451 2583
208 1489 2712
132 1078 296
119 1088 405
108 1102 527
101 1140 671
98 1176 834
99 1214 998
101 1257 1174
107 1300 1357
115 1347 1539
125 1393 1717
140 1434 1891
153 1473 2057
164 1512 2216
176 1544 2357
193 1577 2493
212 1612 2624
231 1648 2750
175 1357 400
161 1364 516
148 1369 633
142 1386 766
137 1414 924
134 1443 1098
134 1476 1276
137 1508 1452
143 1540 1625
153 1573 1792
165 1608 1955
180 1644 2115
194 1676 2264
210 1705 2402
227 1734 2537
243 1764 2664
257 1795 2790
276 1607 517
246 1607 634
219 1599 739
204 1604 867
195 1622 1016
189 1648 1191
185 1672 1373
182 1697 1542
181 1721 1704
188 1745 1864
203 1773 2015
220 1807 2167
235 1833 2307
249 1862 2442
259 1889 2575
267 1916 2702
276 1946 2831
411 1863 663
364 1860 787
319 1838 884
292 1826 992
276 1828 1127
260 1839 1282
247 1853 1457
240 1871 1621
238 1891 1776
243 1914 1926
254 1939 2071
267 1970 2215
274 1995 2348
278 2019 2481
281 2046 2610
285 2072 2739
299 2101 2871
511 2089 804
457 2089 937
418 2074 1037
385 2053 1130
357 2041 1244
335 2037 1380
318 2044 1533
304 2054 1690
300 2070 1842
302 2091 1984
305 2115 2124
308 2138 2261
308 2157 2389
308 2178 2518
309 2200 2645
315 2222 2774
334 2249 2908
563 2267 909
524 2271 1041
487 2261 1140
457 2246 1233
424 2230 1337
398 2225 1461
379 2225 1598
363 2232 1743
353 2242 1892
351 2258 2032
348 2278 2172
345 2297 2303
346 2315 2431
344 2332 2557
345 2350 2680
350 2371 2808
365 2396 2936
615 2437 1002
584 2439 1117
551 2430 1216
514 2418 1309
479 2403 1407
446 2395 1521
424 2394 1649
410 2401 1789
395 2409 1933
387 2422 2074
381 2439 2215
378 2455 2343
380 2472 2471
383 2489 2595
381 2505 2717
383 2524 2842
397 2546 2965
673 2606 1084
636 2600 1180
597 2591 1275
558 2580 1367
520 2567 1467
489 2562 1578
465 2559 1701
449 2566 1831
434 2575 1968
418 2585 2114
410 2599 2252
411 2616 2381
416 2633 2508
423 2651 2633
423 2668 2757
428 2688 2883
442 2708 3004
756 2793 1183
699 2779 1266
648 2759 1343
601 2741 1426
560 2728 1523
530 2727 1635
509 2727 1754
484 2728 1877
469 2735 2007
452 2745 2154
446 2758 2292
448 2774 2421
452 2791 2546
455 2810 2670
458 2829 2795
477 2854 2926
499 2873 3045
870 2970 1279
788 2955 1364
723 2935 1439
667 2913 1515
623 2895 1601
593 2893 1708
565 2893 1822
537 2891 1937
517 2896 2064
505 2906 2204
497 2915 2337
497 2929 2465
502 2948 2589
503 2967 2711
512 2987 2836
533 3012 2967
580 3036 3092
1079 3139 1383
973 3123 1467
867 3106 1549
773 3086 1625
719 3068 1708
682 3061 1805
649 3059 1914
620 3059 2026
595 3063 2150
585 3071 2275
574 3078 2400
571 3089 2522
573 3106 2641
578 3125 2761
597 3145 2881
625 3166 3007
686 3191 3134
135 58 67
133 54 144
144 57 229
161 77 329
166 100 457
161 127 608
161 163 760
165 194 908
171 217 1060
176 236 1224
180 248 1394
186 266 1560
198 291 1726
218 328 1897
250 381 2074
278 428 2227
305 479 2375
142 153 69
146 159 153
159 169 246
170 190 356
168 212 500
164 253 654
166 296 804
173 334 955
181 365 1116
187 385 1286
194 401 1464
204 425 1638
213 455 1811
227 504 1984
245 559 2149
260 616 2299
281 678 2451
182 281 74
185 283 163
183 294 266
172 317 397
165 351 553
166 399 704
169 454 858
174 501 1019
176 536 1191
183 560 1371
190 582 1550
195 611 1725
196 651 1899
207 725 2076
223 794 2233
243 859 2388
274 922 2547
218 418 91
220 429 192
207 450 310
178 483 454
165 527 611
158 579 767
154 637 926
155 690 1093
157 734 1270
165 771 1459
174 806 1644
180 851 1824
190 904 2001
209 969 2173
232 1025 2327
256 1076 2478
279 1131 2630
245 587 127
244 599 242
219 631 371
180 685 523
158 729 676
150 781 841
151 840 1011
155 899 1190
163 950 1377
174 994 1563
181 1033 1745
190 1072 1922
208 1129 2096
228 1180 2255
246 1226 2403
263 1280 2548
285 1329 2686
262 822 195
248 830 318
225 848 445
182 904 596
164 965 760
162 1012 924
165 1059 1098
171 1107 1285
180 1156 1472
189 1199 1658
199 1237 1836
212 1279 2006
227 1330 2173
242 1373 2319
257 1417 2462
278 1465 2596
302 1507 2729
255 1119 298
246 1133 427
227 1138 553
208 1159 690
199 1210 849
193 1247 1019
191 1283 1194
196 1323 1381
205 1362 1565
214 1402 1741
223 1437 1912
236 1475 2076
249 1516 2230
264 1554 2371
284 1594 2508
306 1633 2639
325 1672 2767
323 1403 418
298 1419 556
280 1425 677
260 1425 796
248 1445 945
238 1474 1119
234 1500 1300
233 1528 1476
236 1555 1648
244 1584 1814
255 1617 1974
270 1654 2133
285 1686 2278
303 1719 2416
321 1753 2551
337 1786 2678
349 1819 2806
469 1662 542
413 1676 690
374 1676 818
343 1666 929
322 1668 1062
306 1681 1221
294 1696 1397
286 1714 1567
284 1736 1728
291 1759 1885
304 1786 2034
319 1821 2184
331 1849 2322
343 1877 2456
352 1907 2588
358 1935 2715
368 1968 2847
661 1909 654
537 1917 828
483 1916 970
443 1900 1074
413 1888 1185
389 1887 1327
367 1888 1486
352 1894 1647
347 1911 1802
349 1931 1949
357 1956 2091
367 1986 2232
373 2011 2362
377 2038 2494
379 2064 2623
384 2092 2751
393 2122 2887
772 2119 775
635 2126 950
568 2127 1092
531 2116 1197
497 2100 1302
468 2091 1425
445 2087 1565
426 2089 1715
414 2096 1864
411 2112 2003
412 2134 2142
414 2155 2278
414 2175 2404
412 2196 2532
412 2218 2658
416 2241 2785
430 2270 2921
809 2297 894
708 2302 1047
641 2304 1182
599 2295 1285
564 2281 1387
530 2272 1501
507 2269 1630
488 2271 1767
468 2273 1909
458 2281 2048
455 2299 2187
453 2317 2318
454 2334 2445
451 2351 2570
449 2369 2692
449 2391 2819
459 2417 2949
806 2468 1015
749 2469 1138
699 2471 1258
652 2463 1359
614 2451 1455
583 2441 1562
558 2437 1683
537 2438 1814
518 2442 1949
498 2445 2089
490 2459 2230
488 2475 2357
491 2493 2483
495 2511 2608
490 2528 2730
487 2546 2855
498 2569 2979
851 2638 1106
793 2636 1213
752 2634 1322
705 2627 1420
660 2616 1515
627 2607 1619
600 2603 1733
578 2602 1858
561 2608 1988
537 2611 2130
524 2621 2267
523 2637 2395
528 2655 2522
533 2673 2646
531 2691 2771
529 2710 2896
541 2729 3017
965 2823 1205
876 2813 1299
804 2800 1387
749 2788 1477
707 2777 1570
671 2770 1674
641 2768 1787
612 2763 1902
590 2766 2026
568 2771 2167
555 2780 2305
559 2796 2435
562 2813 2559
561 2831 2682
562 2851 2807
582 2877 2940
603 2896 3060
1124 3004 1301
1002 2991 1395
904 2974 1479
823 2955 1561
769 2938 1643
727 2929 1741
696 2928 1851
666 2925 1963
637 2926 2084
625 2935 2219
614 2943 2351
609 2953 2479
611 2971 2603
610 2988 2723
615 3008 2847
644 3034 2979
712 3062 3108
1338 3174 1404
1227 3159 1498
1135 3147 1587
1038 3134 1673
927 3114 1752
852 3099 1841
800 3095 1944
756 3094 2055
727 3096 2173
702 3100 2292
689 3107 2413
690 3117 2535
689 3132 2655
698 3149 2773
717 3169 2895
774 3191 3021
891 3219 3152
287 80 71
279 71 148
268 72 233
273 88 340
273 110 477
268 141 628
263 184 787
264 220 944
269 237 1105
276 250 1273
282 263 1438
290 284 1599
305 310 1762
329 344 1929
362 393 2098
388 434 2247
415 480 2390
298 182 73
297 184 159
290 186 252
290 200 363
285 227 510
274 268 664
271 315 821
276 350 977
282 371 1136
287 384 1303
293 397 1473
304 421 1644
315 450 1818
342 496 1993
367 547 2155
381 598 2304
407 655 2455
318 303 77
318 310 166
321 319 272
312 336 408
300 368 560
292 419 716
288 476 877
292 515 1041
300 543 1208
311 558 1382
320 574 1559
323 601 1734
320 640 1905
326 705 2082
338 765 2235
359 823 2382
392 883 2541
371 451 98
372 459 193
366 472 315
335 496 467
302 538 625
284 596 784
278 652 946
279 694 1112
281 728 1288
288 754 1469
290 786 1648
289 827 1826
296 880 2003
320 946 2171
348 1004 2326
374 1063 2480
395 1120 2643
413 616 131
415 626 239
414 648 381
356 693 537
285 744 698
256 797 864
255 854 1034
258 908 1213
264 952 1397
273 992 1582
279 1037 1765
290 1075 1937
314 1127 2107
340 1173 2262
360 1225 2412
379 1283 2560
397 1335 2706
444 845 191
439 846 314
447 863 458
378 901 614
289 983 783
263 1042 952
266 1085 1130
272 1131 1320
278 1174 1506
284 1213 1687
295 1249 1860
311 1289 2025
332 1341 2189
348 1383 2335
368 1433 2478
388 1480 2613
412 1525 2750
529 1144 287
497 1146 426
495 1154 569
438 1162 719
339 1212 876
305 1286 1049
298 1319 1228
298 1352 1415
302 1384 1598
308 1418 1771
321 1449 1937
336 1489 2098
353 1532 2249
373 1575 2389
394 1617 2527
417 1658 2658
434 1698 2790
658 1444 411
610 1454 564
558 1470 718
488 1473 866
415 1472 1003
375 1509 1158
352 1537 1337
343 1557 1510
344 1579 1680
351 1603 1844
361 1632 2002
374 1671 2156
390 1708 2299
409 1745 2436
427 1781 2570
440 1816 2696
449 1850 2829
818 1715 525
712 1729 699
602 1741 873
545 1740 1014
497 1728 1131
459 1729 1266
428 1739 1434
407 1747 1601
400 1762 1757
406 1784 1914
413 1809 2060
426 1843 2207
437 1874 2340
448 1903 2475
456 1933 2605
460 1963 2732
466 1997 2869
979 1948 620
844 1958 813
673 1966 1004
613 1963 1143
575 1949 1251
539 1938 1370
508 1937 1517
481 1937 1677
468 1945 1831
467 1963 1975
472 1986 2115
478 2012 2252
482 2037 2382
485 2064 2512
485 2089 2639
490 2118 2767
495 2150 2908
1084 2147 721
950 2158 922
775 2164 1105
695 2161 1245
649 2149 1354
608 2137 1467
580 2135 1599
559 2136 1741
539 2136 1887
529 2144 2026
526 2163 2165
526 2183 2298
526 2202 2423
524 2221 2549
521 2242 2674
523 2267 2802
531 2297 2938
1143 2326 842
1021 2333 1023
864 2337 1188
766 2335 1324
711 2324 1430
671 2314 1539
642 2312 1662
619 2313 1793
598 2314 1929
577 2314 2068
569 2328 2208
568 2345 2337
569 2362 2464
565 2377 2587
558 2395 2708
555 2417 2835
564 2444 2965
1136 2499 986
1036 2503 1131
926 2504 1270
827 2502 1398
767 2492 1499
726 2483 1601
694 2481 1718
669 2481 1841
648 2482 1972
622 2479 2107
606 2487 2247
605 2503 2375
607 2520 2500
610 2539 2626
601 2555 2746
593 2573 2871
601 2596 2996
1153 2673 1105
1049 2672 1231
966 2669 1349
890 2667 1462
831 2662 1563
788 2653 1663
747 2650 1772
713 2645 1889
691 2646 2014
664 2647 2149
644 2650 2286
641 2665 2414
645 2683 2539
647 2702 2662
646 2722 2787
640 2737 2912
647 2755 3034
1272 2861 1206
1118 2849 1323
1007 2837 1420
937 2833 1521
881 2827 1622
833 2818 1719
791 2814 1825
752 2809 1936
719 2804 2055
697 2808 2188
676 2811 2321
675 2824 2451
676 2840 2575
673 2857 2697
674 2876 2821
701 2904 2956
725 2922 3077
1448 3041 1302
1284 3029 1422
1156 3014 1512
1061 3003 1603
981 2991 1694
920 2979 1787
862 2971 1887
809 2967 1997
770 2963 2112
750 2968 2238
737 2974 2366
729 2983 2493
727 2998 2618
723 3015 2738
733 3034 2861
769 3059 2993
893 3091 3127
1644 3207 1400
1502 3196 1521
1397 3184 1621
1319 3175 1714
1240 3168 1804
1140 3154 1891
1052 3141 1983
988 3138 2088
923 3137 2203
871 3135 2313
844 3140 2430
835 3149 2550
828 3162 2670
834 3176 2788
878 3196 2911
973 3219 3037
1107 3245 3170
525 124 86
507 118 168
508 115 249
480 114 360
450 124 498
424 156 651
400 200 809
394 236 975
393 251 1145
400 260 1313
411 277 1476
422 297 1636
435 320 1796
457 356 1964
485 399 2124
514 437 2266
541 482 2405
548 230 89
538 226 172
529 223 259
489 225 380
460 249 532
429 294 691
410 344 850
404 383 1018
409 402 1186
413 407 1355
422 421 1524
434 444 1689
447 474 1854
469 516 2024
490 557 2177
510 600 2319
