src/luts/Skyfall_-_Rec709.3dl
# Created by Benjamin (IWLTBAP) : http://luts.iwltbap.com
# Copyright: (C) Copyright 2016 Triune Films and IWLTBAP
# Blockbuster LUTs Pack
0 256 512 768 1023
43 52 65
75 94 458
85 210 1039
107 290 1724
192 496 2376
130 573 133
74 707 664
81 941 1357
122 1127 2082
190 1321 2670
276 1607 517
195 1622 1016
181 1721 1704
235 1833 2307
276 1946 2831
615 2437 1002
479 2403 1407
395 2409 1933
380 2472 2471
397 2546 2965
1079 3139 1383
719 3068 1708
595 3063 2150
573 3106 2641
686 3191 3134
792 172 104
707 154 523
595 259 1171
609 323 1820
707 487 2424
957 770 161
896 839 731
669 958 1472
662 1081 2123
722 1296 2753
1451 1792 471
1167 1808 1169
701 1849 1821
697 1949 2392
699 2072 2927
1754 2544 825
1269 2573 1553
961 2561 2020
857 2593 2543
838 2659 3039
2246 3244 1282
1871 3255 1877
1575 3235 2288
1380 3239 2711
1578 3305 3215
1846 416 208
1763 390 621
1522 371 1211
1294 321 1850
1345 418 2425
2164 1089 253
2080 1131 794
1836 1149 1572
1573 1119 2209
1583 1259 2808
2427 1928 476
2303 1988 1153
2091 2028 1881
1817 2087 2500
1805 2228 3047
2719 2614 469
2493 2717 1496
2205 2741 2122
1942 2775 2655
1957 2848 3180
2920 3241 950
2765 3349 1854
2663 3389 2393
2507 3387 2826
2473 3417 3292
2680 710 300
2595 707 756
2433 658 1356
2139 508 1944
2078 524 2484
2915 1301 356
2897 1348 853
2720 1396 1623
2452 1266 2214
2323 1221 2756
3143 2011 453
3110 2113 1130
3014 2230 1944
2836 2244 2560
2703 2292 3078
3261 2650 569
3158 2813 1550
3080 2896 2215
3001 2933 2740
2955 2987 3269
3294 3351 1343
3262 3426 1964
3223 3459 2467
3176 3477 2898
3114 3494 3341
3279 852 389
3236 849 795
3136 897 1521
2943 794 2107
2829 737 2606
3465 1474 481
3428 1505 1027
3358 1603 1790
3222 1530 2348
3061 1472 2856
3590 2159 704
3565 2303 1453
3535 2402 2174
3485 2407 2679
3346 2368 3120
3627 2848 1187
3627 2961 1804
3610 3016 2369
3593 3043 2843
3530 3043 3311
3673 3430 1578
3657 3470 2093
3637 3496 2578
3624 3519 3021
3608 3538 3434
