src/luts/Star_Wars_The_Force_Awakens_-_Rec709.3dl
# Created by Benjamin (IWLTBAP) : http://luts.iwltbap.com
# Copyright: (C) Copyright 2016 Triune Films and IWLTBAP
# Blockbuster LUTs Pack
0 128 256 384 512 640 768 896 1023
46 12 9
87 69 274
169 191 615
202 317 981
254 486 1312
373 574 1676
498 623 2106
609 716 2527
707 876 2899
86 341 61
107 381 310
169 489 624
192 629 963
212 768 1299
297 895 1616
421 978 1991
553 1043 2437
688 1211 2860
139 710 138
152 739 385
172 815 693
162 911 1003
221 1027 1333
296 1149 1642
427 1271 2005
573 1416 2434
725 1602 2880
103 1096 179
109 1121 431
141 1188 817
176 1233 1109
244 1319 1406
356 1452 1727
488 1619 2090
618 1783 2494
755 1958 2911
119 1479 263
136 1495 514
185 1542 895
248 1615 1237
326 1691 1524
429 1827 1831
549 1991 2193
668 2145 2590
852 2316 2996
260 1913 405
259 1896 644
289 1944 978
378 2060 1360
463 2178 1664
534 2272 1975
624 2373 2314
770 2503 2705
984 2658 3086
372 2378 575
373 2366 805
392 2373 1070
478 2483 1423
614 2637 1822
689 2690 2131
778 2757 2471
929 2868 2829
1130 2997 3185
544 2792 721
557 2801 938
560 2787 1174
657 2875 1490
763 2991 1916
887 3111 2322
988 3167 2641
1119 3236 2963
1288 3355 3312
737 3246 909
753 3260 1123
777 3274 1343
860 3343 1679
970 3428 2044
1124 3531 2489
1234 3581 2816
1325 3643 3142
1434 3743 3481
357 79 42
386 96 293
402 170 651
443 268 1005
494 349 1355
606 407 1745
718 464 2178
830 556 2611
983 749 3038
351 362 57
345 395 350
385 472 719
402 607 1036
459 752 1352
570 821 1731
680 870 2157
778 976 2559
882 1173 2881
339 747 112
348 765 370
374 842 751
374 940 1059
424 1056 1362
504 1160 1672
612 1246 2054
746 1343 2496
935 1580 2915
329 1145 123
334 1153 421
355 1207 786
379 1264 1126
444 1352 1431
552 1475 1760
684 1632 2138
813 1784 2553
987 1985 2946
374 1522 199
382 1549 493
399 1574 833
462 1663 1241
528 1738 1541
631 1868 1864
745 2035 2228
875 2187 2628
1087 2358 3018
488 1942 369
491 1963 628
489 1970 932
555 2078 1316
660 2218 1681
734 2304 1998
833 2412 2345
1002 2545 2735
1224 2692 3104
611 2428 534
590 2406 792
588 2404 1051
667 2498 1381
805 2639 1801
904 2718 2148
999 2790 2489
1168 2902 2846
1367 3026 3199
797 2824 720
800 2830 940
791 2821 1176
854 2874 1464
960 2990 1866
1120 3145 2328
1231 3197 2644
1355 3261 2963
1516 3387 3330
971 3265 957
978 3275 1168
1005 3294 1396
1073 3346 1694
1187 3438 2040
1334 3532 2459
1471 3614 2838
1552 3674 3161
1659 3775 3504
723 171 89
778 166 316
779 198 633
742 277 996
763 371 1346
829 420 1709
944 469 2124
1066 560 2569
1246 748 3028
729 422 100
766 427 324
797 490 672
688 531 1097
767 591 1457
868 630 1854
963 695 2275
1080 838 2686
1257 1105 3044
733 743 107
763 753 334
659 864 790
645 945 1156
703 1036 1465
787 1091 1839
871 1174 2233
979 1323 2571
1203 1572 2942
722 1138 118
628 1222 348
571 1258 746
595 1302 1188
658 1383 1480
760 1487 1825
881 1614 2215
1046 1785 2611
1269 1990 2980
757 1543 158
727 1691 405
683 1709 808
666 1700 1251
751 1777 1595
856 1913 1932
963 2070 2299
1132 2232 2676
1368 2385 3043
862 2007 231
805 2097 493
793 2131 913
766 2146 1295
880 2279 1718
956 2355 2046
1080 2462 2396
1264 2593 2766
1490 2725 3122
966 2533 302
893 2472 747
880 2495 1060
909 2539 1369
1017 2645 1763
1152 2775 2192
1262 2840 2521
1430 2938 2862
1618 3064 3222
1144 2976 661
1094 2887 1018
1098 2907 1266
1079 2907 1472
1187 3019 1859
1357 3167 2323
1495 3237 2668
1611 3301 2988
1753 3431 3365
1293 3320 1044
1306 3334 1274
1314 3351 1496
1311 3373 1730
1418 3456 2068
1564 3551 2438
1724 3667 2879
1798 3728 3199
1902 3816 3531
1141 189 108
1177 201 342
1171 216 585
1161 275 942
1124 380 1295
1137 442 1710
1226 483 2108
1381 565 2505
1595 776 2920
1084 485 159
1167 457 333
1243 506 617
1205 577 986
1072 612 1442
1167 649 1848
1289 714 2228
1443 872 2633
1652 1135 3029
1149 788 123
1177 784 382
1207 873 694
1249 977 1078
1148 921 1587
1248 955 2010
1390 1115 2374
1518 1297 2732
1678 1521 3089
1229 1171 147
1223 1203 362
1270 1235 669
1071 1317 1208
1061 1395 1619
1123 1466 1971
1240 1599 2317
1408 1794 2670
1641 2005 3039
1306 1577 181
1302 1640 405
1247 1743 706
1005 1735 1258
1063 1842 1708
1185 1950 2057
1311 2113 2389
1464 2262 2720
1673 2397 3064
1439 1952 236
1354 2082 471
1354 2251 798
1200 2218 1385
1170 2337 1764
1263 2423 2130
1393 2523 2446
1576 2634 2793
1779 2766 3148
1521 2419 298
1475 2544 529
1411 2615 948
1364 2603 1496
1336 2703 1828
1445 2841 2243
1573 2895 2560
1720 2975 2886
1885 3116 3263
1657 3061 402
1585 3084 712
1515 2968 1289
1463 3014 1646
1478 3089 1930
1602 3186 2312
1775 3294 2719
1879 3358 3044
2006 3486 3411
1823 3496 853
1797 3432 1213
1744 3402 1571
1756 3472 1854
1682 3487 2104
1823 3587 2468
1975 3723 2909
2066 3797 3251
2168 3866 3569
1607 296 194
1653 309 402
1782 367 654
1617 319 895
1563 389 1238
1493 458 1633
1582 521 2082
1848 684 2501
2134 958 2964
1463 551 215
1639 512 396
1793 557 650
1737 568 907
1619 685 1260
1566 737 1741
1685 820 2186
1900 991 2574
2141 1255 3029
1513 885 219
1564 892 463
1714 927 709
1808 1041 1107
1767 1135 1404
1698 1097 1881
1851 1212 2327
2000 1388 2721
2164 1573 3133
1646 1234 220
1739 1259 445
1807 1352 816
1739 1415 1237
1823 1511 1579
1800 1525 2015
1911 1633 2478
2045 1791 2849
2222 1930 3316
1823 1624 258
1893 1689 476
1939 1786 710
1932 1850 1216
1745 1878 1724
1795 1997 2151
1898 2125 2503
2037 2279 2849
2200 2451 3225
1909 2057 272
1973 2147 495
2024 2283 719
1976 2335 1244
1725 2281 1800
1796 2485 2240
1932 2578 2553
2052 2702 2885
2195 2842 3244
2029 2452 308
2121 2571 520
2075 2748 778
2024 2739 1439
1909 2736 1933
1908 2875 2314
2022 2976 2662
2129 3073 2988
2244 3211 3354
2190 3048 358
2180 3110 603
2218 3155 1047
2064 3063 1626
2111 3145 2032
2059 3259 2411
2099 3380 2805
2199 3451 3131
2317 3565 3473
2389 3545 787
2371 3510 1112
2323 3497 1461
2312 3561 1829
2286 3620 2215
2201 3696 2533
2240 3778 2927
2350 3867 3312
2453 3915 3614
2123 452 300
2179 463 490
2290 507 701
2330 538 937
2081 526 1249
2088 665 1579
2195 741 1970
2413 895 2453
2681 1139 2930
2083 687 303
2146 666 489
2267 710 715
2372 805 1017
2152 827 1294
2181 972 1633
2245 1025 2049
2412 1176 2504
2699 1402 2984
1952 1013 328
2017 1025 557
2218 1027 789
2343 1106 1136
2332 1200 1435
2289 1301 1754
2342 1383 2207
2511 1532 2612
2709 1658 3049
2123 1347 310
2224 1400 586
2242 1533 994
2324 1570 1340
2389 1660 1688
2379 1735 1992
2460 1781 2359
2638 1886 2744
2748 1950 3207
2251 1699 336
2380 1784 560
2501 1886 806
2378 1996 1461
2340 2070 1811
2490 2182 2157
2560 2190 2475
2690 2262 2902
2794 2369 3431
2387 2126 368
2519 2229 579
2590 2363 792
2560 2471 1326
2546 2479 1846
2542 2537 2258
2651 2662 2618
2705 2762 2977
2769 2906 3352
2470 2631 334
2540 2726 539
2635 2865 805
2645 2867 1441
2627 2852 1893
2581 2868 2320
2650 3084 2759
2708 3172 3091
2753 3318 3452
2663 3142 397
2666 3165 653
2712 3216 1048
2703 3195 1573
2702 3264 2025
2731 3347 2443
2701 3478 2865
2719 3576 3232
2779 3676 3565
2746 3544 830
2754 3518 1100
2761 3519 1369
2789 3593 1753
2782 3654 2210
2850 3768 2582
2800 3876 2960
2773 3951 3400
2867 3988 3679
2571 595 384
2641 610 563
2696 622 743
2759 691 998
2634 754 1354
2610 880 1690
2710 1007 2093
2873 1149 2550
3033 1276 2976
2574 860 392
2629 840 572
2711 879 775
2772 1004 1112
2762 1095 1486
2649 1136 1753
2716 1268 2169
2870 1408 2589
3042 1518 3005
2455 1172 426
2548 1169 634
2702 1185 829
2742 1323 1278
2797 1417 1613
2720 1445 1875
2783 1591 2292
2910 1691 2652
3064 1768 3065
2653 1513 458
2658 1593 711
2626 1703 1178
2744 1721 1470
2838 1772 1771
2854 1847 2082
2890 1936 2412
2994 2011 2758
3109 2061 3170
2721 1845 416
2853 1935 630
2782 2122 1252
2758 2186 1640
2866 2232 1949
2951 2297 2259
2995 2354 2555
3074 2379 2891
3174 2458 3287
2857 2270 426
2924 2359 637
2971 2453 967
2954 2504 1550
2943 2599 2045
2973 2688 2351
3084 2793 2687
3120 2797 2997
3219 2897 3375
2972 2812 450
2959 2815 720
2983 2812 1140
3024 2855 1561
3051 2973 1952
3077 3052 2369
3111 3136 2775
3181 3245 3151
3233 3353 3511
3018 3247 632
2989 3207 934
2990 3188 1257
3056 3275 1642
3097 3370 2050
3128 3429 2450
3157 3480 2859
3153 3649 3331
3231 3745 3644
3060 3571 914
3059 3557 1157
3073 3561 1402
3130 3637 1746
3165 3723 2161
3209 3830 2583
3259 3911 2987
3216 4003 3423
3294 4049 3732
2928 706 429
2951 700 603
2977 726 796
3012 835 1119
3007 941 1506
3026 1059 1871
3111 1184 2284
3251 1320 2679
3391 1401 3079
2955 1008 443
2993 985 622
3038 1038 846
3066 1167 1223
3089 1269 1622
3095 1337 1924
3129 1445 2343
3256 1569 2710
3405 1655 3115
2972 1357 511
3065 1371 679
3104 1381 909
3114 1527 1400
3177 1629 1761
3229 1703 2087
3169 1730 2406
3283 1832 2766
3428 1920 3170
3064 1731 560
3043 1809 861
3016 1882 1319
3144 1901 1578
3215 1964 1901
3278 2020 2210
3236 2036 2478
3338 2137 2857
3458 2224 3239
3188 2073 497
3189 2167 914
3120 2251 1432
3135 2310 1775
3246 2315 2047
3338 2333 2322
3351 2395 2599
3412 2510 2974
3510 2621 3319
3300 2480 533
3272 2472 828
3244 2531 1371
3252 2648 1836
3266 2740 2169
3367 2800 2458
3443 2890 2780
3489 2945 3089
3583 3004 3434
3339 2847 703
3303 2813 1009
3300 2814 1319
3357 2895 1658
3408 3033 2089
3416 3171 2571
3455 3258 2874
3543 3352 3208
3628 3407 3565
3370 3230 924
3357 3215 1175
3357 3218 1427
3394 3265 1700
3464 3385 2118
3490 3504 2507
3529 3600 2907
3583 3693 3305
3674 3788 3674
3394 3645 1046
3392 3633 1277
3400 3639 1517
3441 3705 1865
3506 3817 2263
3570 3899 2644
3620 3952 3009
3665 4017 3412
3713 4088 3764
3316 878 487
3309 897 686
3309 951 944
3308 1034 1299
3339 1115 1654
3404 1227 2014
3465 1333 2442
3572 1430 2799
3727 1555 3223
3335 1152 502
3331 1161 706
3325 1208 993
3325 1302 1366
3378 1394 1719
3453 1503 2073
3480 1582 2467
3581 1682 2832
3747 1811 3263
3419 1612 667
3456 1568 812
3413 1574 1129
3421 1654 1513
3490 1758 1857
3561 1831 2194
3521 1852 2485
3608 1949 2884
3776 2068 3320
3429 1959 803
3411 1995 1109
3449 2032 1421
3507 2009 1634
3555 2078 1977
3632 2147 2297
3657 2204 2594
3660 2273 2950
3802 2393 3370
3457 2256 924
3465 2289 1196
3495 2344 1514
3573 2382 1783
3623 2403 2090
3684 2481 2419
3780 2588 2753
3735 2652 3037
3851 2762 3440
3571 2538 746
3530 2520 1047
3543 2556 1341
3625 2662 1755
3675 2842 2241
3740 2891 2573
3842 2949 2877
3844 3021 3147
3921 3124 3539
3604 2857 887
3590 2850 1140
3586 2867 1402
3652 2974 1755
3739 3123 2190
3793 3272 2637
3835 3364 2983
3900 3448 3302
3970 3494 3626
3659 3263 1024
3654 3257 1261
3654 3272 1506
3710 3346 1850
3795 3462 2274
3851 3578 2656
3896 3674 3035
3953 3768 3392
4010 3831 3697
3745 3685 1137
3740 3686 1385
3747 3705 1668
3775 3749 1999
3856 3835 2373
3910 3920 2719
3943 3998 3062
4006 4074 3450
4065 4095 3950
