src/luts/Star_Wars_The_Force_Awakens_-_Rec709.3dl
# Created by Benjamin (IWLTBAP) : http://luts.iwltbap.com
# Copyright: (C) Copyright 2016 Triune Films and IWLTBAP
# Blockbuster LUTs Pack
0 256 512 768 1023
46 12 9
169 191 615
254 486 1312
498 623 2106
707 876 2899
139 710 138
172 815 693
221 1027 1333
427 1271 2005
725 1602 2880
119 1479 263
185 1542 895
326 1691 1524
549 1991 2193
852 2316 2996
372 2378 575
392 2373 1070
614 2637 1822
778 2757 2471
1130 2997 3185
737 3246 909
777 3274 1343
970 3428 2044
1234 3581 2816
1434 3743 3481
723 171 89
779 198 633
763 371 1346
944 469 2124
1246 748 3028
733 743 107
659 864 790
703 1036 1465
871 1174 2233
1203 1572 2942
757 1543 158
683 1709 808
751 1777 1595
963 2070 2299
1368 2385 3043
966 2533 302
880 2495 1060
1017 2645 1763
1262 2840 2521
1618 3064 3222
1293 3320 1044
1314 3351 1496
1418 3456 2068
1724 3667 2879
1902 3816 3531
1607 296 194
1782 367 654
1563 389 1238
1582 521 2082
2134 958 2964
1513 885 219
1714 927 709
1767 1135 1404
1851 1212 2327
2164 1573 3133
1823 1624 258
1939 1786 710
1745 1878 1724
1898 2125 2503
2200 2451 3225
2029 2452 308
2075 2748 778
1909 2736 1933
2022 2976 2662
2244 3211 3354
2389 3545 787
2323 3497 1461
2286 3620 2215
2240 3778 2927
2453 3915 3614
2571 595 384
2696 622 743
2634 754 1354
2710 1007 2093
3033 1276 2976
2455 1172 426
2702 1185 829
2797 1417 1613
2783 1591 2292
3064 1768 3065
2721 1845 416
2782 2122 1252
2866 2232 1949
2995 2354 2555
3174 2458 3287
2972 2812 450
2983 2812 1140
3051 2973 1952
3111 3136 2775
3233 3353 3511
3060 3571 914
3073 3561 1402
3165 3723 2161
3259 3911 2987
3294 4049 3732
3316 878 487
3309 951 944
3339 1115 1654
3465 1333 2442
3727 1555 3223
3419 1612 667
3413 1574 1129
3490 1758 1857
3521 1852 2485
3776 2068 3320
3457 2256 924
3495 2344 1514
3623 2403 2090
3780 2588 2753
3851 2762 3440
3604 2857 887
3586 2867 1402
3739 3123 2190
3835 3364 2983
3970 3494 3626
3745 3685 1137
3747 3705 1668
3856 3835 2373
3943 3998 3062
4065 4095 3950
