src/luts/Star_Wars_The_Force_Awakens_-_Rec709.3dl
# Created by Benjamin (IWLTBAP) : http://luts.iwltbap.com
# Copyright: (C) Copyright 2016 Triune Films and IWLTBAP
# Blockbuster LUTs Pack
0 64 128 192 256 320 384 448 512 576 640 704 768 832 896 960 1023
46 12 9
61 25 132
87 69 274
129 129 439
169 191 615
195 248 795
202 317 981
213 402 1149
254 486 1312
313 537 1488
373 574 1676
435 600 1886
498 623 2106
555 661 2319
609 716 2527
660 786 2725
707 876 2899
61 175 31
69 191 145
90 229 278
131 287 442
169 354 619
198 420 799
202 500 972
200 579 1139
229 648 1297
278 706 1462
335 749 1634
395 782 1828
462 798 2051
524 823 2274
581 868 2486
635 932 2687
685 1024 2866
86 341 61
94 357 176
107 381 310
133 426 460
169 489 624
194 560 794
192 629 963
180 696 1133
212 768 1299
251 835 1456
297 895 1616
362 937 1797
421 978 1991
486 1005 2212
553 1043 2437
619 1107 2654
688 1211 2860
114 521 96
120 529 209
139 558 355
153 589 497
170 640 647
184 703 808
174 762 972
178 822 1144
214 894 1311
253 960 1467
292 1022 1624
347 1072 1793
409 1124 1981
476 1176 2189
550 1232 2417
628 1307 2650
712 1417 2874
139 710 138
143 715 241
152 739 385
166 776 550
172 815 693
170 860 842
162 911 1003
183 965 1173
221 1027 1333
257 1088 1487
296 1149 1642
356 1206 1813
427 1271 2005
499 1340 2213
573 1416 2434
647 1497 2661
725 1602 2880
132 904 165
134 910 272
138 932 409
151 971 600
151 1002 754
151 1031 898
164 1066 1052
194 1114 1214
231 1170 1366
268 1230 1520
317 1293 1680
388 1360 1856
456 1437 2044
525 1512 2246
594 1590 2458
663 1676 2674
738 1776 2889
103 1096 179
104 1106 299
109 1121 431
121 1155 622
141 1188 817
156 1209 965
176 1233 1109
208 1268 1257
244 1319 1406
287 1381 1563
356 1452 1727
422 1533 1903
488 1619 2090
554 1700 2289
618 1783 2494
680 1865 2703
755 1958 2911
96 1285 211
100 1293 332
108 1305 463
130 1336 651
160 1365 862
187 1393 1029
206 1414 1169
228 1443 1311
267 1489 1459
330 1552 1614
392 1629 1776
455 1717 1952
520 1803 2141
581 1884 2337
640 1966 2538
706 2050 2747
796 2142 2952
119 1479 263
125 1484 383
136 1495 514
157 1517 688
185 1542 895
218 1584 1085
248 1615 1237
283 1647 1381
326 1691 1524
375 1750 1671
429 1827 1831
489 1910 2006
549 1991 2193
606 2068 2389
668 2145 2590
748 2225 2796
852 2316 2996
177 1680 328
184 1684 444
197 1694 578
203 1707 742
226 1739 934
267 1775 1126
321 1841 1310
356 1878 1452
396 1926 1594
437 1982 1742
478 2043 1898
524 2114 2067
578 2184 2250
640 2251 2444
712 2321 2645
806 2401 2850
915 2488 3041
260 1913 405
259 1907 515
259 1896 644
266 1906 800
289 1944 978
322 1980 1161
378 2060 1360
429 2135 1523
463 2178 1664
497 2222 1816
534 2272 1975
576 2323 2140
624 2373 2314
689 2432 2504
770 2503 2705
872 2580 2900
984 2658 3086
322 2151 490
322 2145 600
315 2119 720
318 2114 859
343 2155 1023
378 2208 1198
425 2273 1395
489 2374 1584
531 2420 1743
565 2454 1894
605 2489 2051
645 2525 2216
691 2564 2390
755 2618 2574
845 2687 2766
947 2756 2952
1054 2826 3132
372 2378 575
373 2375 683
373 2366 805
371 2339 923
392 2373 1070
429 2433 1240
478 2483 1423
546 2563 1625
614 2637 1822
651 2667 1976
689 2690 2131
730 2718 2297
778 2757 2471
844 2811 2652
929 2868 2829
1027 2931 3007
1130 2997 3185
436 2583 650
441 2584 756
445 2587 872
442 2570 989
454 2573 1118
500 2622 1280
551 2671 1452
610 2735 1657
689 2811 1872
749 2866 2063
785 2893 2224
826 2922 2390
876 2960 2559
938 3004 2725
1024 3052 2896
1112 3106 3067
1207 3171 3244
544 2792 721
552 2799 827
557 2801 938
547 2782 1052
560 2787 1174
606 2826 1327
657 2875 1490
699 2925 1684
763 2991 1916
836 3067 2143
887 3111 2322
935 3140 2481
988 3167 2641
1050 3199 2801
1119 3236 2963
1203 3290 3134
1288 3355 3312
641 2997 789
646 3003 893
653 3010 999
663 3017 1118
675 3025 1238
705 3061 1384
745 3107 1554
794 3153 1750
853 3201 1972
931 3269 2203
1010 3327 2414
1061 3350 2570
1110 3369 2724
1164 3395 2883
1227 3434 3046
1293 3484 3214
1365 3546 3389
737 3246 909
744 3252 1014
753 3260 1123
764 3267 1232
777 3274 1343
812 3302 1505
860 3343 1679
914 3385 1857
970 3428 2044
1040 3477 2268
1124 3531 2489
1186 3559 2666
1234 3581 2816
1277 3605 2978
1325 3643 3142
1381 3690 3311
1434 3743 3481
192 44 24
199 50 146
209 60 291
242 109 464
280 162 641
305 209 814
312 248 997
330 293 1173
375 337 1353
431 369 1538
488 415 1734
549 456 1947
608 504 2162
666 564 2375
723 637 2583
778 735 2780
824 857 2939
178 187 43
184 184 160
204 203 309
242 258 480
277 313 652
297 375 825
302 448 998
318 534 1162
356 612 1325
411 657 1505
469 690 1696
528 714 1907
587 739 2125
642 778 2338
692 836 2542
737 917 2724
783 1013 2882
189 359 61
201 371 183
215 390 325
246 434 488
279 493 661
296 566 833
300 643 999
301 714 1162
331 780 1319
376 836 1481
428 878 1653
484 908 1850
548 926 2071
607 953 2291
664 998 2502
715 1071 2694
779 1185 2871
218 532 97
226 541 210
241 565 355
258 602 521
280 653 681
291 716 843
283 775 1002
283 836 1163
314 904 1323
354 969 1479
400 1026 1639
456 1068 1817
513 1108 2016
576 1136 2236
642 1183 2459
713 1261 2677
799 1387 2884
243 722 136
246 727 244
253 741 372
270 788 562
276 826 712
274 870 866
269 922 1023
281 978 1186
315 1039 1344
354 1099 1497
398 1156 1653
452 1205 1825
515 1261 2020
583 1318 2233
655 1382 2458
734 1467 2685
821 1591 2897
237 918 156
242 923 275
244 936 394
256 975 576
260 1014 756
259 1043 906
263 1080 1060
285 1127 1220
322 1181 1375
364 1242 1531
418 1300 1691
481 1363 1870
548 1438 2063
617 1510 2270
685 1582 2483
755 1665 2700
838 1776 2905
220 1109 157
224 1114 292
229 1124 419
238 1158 589
250 1197 803
256 1222 967
270 1248 1112
298 1284 1260
340 1334 1416
391 1396 1575
453 1465 1741
516 1543 1920
584 1627 2111
651 1706 2314
714 1785 2521
779 1869 2731
865 1972 2929
218 1292 187
222 1298 319
229 1310 454
243 1338 615
260 1372 827
278 1408 1027
299 1431 1169
330 1464 1315
374 1510 1467
430 1573 1624
489 1648 1789
552 1734 1968
617 1821 2158
677 1902 2355
735 1982 2558
807 2068 2765
907 2163 2966
241 1485 247
249 1494 374
256 1502 505
271 1524 654
287 1556 857
316 1593 1068
355 1636 1238
388 1669 1383
426 1715 1529
473 1774 1679
527 1846 1843
587 1929 2021
645 2013 2208
701 2090 2404
767 2165 2607
857 2248 2812
966 2338 3008
297 1692 312
307 1706 437
313 1709 565
323 1719 710
339 1752 904
366 1786 1102
414 1853 1301
454 1902 1454
491 1946 1597
534 1999 1749
576 2063 1912
622 2132 2081
677 2204 2264
740 2270 2459
818 2342 2662
920 2424 2863
1030 2508 3051
368 1926 393
364 1921 508
369 1923 632
371 1921 779
386 1953 955
418 2000 1134
463 2060 1339
522 2152 1523
559 2194 1669
592 2236 1822
631 2285 1984
677 2342 2154
726 2392 2328
793 2451 2519
883 2524 2720
988 2599 2912
1101 2675 3095
428 2168 480
424 2158 594
423 2152 711
417 2132 847
434 2160 1004
468 2221 1177
511 2280 1369
576 2372 1571
629 2434 1748
664 2465 1900
703 2499 2057
746 2536 2224
798 2584 2405
866 2639 2588
959 2704 2777
1064 2773 2962
1170 2841 3141
478 2389 562
474 2381 677
475 2382 794
471 2369 919
482 2374 1055
520 2437 1221
566 2490 1398
633 2556 1603
708 2638 1813
754 2677 1979
793 2701 2135
835 2732 2303
885 2772 2478
959 2828 2661
1046 2884 2837
1143 2945 3014
1246 3010 3191
548 2595 639
544 2591 754
550 2595 868
556 2598 989
550 2574 1106
592 2621 1264
647 2672 1433
704 2729 1627
780 2803 1850
853 2875 2063
895 2911 2227
936 2941 2392
989 2976 2558
1053 3016 2724
1141 3066 2898
1229 3120 3070
1322 3186 3249
660 2801 720
664 2805 826
670 2813 939
665 2804 1054
664 2793 1169
702 2822 1314
754 2872 1474
802 2927 1657
859 2987 1892
935 3069 2127
1000 3127 2324
1052 3156 2482
1106 3181 2640
1166 3209 2799
1233 3247 2961
1319 3304 3140
1400 3369 3319
752 3006 788
754 3010 892
756 3018 1000
765 3025 1118
778 3033 1242
802 3058 1383
845 3106 1553
897 3155 1741
953 3203 1949
1029 3269 2183
1119 3334 2407
1178 3361 2574
1229 3382 2726
1280 3407 2883
1340 3445 3048
1403 3496 3221
1475 3561 3400
846 3252 928
851 3255 1032
863 3265 1144
874 3273 1255
887 3281 1367
915 3301 1509
965 3343 1684
1019 3386 1857
1078 3432 2036
1142 3479 2245
1227 3529 2473
1303 3572 2670
1351 3596 2823
1393 3620 2984
1437 3656 3149
1488 3701 3319
1547 3760 3493
357 79 42
374 83 160
386 96 293
375 122 474
402 170 651
426 220 821
443 268 1005
457 311 1179
494 349 1355
548 378 1546
606 407 1745
663 433 1962
718 464 2178
775 505 2395
830 556 2611
894 626 2828
983 749 3038
354 214 42
353 222 165
364 233 309
373 256 516
392 294 693
407 338 863
416 373 1029
439 415 1196
484 456 1378
538 487 1569
591 529 1768
649 570 1981
706 618 2194
762 677 2406
812 761 2602
865 875 2778
913 995 2922
351 362 57
338 381 194
345 395 350
366 410 551
385 472 719
394 537 883
402 607 1036
421 689 1187
459 752 1352
512 793 1532
570 821 1731
626 842 1943
680 870 2157
732 910 2368
778 976 2559
822 1065 2723
882 1173 2881
342 534 78
335 557 213
345 593 367
366 623 562
384 674 728
389 738 888
389 799 1039
402 859 1193
433 921 1348
475 973 1508
522 1016 1681
577 1044 1878
637 1064 2098
694 1093 2315
750 1148 2518
812 1239 2707
901 1370 2892
339 747 112
345 743 241
348 765 370
366 804 573
374 842 751
374 889 906
374 940 1059
393 997 1211
424 1056 1362
460 1113 1514
504 1160 1672
554 1204 1850
612 1246 2054
677 1281 2277
746 1343 2496
826 1444 2710
935 1580 2915
331 951 125
340 947 264
341 962 393
351 983 560
360 1027 776
363 1054 936
371 1093 1090
397 1142 1240
429 1198 1392
466 1255 1545
516 1306 1707
575 1363 1890
641 1430 2088
708 1494 2299
778 1562 2517
855 1658 2728
954 1782 2923
329 1145 123
332 1144 264
334 1153 421
341 1167 571
355 1207 786
364 1240 981
379 1264 1126
404 1301 1275
444 1352 1431
493 1411 1592
552 1475 1760
615 1552 1942
684 1632 2138
749 1708 2345
813 1784 2553
887 1877 2756
987 1985 2946
334 1331 143
339 1337 279
342 1342 444
350 1347 598
366 1385 800
387 1425 1022
408 1454 1177
436 1485 1326
478 1531 1483
531 1591 1642
591 1664 1811
655 1748 1992
718 1833 2185
777 1913 2384
837 1992 2587
920 2085 2787
1030 2179 2980
374 1522 199
383 1539 335
382 1549 493
386 1547 646
399 1574 833
422 1611 1049
462 1663 1241
491 1695 1392
528 1738 1541
577 1797 1697
631 1868 1864
690 1950 2042
745 2035 2228
802 2111 2425
875 2187 2628
974 2272 2827
1087 2358 3018
422 1712 290
433 1736 417
438 1761 558
440 1759 706
447 1769 878
468 1814 1078
508 1868 1286
556 1932 1462
595 1972 1607
636 2022 1764
680 2087 1931
724 2154 2100
781 2225 2282
846 2292 2477
934 2366 2680
1040 2447 2876
1155 2527 3060
488 1942 369
486 1942 493
491 1963 628
489 1975 770
489 1970 932
516 2022 1117
555 2078 1316
619 2167 1521
660 2218 1681
694 2256 1835
734 2304 1998
783 2362 2172
833 2412 2345
905 2474 2537
1002 2545 2735
1109 2620 2924
1224 2692 3104
557 2207 440
545 2183 583
539 2176 708
536 2188 843
534 2181 992
564 2235 1163
604 2298 1346
667 2372 1556
732 2449 1754
771 2483 1911
809 2514 2070
853 2552 2237
909 2604 2421
984 2660 2603
1081 2724 2790
1185 2790 2972
1293 2856 3150
611 2428 534
597 2410 669
590 2406 792
589 2409 917
588 2404 1051
619 2440 1207
667 2498 1381
728 2559 1580
805 2639 1801
865 2693 1989
904 2718 2148
947 2750 2315
999 2790 2489
1079 2847 2672
1168 2902 2846
1266 2960 3021
1367 3026 3199
695 2624 608
677 2611 744
672 2609 868
677 2614 987
676 2613 1111
690 2622 1252
747 2675 1420
806 2729 1601
876 2800 1828
957 2883 2059
1010 2932 2236
1055 2962 2399
1110 2995 2562
1177 3032 2727
1263 3082 2902
1350 3136 3076
1441 3203 3258
797 2824 720
797 2824 826
800 2830 940
800 2839 1059
791 2821 1176
805 2825 1306
854 2874 1464
905 2932 1645
960 2990 1866
1035 3070 2111
1120 3145 2328
1177 3175 2488
1231 3197 2644
1289 3224 2801
1355 3261 2963
1437 3321 3148
1516 3387 3330
882 3028 809
883 3028 912
885 3035 1021
877 3042 1129
890 3050 1260
908 3065 1390
950 3109 1559
1004 3160 1744
1062 3211 1938
1134 3273 2164
1229 3338 2397
1301 3377 2581
1353 3400 2733
1403 3424 2890
1458 3462 3055
1516 3510 3228
1588 3581 3414
971 3265 957
975 3269 1063
978 3275 1168
992 3286 1283
1005 3294 1396
1026 3307 1520
1073 3346 1694
1129 3391 1866
1187 3438 2040
1252 3485 2229
1334 3532 2459
1420 3585 2674
1471 3614 2838
1514 3640 2997
1552 3674 3161
1601 3718 3330
1659 3775 3504
530 130 64
555 111 174
578 130 302
582 145 453
553 180 656
567 228 827
585 271 997
597 321 1171
619 363 1347
662 390 1529
711 415 1719
770 437 1933
827 468 2159
883 510 2382
941 563 2607
1005 623 2832
1101 728 3049
496 249 80
543 253 179
573 268 310
587 288 472
547 304 696
544 352 873
557 394 1038
581 436 1212
623 468 1395
674 495 1582
727 517 1784
779 539 2000
829 571 2217
879 615 2433
938 680 2643
1013 776 2849
