src/luts/Suicide_Squad_-_Rec709.3dl
# Created by Benjamin (IWLTBAP) : http://luts.iwltbap.com
# Copyright: (C) Copyright 2016 Triune Films and IWLTBAP
# Blockbuster LUTs Pack
0 256 512 768 1023
50 94 101
68 307 619
93 528 1095
293 782 1602
576 1024 2220
149 865 373
105 833 727
145 974 1125
348 1172 1632
628 1420 2292
357 1710 646
328 1806 957
362 1677 1322
512 1770 1845
759 1990 2491
635 2608 971
478 2444 1118
647 2816 1865
632 2578 2200
831 2661 2651
1023 3654 1447
1039 3621 1533
860 3711 2060
889 3520 2661
923 3345 2829
557 283 277
630 392 680
362 594 1182
531 814 1655
754 1045 2245
746 878 492
468 902 824
428 1066 1237
616 1243 1743
816 1471 2391
1041 1793 815
781 1862 968
574 1791 1460
741 1874 1999
939 2067 2599
1402 2645 1170
1233 2687 1260
748 2741 1785
813 2651 2308
978 2721 2716
1611 3716 1616
1539 3813 1712
1025 3722 1997
1048 3617 2753
1091 3409 2899
1669 559 439
1900 677 760
1936 860 1253
1764 1002 1751
1407 1220 2447
1908 1072 677
1965 1113 937
1962 1271 1407
1593 1386 2021
1138 1546 2566
2148 1876 1039
2129 1963 1201
1680 1954 1804
1076 2020 2323
1205 2115 2720
2201 2816 1439
2172 2799 1591
1859 2776 1935
1110 2761 2490
1236 2752 2791
2381 3807 1880
2332 3808 1946
2115 3908 2236
1242 3679 2717
1288 3442 2954
2642 971 835
2838 1071 1050
3059 1242 1445
3137 1382 1803
2722 1459 2532
2897 1413 1029
2948 1413 1209
3107 1586 1600
3108 1734 2058
2757 1808 2836
3280 2026 1319
3248 2108 1425
2934 2255 2022
2865 2264 2498
2409 2344 3137
3190 3047 1716
3180 3083 1801
3084 3079 2254
2839 3048 2669
2240 3048 3232
3265 3854 2114
3254 3855 2239
3240 3840 2551
2974 3919 2731
2039 3664 3302
3751 1396 1219
3834 1432 1363
3978 1567 1701
3977 1649 2127
3885 1784 2921
3914 1803 1368
3921 1742 1481
3994 1891 1886
3961 2011 2402
3914 2130 3095
3897 2358 1555
3898 2430 1654
3934 2482 2231
3924 2606 2673
3877 2594 3164
3835 2971 1802
3843 2999 1880
3916 3170 2425
3965 3311 2812
3923 3244 3126
3778 3939 2278
3786 3922 2335
3890 3937 2669
3987 3979 2947
4005 3949 3201
