src/luts/Suicide_Squad_-_Rec709.3dl
# Created by Benjamin (IWLTBAP) : http://luts.iwltbap.com
# Copyright: (C) Copyright 2016 Triune Films and IWLTBAP
# Blockbuster LUTs Pack
0 128 256 384 512 640 768 896 1023
50 94 101
55 156 341
68 307 619
69 393 851
93 528 1095
169 665 1337
293 782 1602
425 897 1892
576 1024 2220
74 432 213
62 427 428
73 520 637
78 610 860
110 735 1108
214 857 1344
304 969 1617
443 1090 1924
604 1219 2264
149 865 373
114 892 543
105 833 727
107 882 913
145 974 1125
224 1071 1346
348 1172 1632
494 1290 1949
628 1420 2292
237 1294 503
235 1307 617
189 1344 871
183 1245 1012
238 1279 1186
342 1362 1438
453 1452 1726
578 1553 2039
678 1666 2360
357 1710 646
362 1690 720
328 1806 957
347 1776 1185
362 1677 1322
417 1692 1546
512 1770 1845
627 1871 2166
759 1990 2491
515 2149 795
491 2072 857
424 2149 1036
504 2340 1379
504 2225 1585
526 2131 1750
585 2142 1992
684 2221 2299
815 2327 2591
635 2608 971
596 2528 1012
478 2444 1118
531 2631 1440
647 2816 1865
603 2647 2033
632 2578 2200
733 2593 2437
831 2661 2651
757 2965 1139
736 2964 1196
557 2740 1230
607 2921 1539
672 3136 1962
732 3166 2334
750 3020 2423
792 2982 2553
853 2984 2722
1023 3654 1447
1054 3682 1485
1039 3621 1533
873 3683 1746
860 3711 2060
877 3666 2527
889 3520 2661
863 3392 2712
923 3345 2829
109 114 118
124 199 374
113 328 638
128 420 875
197 545 1116
296 674 1354
393 790 1616
526 908 1906
658 1036 2234
180 456 252
140 449 448
127 565 689
149 653 909
233 771 1141
322 889 1377
426 995 1652
547 1113 1956
687 1239 2295
309 917 398
249 909 542
191 862 762
206 925 957
259 1016 1166
351 1108 1396
472 1204 1680
596 1316 1994
713 1442 2335
448 1371 537
393 1344 643
294 1378 870
295 1294 1057
369 1334 1247
462 1416 1507
558 1500 1792
672 1594 2101
762 1702 2413
551 1781 677
507 1797 753
402 1763 923
431 1849 1218
444 1741 1387
515 1755 1624
621 1831 1928
719 1926 2243
850 2044 2558
785 2208 873
735 2268 911
557 2099 1009
546 2283 1325
578 2304 1634
612 2190 1818
666 2205 2069
767 2276 2367
886 2379 2636
959 2655 1058
901 2653 1074
641 2502 1133
573 2567 1389
695 2804 1848
685 2694 2085
712 2613 2249
807 2638 2481
897 2702 2687
1093 3034 1224
1055 3035 1254
846 2950 1318
653 2884 1502
710 3081 1903
805 3198 2376
818 3062 2463
853 3012 2583
917 3020 2756
1299 3690 1525
1280 3702 1548
1202 3693 1585
1093 3676 1752
908 3715 2015
931 3677 2491
957 3569 2706
945 3429 2748
1007 3382 2866
557 283 277
624 317 453
630 392 680
437 488 942
362 594 1182
443 708 1406
531 814 1655
639 924 1935
754 1045 2245
672 516 364
617 534 525
594 611 749
347 704 983
384 811 1198
475 914 1421
565 1013 1678
661 1121 1966
780 1245 2301
746 878 492
696 894 625
468 902 824
343 973 1018
428 1066 1237
515 1157 1474
616 1243 1743
718 1347 2053
816 1471 2391
866 1304 650
833 1359 730
528 1399 871
434 1335 1111
510 1378 1310
587 1451 1564
673 1517 1830
770 1597 2125
850 1700 2436
1041 1793 815
1018 1834 876
781 1862 968
542 1873 1233
574 1791 1460
650 1805 1704
741 1874 1999
825 1959 2302
939 2067 2599
1268 2220 1000
1230 2250 1043
1054 2306 1102
618 2238 1282
679 2371 1699
714 2239 1890
763 2249 2139
864 2308 2418
969 2402 2665
1402 2645 1170
1358 2651 1201
1233 2687 1260
717 2591 1373
748 2741 1785
787 2749 2153
813 2651 2308
898 2664 2518
978 2721 2716
1502 3070 1342
1475 3042 1367
1391 3110 1431
953 2999 1517
793 3041 1859
881 3201 2370
915 3109 2512
947 3040 2618
1019 3041 2785
1611 3716 1616
1592 3707 1628
1539 3813 1712
1338 3704 1778
1025 3722 1997
1003 3696 2428
1048 3617 2753
1035 3471 2789
1091 3409 2899
1091 415 348
1175 425 513
1276 511 722
1268 588 960
1097 678 1250
857 794 1542
745 888 1787
813 978 2030
905 1090 2322
1205 637 402
1212 672 584
1323 720 794
1284 796 1021
1049 885 1312
787 987 1572
755 1067 1788
833 1165 2053
923 1276 2356
1373 928 539
1389 953 641
1258 987 909
1161 1040 1123
773 1130 1372
721 1220 1599
793 1295 1842
868 1381 2119
945 1492 2425
1464 1328 714
1477 1360 776
1388 1385 976
900 1405 1241
701 1455 1447
773 1515 1695
842 1566 1933
913 1632 2200
990 1749 2521
1602 1800 931
1601 1816 997
1504 1833 1150
1057 1912 1298
754 1865 1577
822 1870 1823
892 1918 2086
947 1972 2342
1042 2055 2615
1720 2243 1118
1708 2250 1184
1642 2284 1297
1347 2337 1402
813 2389 1723
857 2288 1977
890 2282 2209
983 2331 2467
1077 2413 2694
1789 2674 1285
1779 2672 1342
1745 2691 1439
1574 2730 1543
857 2709 1757
904 2798 2225
935 2687 2370
1007 2678 2553
1094 2733 2743
1873 3135 1466
1865 3104 1508
1838 3121 1587
1698 3203 1692
1062 3140 1861
967 3176 2294
1048 3159 2566
1070 3066 2655
1132 3048 2809
1973 3761 1737
1945 3732 1733
1922 3812 1812
1813 3913 1972
1404 3797 2040
1087 3718 2354
1144 3658 2769
1141 3512 2834
1186 3430 2929
1669 559 439
1759 573 566
1900 677 760
2034 786 996
1936 860 1253
1812 915 1484
1764 1002 1751
1616 1102 2079
1407 1220 2447
1760 772 541
1847 805 629
1993 871 837
2088 981 1071
1980 1056 1312
1845 1108 1541
1770 1187 1833
1548 1285 2196
1262 1372 2521
1908 1072 677
1948 1095 735
1965 1113 937
2031 1210 1189
1962 1271 1407
1820 1312 1661
1593 1386 2021
1195 1451 2311
1138 1546 2566
2062 1376 819
2098 1409 874
2068 1461 1028
1891 1524 1374
1871 1538 1566
1593 1587 1887
1193 1659 2190
1103 1728 2420
1178 1820 2669
2148 1876 1039
2158 1913 1089
2129 1963 1201
2019 1970 1433
1680 1954 1804
1259 1985 2090
1076 2020 2323
1133 2053 2518
1205 2115 2720
2190 2379 1281
2198 2404 1326
2162 2424 1424
2035 2381 1612
1695 2418 1848
1023 2403 2155
1068 2377 2391
1162 2392 2590
1228 2434 2755
2201 2816 1439
2203 2830 1477
2172 2799 1591
2099 2771 1746
1859 2776 1935
1134 2848 2296
1110 2761 2490
1173 2724 2638
1236 2752 2791
2258 3252 1609
2256 3256 1649
2226 3216 1747
2186 3222 1894
1997 3277 2052
1211 3232 2293
1190 3219 2629
1208 3096 2704
1258 3061 2845
2381 3807 1880
2355 3790 1891
2332 3808 1946
2271 3858 2090
2115 3908 2236
1462 3865 2385
1242 3679 2717
1256 3553 2882
1288 3442 2954
2165 743 618
2221 757 712
2416 868 882
2519 968 1089
2656 1086 1318
2611 1130 1478
2479 1169 1711
2341 1221 2006
2252 1341 2401
2265 937 705
2333 963 779
2497 1049 978
2588 1147 1174
2688 1253 1381
2638 1307 1549
2481 1353 1799
2331 1415 2116
2268 1511 2568
2423 1226 840
2435 1245 884
2495 1251 1042
2578 1362 1274
2674 1454 1468
2613 1515 1669
2411 1549 1942
2316 1603 2289
2050 1674 2808
2625 1522 999
2631 1554 1042
2568 1623 1148
2497 1675 1426
2573 1743 1661
2515 1776 1881
2352 1780 2160
2143 1837 2632
1476 1844 2873
2713 1898 1170
2727 1938 1222
2687 1989 1312
2574 2066 1540
2404 2100 1935
2383 2079 2126
2161 2104 2510
1564 2136 2790
1412 2206 2915
2656 2462 1399
2650 2499 1443
2628 2552 1536
2572 2572 1719
2471 2535 1980
2249 2502 2337
1971 2516 2673
1458 2533 2837
1420 2546 2938
2629 2937 1604
2648 2961 1644
2657 2981 1708
2590 2945 1908
2463 2874 2139
2218 2894 2379
1793 2887 2718
1400 2861 2844
1418 2852 2968
2707 3348 1761
2708 3363 1794
2680 3348 1903
2620 3314 2073
2553 3295 2275
2345 3338 2401
1556 3334 2766
1363 3212 2864
1418 3154 3005
2841 3838 1998
2834 3841 2025
2798 3828 2101
2761 3839 2256
2714 3876 2383
2502 3914 2469
1654 3821 2748
1383 3651 2985
1418 3510 3059
2642 971 835
2683 983 913
2838 1071 1050
2981 1180 1268
3059 1242 1445
3189 1341 1638
3137 1382 1803
2973 1411 2077
2722 1459 2532
2736 1146 916
2775 1162 988
2911 1235 1139
3042 1333 1336
3099 1397 1507
3217 1500 1705
3153 1542 1905
2944 1592 2244
2747 1635 2654
2897 1413 1029
2888 1417 1062
2948 1413 1209
3033 1512 1423
3107 1586 1600
3195 1680 1803
3108 1734 2058
2861 1769 2426
2757 1808 2836
3136 1710 1189
3109 1733 1228
3043 1786 1318
3003 1804 1552
3066 1877 1778
3118 1942 1986
2986 1978 2299
2787 1960 2607
2604 2032 2997
3280 2026 1319
3301 2059 1362
3248 2108 1425
3085 2224 1669
2934 2255 2022
2953 2282 2248
2865 2264 2498
2701 2268 2828
2409 2344 3137
3311 2458 1482
3300 2488 1517
3255 2526 1570
3177 2568 1811
3020 2635 2126
2871 2665 2416
2836 2633 2586
2643 2673 2891
2220 2678 3186
3190 3047 1716
3191 3064 1752
3180 3083 1801
3149 3086 2014
3084 3079 2254
3038 3057 2467
2839 3048 2669
2598 3048 2920
2240 3048 3232
3194 3449 1916
3208 3459 1949
3216 3467 2001
3178 3433 2230
3102 3392 2435
3054 3389 2569
2809 3452 2720
2560 3369 2984
2239 3345 3255
3265 3854 2114
3265 3857 2142
3254 3855 2239
3239 3837 2424
3240 3840 2551
3236 3876 2666
2974 3919 2731
2344 3790 3111
2039 3664 3302
3148 1204 1054
3160 1211 1123
3302 1259 1221
3530 1349 1402
3589 1403 1574
3651 1456 1742
3699 1541 2017
3588 1578 2318
3337 1629 2722
3256 1353 1114
3272 1366 1183
3370 1398 1280
3589 1486 1463
3638 1554 1646
3681 1613 1820
3706 1697 2122
3584 1759 2455
3380 1801 2837
3463 1607 1211
3441 1603 1251
3443 1562 1330
3594 1656 1546
3644 1741 1744
3665 1803 1938
3673 1891 2267
3531 1940 2617
3370 1959 2941
3675 1897 1341
3650 1914 1373
3611 1931 1454
3558 1923 1681
3592 1991 1903
3609 2066 2126
3558 2129 2460
3458 2145 2760
3264 2137 3046
3747 2195 1455
3732 2219 1486
3690 2265 1537
3618 2373 1819
3538 2366 2107
3538 2433 2332
3487 2457 2584
3426 2436 2845
3192 2457 3113
3739 2525 1576
3738 2543 1610
3723 2579 1661
3691 2664 1938
3578 2792 2251
3497 2813 2494
3481 2824 2649
3406 2767 2864
3207 2816 3099
3693 2987 1766
3696 2997 1797
3696 3008 1842
3684 3040 2073
3656 3081 2344
3624 3166 2566
3480 3184 2748
3438 3151 2853
3341 3205 3112
3617 3554 2031
3618 3545 2053
3621 3540 2089
3634 3540 2279
3659 3545 2513
3671 3561 2644
3635 3544 2805
3509 3529 2937
3417 3546 3103
3631 3892 2218
3637 3895 2248
3650 3893 2338
3679 3881 2522
3696 3873 2662
3692 3871 2794
3687 3894 2905
3532 3935 3001
3458 3838 3209
3751 1396 1219
3763 1399 1279
3834 1432 1363
3957 1499 1507
3978 1567 1701
3985 1615 1872
3977 1649 2127
3939 1745 2595
3885 1784 2921
3820 1536 1274
3835 1546 1340
3866 1558 1424
3983 1634 1582
3991 1720 1785
3991 1772 1982
3980 1810 2244
3952 1921 2708
3924 1962 3019
3914 1803 1368
3910 1779 1407
3921 1742 1481
3986 1800 1675
3994 1891 1886
3984 1952 2116
3961 2011 2402
3943 2097 2803
3914 2130 3095
3936 2088 1475
3937 2105 1511
3943 2105 1585
3962 2069 1809
3970 2116 2022
3959 2207 2299
3920 2264 2566
3930 2318 2874
3895 2331 3142
3897 2358 1555
3897 2386 1591
3898 2430 1654
3931 2509 1964
3934 2482 2231
3966 2538 2397
3924 2606 2673
3940 2616 2905
3877 2594 3164
3860 2649 1664
3862 2671 1701
3864 2710 1759
3892 2794 2049
3933 2926 2363
3969 2919 2537
3962 2966 2712
3964 2964 2902
3890 2910 3149
3835 2971 1802
3839 2981 1833
3843 2999 1880
3868 3065 2106
3916 3170 2425
3982 3317 2653
3965 3311 2812
3981 3305 2912
3923 3244 3126
3801 3455 2020
3807 3454 2049
3815 3449 2088
3841 3450 2235
3907 3487 2520
3964 3549 2681
3997 3652 2875
3979 3650 3015
3991 3618 3109
3778 3939 2278
3781 3931 2303
3786 3922 2335
3815 3912 2494
3890 3937 2669
3955 3963 2837
3987 3979 2947
3999 3973 3075
4005 3949 3201
