src/luts/Suicide_Squad_-_Rec709.3dl
# Created by Benjamin (IWLTBAP) : http://luts.iwltbap.com
# Copyright: (C) Copyright 2016 Triune Films and IWLTBAP
# Blockbuster LUTs Pack
0 64 128 192 256 320 384 448 512 576 640 704 768 832 896 960 1023
50 94 101
47 105 193
55 156 341
60 243 497
68 307 619
71 354 736
69 393 851
76 454 971
93 528 1095
113 598 1217
169 665 1337
231 725 1463
293 782 1602
356 839 1743
425 897 1892
501 960 2054
576 1024 2220
62 230 119
52 222 235
58 275 369
62 346 510
69 409 627
71 458 741
70 500 854
80 561 975
100 630 1100
129 696 1220
190 758 1340
250 816 1469
300 872 1608
354 932 1753
430 993 1906
511 1056 2071
587 1121 2241
74 432 213
68 437 308
62 427 428
69 468 535
73 520 637
75 567 746
78 610 860
91 669 984
110 735 1108
153 798 1226
214 857 1344
258 912 1474
304 969 1617
371 1029 1766
443 1090 1924
526 1154 2094
604 1219 2264
101 648 293
96 653 369
82 642 503
83 630 583
87 659 674
88 696 772
91 732 877
104 784 992
127 847 1113
173 907 1228
218 963 1344
261 1015 1478
318 1069 1622
390 1127 1774
466 1189 1936
543 1253 2108
618 1318 2280
149 865 373
145 862 427
114 892 543
107 851 653
105 833 727
104 846 813
107 882 913
116 927 1018
145 974 1125
183 1023 1232
224 1071 1346
276 1121 1484
348 1172 1632
423 1229 1785
494 1290 1949
563 1353 2121
628 1420 2292
195 1081 438
194 1075 481
163 1100 575
124 1128 706
116 1062 799
114 1035 868
119 1044 951
144 1080 1048
179 1123 1152
216 1168 1259
270 1213 1385
337 1257 1526
401 1301 1668
464 1350 1816
528 1405 1976
587 1462 2139
646 1527 2307
237 1294 503
241 1291 542
235 1307 617
214 1356 742
189 1344 871
177 1275 950
183 1245 1012
202 1247 1088
238 1279 1186
287 1318 1299
342 1362 1438
399 1407 1582
453 1452 1726
512 1502 1880
578 1553 2039
629 1609 2201
678 1666 2360
327 1502 580
334 1498 619
329 1500 670
306 1550 784
276 1611 934
271 1555 1031
266 1490 1098
283 1458 1158
311 1455 1235
348 1482 1352
388 1519 1489
436 1560 1634
487 1607 1786
548 1657 1943
612 1710 2107
664 1766 2270
719 1827 2427
357 1710 646
366 1702 683
362 1690 720
342 1733 823
328 1806 957
351 1853 1112
347 1776 1185
345 1711 1248
362 1677 1322
386 1669 1418
417 1692 1546
462 1727 1692
512 1770 1845
570 1821 2005
627 1871 2166
686 1927 2331
759 1990 2491
403 1911 715
406 1899 749
398 1883 784
393 1903 863
373 1983 993
409 2068 1160
435 2093 1284
415 2003 1363
409 1936 1441
427 1901 1523
453 1891 1624
496 1911 1761
543 1947 1911
593 1991 2067
650 2041 2230
724 2097 2394
801 2157 2551
515 2149 795
516 2126 823
491 2072 857
465 2066 913
424 2149 1036
453 2231 1190
504 2340 1379
514 2327 1492
504 2225 1585
503 2159 1661
526 2131 1750
551 2124 1858
585 2142 1992
628 2175 2141
684 2221 2299
755 2271 2456
815 2327 2591
579 2395 885
578 2385 903
547 2272 929
508 2223 967
450 2302 1074
484 2382 1225
512 2500 1413
538 2595 1606
542 2539 1712
538 2440 1802
546 2379 1877
565 2361 1974
592 2360 2091
632 2373 2220
696 2405 2365
763 2448 2504
817 2494 2620
635 2608 971
636 2611 990
596 2528 1012
521 2394 1029
478 2444 1118
499 2532 1267
531 2631 1440
597 2760 1674
647 2816 1865
632 2738 1966
603 2647 2033
601 2594 2099
632 2578 2200
677 2584 2323
733 2593 2437
786 2622 2546
831 2661 2651
698 2785 1049
696 2784 1072
667 2760 1104
557 2596 1105
496 2571 1165
522 2661 1313
566 2747 1477
627 2872 1701
663 2993 1937
666 2994 2114
672 2913 2189
687 2833 2247
709 2788 2311
739 2783 2405
771 2788 2499
810 2799 2590
848 2821 2685
757 2965 1139
755 2981 1163
736 2964 1196
645 2848 1202
557 2740 1230
578 2827 1371
607 2921 1539
630 3025 1730
672 3136 1962
711 3198 2226
732 3166 2334
743 3086 2383
750 3020 2423
768 2984 2476
792 2982 2553
818 2976 2635
853 2984 2722
903 3356 1308
914 3392 1333
840 3296 1315
773 3202 1325
720 3163 1355
683 3233 1463
674 3312 1617
731 3365 1786
788 3402 2031
792 3434 2275
823 3407 2469
825 3348 2520
814 3268 2538
810 3211 2570
825 3180 2623
848 3171 2691
874 3158 2768
1023 3654 1447
1042 3681 1471
1054 3682 1485
1047 3663 1491
1039 3621 1533
975 3653 1634
873 3683 1746
816 3705 1874
860 3711 2060
847 3687 2323
877 3666 2527
892 3588 2634
889 3520 2661
869 3446 2676
863 3392 2712
885 3363 2764
923 3345 2829
69 100 105
70 111 211
78 167 344
81 249 501
88 314 624
92 364 742
92 403 858
101 463 979
121 536 1105
174 604 1227
234 670 1347
288 732 1473
343 788 1609
405 844 1751
478 904 1900
548 966 2061
619 1031 2230
79 236 135
72 233 246
78 295 387
84 364 526
91 425 640
95 473 755
97 515 868
107 575 991
134 642 1113
194 707 1232
254 770 1353
307 829 1483
353 885 1622
415 943 1768
486 1004 1921
561 1066 2086
632 1130 2256
93 449 236
89 437 308
82 438 440
90 483 551
97 536 655
100 586 766
103 629 882
120 688 1003
167 752 1125
225 814 1243
273 873 1362
312 927 1493
365 983 1636
430 1040 1783
498 1102 1942
575 1164 2111
647 1229 2280
146 685 313
124 672 381
102 659 499
104 642 597
109 677 693
110 716 795
115 755 902
148 805 1012
196 865 1130
234 924 1246
271 979 1363
321 1030 1500
384 1083 1644
449 1141 1795
520 1201 1957
591 1263 2129
661 1329 2301
217 909 387
207 893 450
165 884 533
138 868 662
136 849 744
131 868 835
146 907 936
178 952 1041
208 998 1147
238 1045 1254
284 1091 1369
345 1138 1508
411 1187 1654
480 1242 1806
546 1303 1971
610 1366 2142
672 1431 2312
244 1128 444
245 1106 506
223 1092 570
168 1134 692
158 1083 812
156 1058 889
173 1069 972
199 1106 1071
233 1149 1176
283 1194 1288
343 1238 1419
403 1281 1558
462 1324 1699
522 1371 1846
580 1422 2003
635 1478 2164
685 1537 2327
315 1334 514
312 1313 564
298 1300 611
270 1341 728
243 1370 878
226 1298 964
237 1271 1034
264 1274 1114
306 1307 1216
354 1347 1334
406 1391 1474
456 1434 1616
508 1480 1762
566 1528 1916
627 1578 2074
673 1633 2235
722 1688 2390
387 1536 586
393 1516 633
390 1499 678
359 1533 773
314 1599 912
315 1589 1040
316 1515 1115
338 1487 1184
366 1485 1266
399 1513 1388
438 1550 1525
486 1592 1672
537 1638 1825
600 1686 1983
659 1739 2146
707 1793 2307
765 1856 2464
406 1743 650
413 1727 689
414 1702 740
397 1713 811
356 1784 935
376 1855 1103
384 1813 1200
382 1738 1267
402 1710 1354
426 1704 1453
460 1725 1584
513 1759 1733
567 1803 1888
621 1851 2047
673 1901 2207
734 1958 2370
806 2022 2529
493 1967 729
494 1963 758
473 1909 806
448 1887 856
408 1960 977
433 2042 1135
475 2114 1296
465 2042 1387
454 1964 1467
481 1935 1562
510 1927 1668
549 1945 1803
594 1981 1954
640 2024 2109
697 2074 2271
770 2129 2432
840 2189 2582
621 2186 823
614 2206 847
588 2156 880
532 2067 918
477 2121 1017
471 2204 1164
524 2315 1355
546 2359 1509
543 2263 1608
544 2187 1688
568 2162 1785
594 2162 1901
626 2176 2033
667 2209 2181
725 2252 2335
796 2301 2489
850 2356 2615
686 2418 913
674 2435 933
647 2420 954
575 2265 987
501 2272 1057
496 2362 1204
535 2464 1380
564 2585 1597
580 2574 1734
570 2472 1826
577 2404 1902
594 2385 2000
625 2393 2130
673 2405 2258
737 2432 2398
800 2475 2529
851 2519 2640
761 2633 1005
753 2631 1016
722 2623 1039
619 2506 1065
516 2419 1104
513 2509 1245
547 2597 1409
608 2726 1640
672 2819 1865
673 2765 1989
642 2669 2056
637 2609 2120
670 2596 2224
718 2608 2352
770 2618 2461
819 2645 2567
863 2682 2670
828 2812 1086
818 2809 1098
783 2797 1124
704 2744 1157
541 2568 1160
536 2632 1290
585 2720 1460
638 2833 1666
684 2963 1897
689 3004 2129
700 2939 2209
719 2854 2269
740 2804 2330
769 2799 2421
802 2811 2520
839 2819 2608
876 2842 2702
904 3002 1176
898 3006 1192
864 3010 1217
784 2961 1250
627 2772 1242
599 2803 1348
626 2899 1521
650 2997 1702
686 3107 1932
736 3196 2190
766 3183 2355
779 3111 2409
781 3041 2442
797 3000 2492
820 2997 2567
847 2996 2653
881 3004 2740
1039 3364 1337
1047 3397 1361
1034 3445 1388
923 3284 1369
823 3187 1378
759 3215 1457
706 3299 1600
751 3354 1771
806 3396 1986
809 3423 2243
850 3427 2470
854 3369 2539
845 3293 2558
839 3230 2587
853 3194 2638
876 3187 2706
908 3177 2784
1150 3675 1483
1146 3687 1497
1130 3701 1512
1130 3691 1521
1116 3653 1557
1074 3646 1634
973 3678 1748
855 3702 1863
880 3714 2031
871 3695 2278
900 3670 2513
921 3615 2649
921 3545 2683
907 3468 2696
900 3411 2730
921 3377 2779
963 3366 2849
109 114 118
113 118 234
124 199 374
117 265 510
113 328 638
119 379 759
128 420 875
155 478 995
197 545 1116
244 609 1234
296 674 1354
344 735 1480
393 790 1616
455 849 1758
526 908 1906
593 971 2066
658 1036 2234
133 252 160
116 260 266
134 316 401
120 375 538
116 441 663
128 489 777
139 531 889
170 587 1005
210 649 1123
258 712 1239
308 775 1359
355 834 1488
409 890 1628
469 948 1774
535 1009 1927
604 1071 2093
670 1136 2262
180 456 252
176 443 331
140 449 448
119 508 577
127 565 689
137 611 797
149 653 909
187 710 1025
233 771 1141
283 832 1259
322 889 1377
370 941 1510
426 995 1652
485 1052 1798
547 1113 1956
621 1174 2125
687 1239 2295
264 685 330
243 678 410
176 662 500
136 660 619
151 695 715
155 732 815
174 772 921
218 829 1038
253 888 1154
284 943 1268
331 997 1388
388 1047 1526
445 1098 1669
506 1154 1818
572 1214 1980
639 1276 2152
702 1340 2323
309 917 398
294 917 471
249 909 542
191 890 665
191 862 762
189 884 855
206 925 957
231 970 1060
259 1016 1166
298 1061 1275
351 1108 1396
410 1156 1536
472 1204 1680
534 1257 1831
596 1316 1994
657 1378 2166
713 1442 2335
373 1153 463
353 1154 521
311 1134 587
223 1126 680
204 1104 824
207 1076 907
224 1090 994
256 1129 1095
300 1172 1203
350 1215 1318
405 1257 1448
460 1297 1583
515 1338 1721
573 1384 1868
627 1434 2024
677 1488 2184
725 1549 2350
448 1371 537
423 1385 575
393 1344 643
338 1326 721
294 1378 870
281 1325 982
295 1294 1057
328 1300 1142
369 1334 1247
415 1373 1369
462 1416 1507
509 1457 1647
558 1500 1792
614 1545 1943
672 1594 2101
714 1645 2257
762 1702 2413
500 1572 605
478 1592 634
466 1556 706
431 1518 767
366 1582 894
356 1615 1048
365 1543 1135
389 1515 1211
416 1514 1298
447 1542 1423
486 1579 1560
535 1618 1707
587 1662 1859
649 1709 2017
702 1759 2177
749 1813 2336
807 1875 2492
551 1781 677
533 1803 702
507 1797 753
469 1713 817
402 1763 923
400 1840 1081
431 1849 1218
422 1769 1291
444 1741 1387
474 1735 1490
515 1755 1624
568 1788 1773
621 1831 1928
671 1877 2084
719 1926 2243
780 1983 2405
850 2044 2558
675 1994 775
667 2018 797
638 2050 828
553 1934 881
481 1933 964
453 2017 1109
509 2112 1292
519 2084 1415
506 1996 1499
534 1965 1599
564 1961 1712
601 1976 1844
643 2010 1994
687 2051 2146
743 2101 2307
814 2154 2465
877 2213 2606
785 2208 873
771 2233 892
735 2268 911
671 2207 954
557 2099 1009
498 2182 1146
546 2283 1325
579 2377 1519
578 2304 1634
587 2218 1719
612 2190 1818
638 2194 1941
666 2205 2069
707 2234 2213
767 2276 2367
836 2324 2516
886 2379 2636
865 2441 966
848 2458 982
810 2465 990
741 2442 1027
587 2284 1060
517 2339 1181
560 2429 1351
591 2558 1574
623 2601 1758
613 2507 1856
613 2430 1931
634 2407 2030
667 2419 2165
716 2426 2289
781 2453 2425
839 2494 2548
886 2540 2659
959 2655 1058
940 2656 1067
901 2653 1074
822 2633 1110
641 2502 1133
535 2481 1219
573 2567 1389
626 2687 1606
695 2804 1848
711 2789 2016
685 2694 2085
680 2628 2147
712 2613 2249
760 2631 2380
807 2638 2481
854 2663 2585
897 2702 2687
1027 2836 1135
1011 2835 1144
979 2827 1159
910 2802 1195
736 2708 1221
567 2610 1271
608 2693 1444
657 2793 1633
709 2927 1866
718 3005 2127
731 2964 2233
754 2876 2292
775 2822 2351
803 2815 2440
836 2830 2539
871 2836 2625
906 2858 2719
1093 3034 1224
1083 3035 1236
1055 3035 1254
995 3030 1289
846 2950 1318
651 2808 1338
653 2884 1502
677 2978 1683
710 3081 1903
761 3177 2154
805 3198 2376
817 3139 2433
818 3062 2463
831 3018 2511
853 3012 2583
881 3016 2672
917 3020 2756
1197 3366 1371
1199 3400 1394
1187 3464 1427
1137 3496 1445
999 3299 1437
877 3216 1464
775 3288 1587
783 3349 1758
832 3390 1951
839 3417 2215
880 3438 2447
897 3392 2559
886 3320 2582
874 3250 2606
890 3211 2654
917 3205 2723
950 3192 2800
1299 3690 1525
1295 3692 1534
1280 3702 1548
1228 3713 1558
1202 3693 1585
1181 3657 1644
1093 3676 1752
935 3700 1862
908 3715 2015
907 3705 2234
931 3677 2491
955 3644 2659
957 3569 2706
949 3493 2721
945 3429 2748
965 3392 2797
1007 3382 2866
321 196 201
353 210 293
377 248 406
359 299 538
301 357 660
243 407 787
220 445 904
245 503 1022
275 565 1140
315 625 1254
360 684 1370
405 741 1492
454 797 1626
510 853 1766
575 912 1913
640 974 2071
702 1040 2237
354 319 256
347 324 326
378 351 441
355 406 567
291 465 686
226 510 808
228 554 922
255 610 1035
287 668 1148
326 726 1259
370 784 1374
419 840 1499
471 895 1635
527 951 1778
587 1012 1929
651 1074 2094
