src/luts/The_Ring_-_Rec709.3dl
# Created by Benjamin (IWLTBAP) : http://luts.iwltbap.com
# Copyright: (C) Copyright 2016 Triune Films and IWLTBAP
# Blockbuster LUTs Pack
0 128 256 384 512 640 768 896 1023
0 0 0
0 1 79
0 31 249
0 113 530
0 249 838
0 406 1178
0 575 1545
0 752 1916
0 942 2313
0 112 1
0 169 153
0 236 392
0 324 670
0 441 969
0 573 1296
0 720 1637
0 890 2017
0 1067 2403
0 436 46
0 502 252
0 578 537
0 665 835
0 761 1154
0 874 1486
0 1008 1833
0 1146 2202
0 1315 2589
0 829 147
0 889 370
0 973 667
0 1064 1001
0 1160 1339
0 1262 1688
0 1391 2051
0 1513 2424
0 1657 2818
0 1258 304
0 1316 511
0 1411 808
0 1507 1148
0 1616 1520
0 1720 1886
0 1835 2275
0 1963 2667
0 2087 3055
0 1734 478
0 1794 662
0 1880 958
0 1986 1308
0 2093 1681
0 2207 2077
0 2329 2483
0 2442 2887
0 2580 3310
0 2265 677
0 2293 835
0 2385 1115
0 2491 1462
0 2614 1860
0 2728 2267
0 2851 2679
0 2992 3128
0 3111 3547
0 2811 881
0 2850 1031
0 2918 1288
0 3030 1638
0 3160 2040
0 3280 2456
0 3412 2893
0 3540 3337
0 3671 3791
0 3385 1086
0 3414 1225
0 3489 1478
0 3603 1819
0 3733 2226
0 3863 2653
0 3994 3097
0 4094 3551
0 4095 4023
66 0 0
109 1 111
106 42 330
53 118 600
50 250 897
50 409 1233
50 570 1579
50 752 1959
50 942 2358
78 125 13
80 170 168
57 250 432
50 338 712
50 446 1004
50 583 1334
50 730 1679
50 892 2057
50 1077 2444
50 434 55
50 506 256
50 591 552
50 674 858
50 768 1172
50 882 1502
50 1012 1856
50 1158 2225
50 1317 2617
50 820 159
50 890 374
50 977 678
50 1075 1007
50 1167 1354
50 1272 1707
50 1392 2065
50 1517 2438
50 1663 2837
50 1269 316
50 1315 512
50 1410 806
50 1510 1156
50 1612 1520
50 1721 1893
50 1833 2275
50 1959 2672
50 2087 3071
50 1742 484
50 1790 663
50 1884 963
50 1994 1314
50 2100 1687
50 2212 2082
50 2332 2488
50 2460 2908
50 2577 3316
50 2258 669
50 2309 843
50 2388 1117
50 2494 1472
50 2618 1866
50 2737 2267
50 2854 2692
50 2982 3119
50 3112 3559
50 2810 881
50 2843 1022
50 2920 1291
50 3038 1649
50 3160 2032
50 3285 2457
50 3421 2904
50 3540 3337
50 3681 3792
50 3385 1086
50 3415 1238
50 3499 1489
50 3603 1831
50 3733 2220
50 3863 2655
50 3994 3096
50 4094 3552
50 4095 4023
235 2 2
358 17 164
406 56 419
414 134 701
338 264 997
149 419 1328
100 579 1678
100 756 2049
100 944 2446
273 152 17
348 209 210
391 271 479
379 354 765
294 461 1084
121 590 1409
100 736 1755
100 904 2129
100 1080 2517
230 462 63
270 533 285
282 605 579
244 692 892
134 785 1217
100 895 1558
100 1019 1903
100 1163 2278
100 1329 2665
100 849 177
101 900 389
100 992 695
100 1088 1031
100 1178 1380
100 1288 1737
100 1402 2101
100 1529 2481
100 1673 2878
100 1275 324
100 1330 526
100 1425 826
100 1523 1173
100 1625 1539
100 1728 1914
100 1850 2307
100 1966 2700
100 2105 3106
100 1747 496
100 1803 677
100 1891 967
100 1999 1322
100 2110 1704
100 2220 2097
100 2340 2506
100 2456 2916
100 2587 3342
100 2262 683
100 2306 848
100 2391 1128
100 2504 1481
100 2628 1877
100 2741 2283
100 2871 2713
100 2994 3144
100 3118 3577
100 2815 885
100 2849 1039
100 2940 1304
100 3044 1648
100 3167 2048
100 3291 2474
100 3424 2906
100 3559 3359
100 3685 3808
100 3387 1101
100 3429 1239
100 3503 1492
100 3614 1832
100 3734 2230
100 3871 2662
100 4006 3102
100 4095 3569
100 4095 4037
501 29 17
644 45 215
740 88 506
789 173 805
800 293 1119
758 438 1443
635 598 1796
341 771 2176
151 959 2560
542 186 33
645 243 252
730 311 549
783 385 856
786 487 1172
740 609 1506
603 758 1866
273 918 2235
151 1096 2621
565 494 88
630 564 326
697 636 625
733 713 942
730 809 1279
662 914 1633
473 1042 1993
201 1186 2364
151 1336 2751
488 875 203
522 932 425
564 1019 733
578 1107 1072
532 1200 1420
394 1308 1786
200 1426 2160
151 1545 2541
151 1690 2939
183 1303 352
192 1355 546
192 1440 850
187 1540 1204
161 1646 1573
151 1758 1956
151 1861 2343
151 1988 2745
151 2123 3154
151 1776 519
151 1818 694
151 1911 992
151 2017 1348
151 2128 1731
151 2243 2132
151 2353 2535
151 2472 2947
151 2601 3373
151 2286 699
151 2321 865
151 2415 1147
151 2524 1504
151 2636 1890
151 2760 2309
151 2889 2740
151 3004 3163
151 3134 3603
151 2833 901
151 2862 1053
151 2945 1317
151 3060 1670
151 3179 2063
151 3309 2492
151 3436 2924
151 3565 3376
151 3697 3831
151 3402 1113
151 3441 1254
151 3514 1505
151 3620 1844
151 3747 2243
151 3880 2676
151 4019 3124
151 4095 3584
151 4095 4054
809 72 43
954 101 279
1068 145 583
1155 227 905
1209 333 1235
1232 472 1577
1210 625 1939
1131 794 2311
960 982 2704
840 243 62
965 300 308
1073 360 613
1156 439 944
1206 532 1276
1219 646 1619
1206 789 1985
1114 939 2357
926 1112 2752
880 539 124
966 605 368
1065 676 678
1140 752 1018
1179 842 1361
1197 951 1723
1162 1070 2086
1066 1205 2467
855 1365 2864
882 908 240
936 970 459
1010 1049 771
1075 1143 1119
1102 1230 1478
1106 1336 1848
1056 1451 2234
920 1573 2621
597 1715 3025
773 1331 381
808 1381 579
861 1474 884
903 1567 1241
917 1675 1618
881 1774 2004
764 1891 2402
500 2006 2804
241 2134 3216
373 1798 548
381 1847 722
396 1934 1019
396 2041 1378
340 2154 1769
295 2268 2174
235 2373 2577
201 2497 3000
201 2622 3429
201 2305 726
201 2347 891
201 2431 1166
201 2546 1529
201 2660 1923
201 2786 2345
201 2903 2769
201 3023 3203
201 3159 3646
201 2849 924
201 2885 1069
201 2966 1338
201 3078 1688
201 3198 2088
201 3324 2517
201 3458 2960
201 3580 3407
201 3725 3873
201 3426 1133
201 3456 1272
201 3534 1525
201 3642 1868
201 3765 2266
201 3895 2691
201 4033 3152
201 4095 3610
201 4095 4083
1137 145 87
1280 176 342
1421 231 664
1533 302 1002
1618 394 1352
1678 519 1709
1700 666 2072
1687 826 2454
1642 1002 2852
1166 315 113
1291 367 364
1423 426 691
1534 494 1030
1614 578 1377
1668 691 1737
1694 827 2119
1685 976 2496
1625 1141 2896
1209 596 178
1308 656 417
1428 725 736
1528 809 1090
1603 889 1447
1655 990 1819
1672 1108 2198
1658 1244 2585
1605 1395 2993
1239 960 290
1310 1012 504
1406 1093 823
1504 1184 1180
1568 1277 1548
1606 1376 1932
1622 1478 2317
1600 1608 2722
1529 1743 3128
1218 1364 423
1263 1427 617
1343 1514 928
1414 1603 1288
1471 1703 1670
1504 1813 2068
1505 1923 2475
1454 2037 2879
1355 2171 3307
1089 1831 579
1121 1878 762
1179 1969 1056
1232 2074 1423
1272 2179 1810
1281 2285 2213
1248 2401 2633
1159 2524 3062
941 2644 3490
673 2332 757
709 2374 921
722 2461 1204
742 2579 1565
741 2684 1958
699 2811 2376
577 2927 2808
380 3057 3257
304 3175 3703
251 2878 952
251 2914 1103
251 2994 1366
251 3101 1717
251 3224 2121
251 3350 2550
251 3477 2995
251 3608 3449
251 3738 3907
251 3446 1159
251 3485 1299
251 3557 1551
251 3661 1890
251 3790 2291
251 3920 2719
251 4052 3173
251 4095 3640
251 4095 4095
1476 234 145
1629 275 409
1780 322 731
1920 388 1091
2035 477 1461
2109 581 1830
2170 712 2213
2200 869 2599
2199 1043 3009
1514 399 174
1642 442 428
1791 501 762
1924 570 1120
2028 649 1487
2118 756 1860
2171 877 2244
2195 1021 2636
2196 1181 3041
1559 667 248
1659 720 474
1795 792 808
1922 866 1165
2026 948 1542
2103 1040 1920
2156 1155 2304
2185 1288 2712
2172 1433 3121
1603 1012 346
1685 1067 559
1795 1148 881
1907 1229 1239
2010 1320 1626
2086 1422 2023
2130 1521 2417
2149 1644 2821
2141 1779 3242
1620 1429 477
1676 1471 669
1767 1554 975
1865 1651 1341
1953 1748 1731
2020 1854 2137
2055 1961 2548
2067 2077 2964
2052 2205 3399
1577 1875 624
1617 1921 806
1684 2013 1099
1766 2109 1464
1843 2227 1864
1897 2329 2273
1927 2442 2699
1926 2558 3133
1883 2688 3576
1430 2377 799
1458 2417 962
1513 2495 1242
1571 2603 1601
1630 2722 2004
1664 2841 2430
1674 2958 2866
1654 3090 3323
1572 3209 3763
1053 2915 986
1072 2947 1139
1118 3024 1400
1146 3133 1748
1174 3251 2159
1169 3381 2586
1119 3510 3038
1019 3638 3496
819 3767 3964
301 3474 1188
322 3516 1329
327 3588 1580
321 3693 1930
323 3818 2320
303 3949 2767
301 4076 3222
301 4095 3685
301 4095 4095
1858 334 232
1988 377 474
2164 423 813
2319 481 1182
2458 565 1571
2553 655 1948
2639 782 2342
2708 926 2765
2728 1087 3167
1873 487 261
2003 530 498
2163 588 827
2322 655 1206
2451 732 1581
2554 822 1973
2639 938 2363
2698 1069 2773
2727 1227 3196
1927 751 318
2031 794 544
2180 858 870
2324 938 1248
2451 1016 1627
2554 1102 2022
2629 1208 2422
2688 1335 2842
2726 1481 3258
1974 1080 409
2060 1125 617
2188 1199 935
2323 1293 1316
2441 1381 1707
2538 1476 2109
2615 1577 2517
2676 1702 2947
2698 1823 3360
2015 1486 536
2076 1530 726
2187 1609 1031
2304 1706 1407
2410 1799 1800
2501 1907 2218
2578 2005 2635
2623 2127 3065
2644 2259 3504
2014 1932 683
2063 1975 851
2145 2057 1153
2248 2155 1516
2347 2267 1916
2426 2374 2342
2494 2487 2776
2527 2610 3218
2539 2732 3661
1957 2419 844
1996 2471 1009
2054 2546 1288
2132 2646 1645
2219 2763 2055
2289 2882 2486
2337 3000 2929
2365 3124 3381
2362 3245 3836
1797 2968 1039
1815 2989 1181
1868 3062 1447
1932 3174 1800
1999 3300 2210
2047 3420 2640
2087 3541 3087
2089 3673 3556
2071 3801 4025
1433 3516 1231
1447 3546 1370
1490 3620 1620
1532 3731 1964
1565 3849 2360
1605 3979 2803
1599 4090 3258
1568 4095 3740
1690 4095 4081
2241 449 319
2373 478 557
2558 536 895
2731 591 1278
2878 666 1664
3006 753 2064
3110 867 2474
3197 999 2887
3255 1159 3313
2270 587 334
2385 631 572
2561 687 909
2732 749 1292
2878 819 1678
3009 907 2083
3110 1018 2493
3196 1139 2915
3255 1296 3342
2313 839 393
2415 870 616
2575 931 941
2742 1013 1322
2886 1094 1723
3008 1185 2133
3110 1287 2553
3194 1405 2972
3255 1536 3400
2369 1155 481
2455 1204 686
2591 1280 1010
2745 1365 1392
2886 1452 1795
3004 1536 2201
3097 1640 2622
3180 1758 3059
3238 1877 3489
2415 1548 594
2485 1592 787
2603 1674 1100
2741 1765 1474
2867 1860 1873
2979 1961 2300
3077 2067 2731
3152 2178 3165
3197 2310 3617
2444 2001 741
2499 2027 909
2592 2109 1207
2713 2213 1582
2830 2321 1991
2934 2426 2412
3023 2541 2855
3092 2657 3307
3139 2786 3762
2429 2476 900
2471 2516 1063
2545 2593 1346
2646 2697 1703
2748 2809 2117
2846 2927 2546
2921 3045 2998
2980 3179 3462
3021 3289 3921
2355 3002 1085
2384 3034 1227
2443 3115 1491
2527 3217 1848
2613 3336 2257
2690 3464 2691
2759 3582 3154
2805 3722 3636
2836 3842 4090
2169 3559 1275
2198 3601 1413
2241 3663 1667
2311 3774 2007
2374 3892 2405
2441 4023 2849
2487 4095 3324
2529 4095 3799
2719 4095 4066
