src/luts/The_Grand_Budapest_Hotel_-_Rec709.3dl
# Created by Benjamin (IWLTBAP) : http://luts.iwltbap.com
# Copyright: (C) Copyright 2016 Triune Films and IWLTBAP
# Blockbuster LUTs Pack
0 256 512 768 1023
0 0 0
244 153 823
403 423 1581
514 519 2258
628 822 2694
214 438 120
300 571 720
477 826 1408
593 1020 1982
659 1148 2275
468 981 266
506 1076 810
620 1267 1450
707 1423 2003
764 1498 2331
689 1490 414
713 1585 983
762 1690 1536
833 1808 2066
879 1866 2471
716 1633 433
773 1794 1158
821 1904 1677
896 2041 2147
976 2172 2586
1199 75 0
1031 181 853
1074 293 1660
1255 397 2382
1388 451 2849
716 524 138
728 687 798
632 848 1457
742 1077 2011
806 1262 2327
728 1051 205
697 1164 838
779 1385 1551
877 1552 2091
968 1725 2566
910 1596 353
898 1743 1066
964 1881 1675
1037 2019 2217
1137 2195 2759
986 1867 463
1026 2117 1298
1126 2313 1890
1205 2470 2433
1260 2590 2900
2262 127 64
2211 133 828
1985 333 1727
2005 410 2476
2110 465 2933
1965 696 82
2015 873 803
1834 1039 1716
1681 1177 2357
1257 1284 2763
1865 1358 371
2048 1531 874
1917 1774 1849
1545 1833 2493
1290 1943 2901
2124 2077 609
2180 2207 939
1835 2405 1824
1504 2494 2549
1459 2533 3043
2447 2527 734
2312 2766 1143
1736 2841 1906
1617 2919 2677
1603 2957 3173
3070 242 102
3075 107 720
2764 365 1781
2685 436 2537
2143 366 2300
2996 780 61
3010 920 755
2901 1006 1671
2714 1296 2444
2585 1436 3060
3020 1574 260
3309 1644 642
3250 1942 1787
3115 2171 2778
2891 2283 3443
3189 2350 654
3430 2485 864
3541 2834 1921
3464 3185 3021
3122 3248 3732
3375 2797 822
3557 3085 1215
3588 3425 2238
3451 3675 3119
2400 3485 3604
3634 564 247
3558 460 805
3338 586 1872
2592 401 1959
2604 405 2392
3421 848 72
3391 1004 833
3357 1050 1684
3224 1362 2530
3219 1534 3163
3493 1683 269
3764 1813 748
3750 2048 1815
3667 2212 2771
3599 2427 3541
3653 2379 567
3794 2583 868
4004 2877 1887
4064 3221 2957
4004 3499 3896
3680 2886 845
3835 3191 1355
3992 3547 2413
4073 3821 3243
4090 4053 4055
