src/luts/The_Conjuring_-_Rec709.3dl
# Created by Benjamin (IWLTBAP) : http://luts.iwltbap.com
# Copyright: (C) Copyright 2016 Triune Films and IWLTBAP
# Blockbuster LUTs Pack
0 128 256 384 512 640 768 896 1023
32 36 46
31 35 143
34 43 274
39 66 420
62 114 591
92 172 771
122 231 946
154 295 1129
186 361 1310
56 226 97
58 226 269
70 237 418
89 270 577
115 323 746
146 385 929
177 448 1111
208 513 1290
238 577 1471
106 451 153
95 457 339
117 467 544
135 488 707
163 538 893
194 598 1071
226 662 1257
256 720 1437
291 784 1615
195 686 194
129 687 374
155 709 631
180 727 837
207 759 1017
238 812 1209
270 870 1393
306 927 1569
350 987 1754
354 962 251
212 928 422
193 956 704
227 970 938
255 994 1145
288 1034 1338
330 1088 1527
371 1140 1713
417 1195 1901
573 1258 323
368 1182 474
271 1221 762
280 1226 1045
316 1238 1255
354 1268 1456
396 1310 1654
442 1360 1850
483 1408 2031
764 1576 439
567 1465 563
391 1473 801
350 1498 1139
385 1493 1370
422 1508 1567
466 1542 1768
510 1583 1964
553 1628 2159
1017 1938 573
786 1802 679
578 1733 857
469 1787 1207
467 1777 1485
508 1769 1685
547 1792 1886
587 1826 2090
631 1869 2296
1327 2358 740
1061 2225 866
838 2055 959
644 2079 1231
578 2102 1593
592 2070 1804
629 2066 2000
672 2102 2224
717 2147 2444
137 50 56
150 55 189
145 66 317
145 91 451
162 130 602
188 178 767
213 227 931
240 281 1100
271 343 1280
192 263 102
197 272 305
190 283 465
202 325 636
229 383 814
258 444 999
288 508 1177
318 571 1358
350 631 1534
259 495 146
261 534 387
234 528 592
253 559 777
282 613 966
313 672 1150
346 731 1340
381 791 1516
420 852 1695
401 748 175
400 811 447
287 798 695
306 808 904
336 842 1096
369 893 1292
408 953 1475
446 1009 1657
492 1069 1855
663 1035 211
608 1094 480
387 1075 764
365 1067 1012
394 1084 1219
434 1124 1416
475 1176 1610
521 1232 1805
561 1285 1987
891 1358 321
848 1387 541
542 1332 788
449 1341 1114
469 1342 1336
512 1372 1546
554 1411 1743
596 1458 1935
638 1509 2125
1149 1704 447
1032 1713 684
743 1605 858
582 1635 1186
564 1617 1456
596 1624 1659
639 1657 1870
680 1699 2073
720 1744 2271
1413 2084 600
1255 2085 850
1015 1930 950
747 1920 1228
678 1933 1579
688 1906 1782
724 1924 1993
769 1963 2211
808 2005 2421
1730 2509 769
1573 2526 1049
1318 2377 1144
1033 2234 1281
852 2298 1671
805 2262 1939
824 2242 2135
860 2266 2355
908 2311 2581
340 97 87
358 101 229
318 112 364
313 144 505
315 180 657
327 227 818
341 271 975
353 317 1131
371 368 1298
497 319 146
489 354 348
440 338 494
381 366 663
362 411 832
368 463 1008
388 519 1182
415 576 1354
449 635 1535
554 537 133
620 614 385
520 642 680
444 658 867
438 704 1048
460 758 1236
489 817 1423
520 875 1599
557 935 1789
713 792 147
796 888 410
641 953 788
524 936 1012
514 957 1196
533 1001 1384
563 1054 1567
599 1109 1755
640 1167 1949
968 1091 199
1034 1181 453
882 1267 841
626 1225 1128
604 1221 1335
622 1248 1527
653 1293 1719
687 1342 1903
723 1395 2089
1227 1429 314
1218 1508 575
1153 1570 884
776 1533 1210
714 1504 1460
731 1518 1671
757 1547 1866
786 1589 2060
818 1636 2251
1514 1787 431
1433 1865 723
1363 1904 1001
1000 1835 1268
829 1812 1584
834 1802 1800
867 1828 2016
888 1850 2210
921 1894 2411
1802 2201 571
1706 2274 907
1603 2302 1180
1307 2156 1332
997 2149 1659
954 2133 1951
969 2133 2159
1004 2159 2375
1026 2182 2574
2097 2645 764
2019 2699 1111
1922 2738 1397
1709 2603 1494
1337 2490 1675
1117 2517 2079
1081 2477 2312
1099 2479 2524
1147 2518 2752
617 167 129
632 165 267
591 178 419
539 197 553
540 246 719
530 292 885
529 333 1040
528 377 1196
530 422 1354
871 401 204
856 431 386
789 427 543
698 431 702
635 477 879
591 523 1052
578 573 1234
578 625 1401
582 674 1571
1014 633 252
1074 711 477
969 755 723
807 735 895
696 762 1094
665 808 1279
667 866 1467
675 918 1640
684 963 1813
1102 863 218
1211 965 486
1178 1068 803
923 1092 1132
811 1098 1328
802 1146 1519
829 1209 1719
847 1260 1905
847 1296 2076
1325 1142 250
1435 1254 516
1439 1407 858
1203 1468 1250
959 1408 1500
932 1433 1692
943 1478 1893
957 1524 2082
958 1558 2255
1609 1471 333
1669 1596 599
1621 1734 945
1481 1820 1330
1138 1767 1639
1047 1724 1843
1050 1749 2043
1058 1782 2239
1072 1823 2431
1893 1878 469
1904 1994 727
1824 2092 1070
1768 2180 1420
1351 2123 1737
1176 2050 1987
1168 2050 2198
1172 2065 2393
1196 2109 2602
2172 2338 625
2163 2425 895
2069 2492 1258
2026 2557 1567
1708 2479 1810
1346 2421 2120
1283 2380 2348
1302 2391 2562
1314 2408 2761
2437 2784 791
2428 2851 1116
2351 2897 1470
2298 2939 1748
2093 2847 1907
1668 2760 2123
1418 2734 2491
1376 2692 2690
1424 2722 2911
930 230 168
912 224 295
893 240 452
850 260 604
783 291 757
773 351 938
760 402 1111
753 454 1277
741 495 1431
1217 483 259
1199 507 437
1144 495 577
1078 517 745
977 534 910
896 601 1115
839 646 1285
801 691 1457
777 732 1629
1420 710 317
1449 803 544
1410 850 776
1277 842 930
1108 847 1117
980 882 1311
931 935 1519
895 987 1709
874 1035 1887
1594 956 355
1648 1063 598
1650 1192 918
1525 1244 1177
1258 1203 1357
1101 1219 1588
1067 1268 1783
1056 1322 1969
1037 1363 2148
1726 1212 358
1815 1327 612
1811 1458 958
1771 1605 1314
1467 1613 1619
1265 1591 1850
1281 1643 2047
1270 1698 2247
1247 1739 2432
1995 1553 429
2076 1694 682
2069 1792 1008
2048 1996 1412
1878 2052 1755
1500 1979 2042
1445 1974 2240
1414 2001 2431
1404 2050 2633
2275 1969 547
2338 2124 802
2330 2201 1096
2271 2357 1508
2192 2443 1857
1869 2427 2195
1643 2346 2428
1566 2317 2603
1546 2344 2798
2522 2438 685
2559 2573 951
2539 2630 1268
2470 2722 1644
2464 2812 1980
2190 2780 2266
1791 2695 2550
1720 2653 2768
1667 2637 2940
2760 2884 811
2772 2983 1121
2749 3033 1467
2704 3091 1811
2686 3151 2118
2511 3088 2303
2060 3026 2593
1757 2936 2873
1799 2953 3086
1243 306 225
1193 295 346
1181 305 492
1162 323 637
1113 344 787
1024 378 949
998 452 1152
986 522 1346
966 569 1512
1528 547 305
1507 584 488
1456 575 631
1407 589 791
1346 611 945
1249 642 1118
1159 728 1353
1070 772 1527
1011 806 1689
1769 766 352
1791 886 594
1771 966 855
1692 937 987
1573 954 1155
1431 980 1345
1282 1035 1582
1182 1068 1761
1095 1095 1945
1970 1039 430
2018 1152 662
2018 1302 1000
1986 1375 1258
1848 1355 1406
1643 1355 1602
1402 1355 1821
1319 1404 2060
1275 1444 2230
2137 1326 498
2186 1440 737
2227 1608 1096
2236 1755 1440
2163 1814 1701
1907 1775 1876
1558 1725 2094
1523 1768 2319
1501 1820 2507
2303 1631 538
2377 1775 797
2416 1907 1131
2412 2058 1525
2414 2198 1869
2284 2265 2162
1933 2201 2383
1838 2208 2600
1859 2267 2808
2588 2048 641
2655 2207 901
2683 2318 1233
2666 2424 1599
2670 2590 1972
2618 2661 2268
2393 2656 2566
2140 2590 2783
2138 2622 2998
2828 2497 752
2888 2639 996
2897 2732 1323
2879 2815 1671
2870 2944 2049
2864 3024 2369
2691 3022 2647
2457 2990 2951
2370 2951 3140
3050 2916 836
3082 3058 1107
3063 3146 1493
3051 3213 1833
3043 3283 2158
3035 3352 2488
2877 3306 2711
2540 3278 3038
2541 3273 3283
1541 373 277
1476 363 399
1452 372 539
1435 387 682
1414 407 826
1349 427 972
1256 468 1146
1249 563 1373
1207 638 1580
1834 604 340
1808 654 532
1748 655 679
1715 671 843
1680 695 1004
1612 719 1159
1509 756 1338
1424 861 1596
1296 900 1776
2068 856 411
2109 966 644
2084 1054 906
2030 1046 1054
1972 1059 1220
1889 1086 1391
1753 1126 1589
1576 1188 1845
1393 1187 2000
2276 1144 510
2355 1271 744
2356 1412 1072
2329 1496 1340
2263 1470 1473
2164 1491 1648
2005 1518 1850
1735 1523 2098
1537 1524 2302
2474 1445 599
2533 1582 853
2593 1754 1210
2617 1909 1561
2585 1967 1807
2493 1960 1965
2307 1950 2138
1903 1875 2345
1821 1929 2605
2651 1774 680
2714 1924 961
2778 2085 1315
2808 2254 1711
2825 2356 2010
2810 2426 2263
2643 2409 2430
2245 2323 2619
2192 2364 2872
2838 2131 751
2911 2292 1028
2961 2424 1375
2968 2537 1743
2989 2662 2095
3019 2775 2403
2987 2852 2667
2839 2851 2885
2714 2862 3117
3085 2540 824
3153 2694 1077
3176 2819 1450
3175 2912 1813
3193 3012 2139
3225 3138 2483
3221 3199 2783
3099 3217 3040
3021 3229 3280
3281 2959 901
3328 3096 1142
3337 3200 1489
3334 3283 1857
3350 3372 2204
3368 3470 2568
3343 3522 2873
3210 3502 3121
3167 3533 3423
1831 430 316
1760 427 442
1733 444 587
1707 452 724
1695 483 879
1662 504 1026
1592 519 1166
1493 565 1350
1479 678 1605
2103 678 387
2085 706 566
2034 717 713
2020 755 885
1992 787 1054
1968 825 1226
1902 850 1385
1778 879 1567
1674 990 1836
2327 959 480
2398 1061 707
2379 1124 942
2335 1129 1096
2307 1159 1272
2270 1197 1455
2199 1226 1628
2068 1273 1839
1850 1329 2093
2535 1246 584
2639 1383 825
2670 1520 1142
2628 1580 1392
2596 1572 1539
2551 1590 1707
2481 1629 1893
2318 1661 2098
2042 1675 2351
2745 1564 686
2835 1725 965
2911 1914 1334
2925 2031 1654
2914 2095 1902
2871 2078 2045
2791 2095 2218
2611 2089 2393
2273 2055 2612
2946 1910 806
3024 2072 1103
3100 2256 1477
3138 2411 1847
3160 2510 2131
3153 2553 2356
3093 2548 2518
2918 2520 2666
2592 2466 2864
3143 2260 887
3209 2422 1184
3253 2577 1567
3285 2716 1939
3313 2819 2241
3342 2906 2520
3344 2965 2772
3239 2960 2948
3131 2967 3142
3299 2598 920
3361 2751 1188
3403 2898 1588
3423 3001 1943
3442 3094 2274
3472 3204 2608
3505 3302 2919
3493 3358 3178
3479 3406 3404
3474 2994 975
3525 3130 1209
3562 3256 1588
3583 3353 1961
3605 3443 2337
3636 3535 2694
3656 3612 3016
3623 3648 3277
3554 3668 3522
2093 481 350
2022 475 469
2004 498 617
1985 514 758
1972 543 912
1968 581 1071
1930 606 1224
1842 617 1371
1725 666 1563
2345 753 438
2325 767 599
2287 770 742
2288 812 908
2281 855 1080
2276 911 1268
2261 955 1444
2179 968 1603
2039 996 1793
2553 1032 536
2615 1121 749
2604 1156 951
2582 1167 1105
2593 1219 1292
2583 1278 1491
2553 1326 1685
2494 1360 1863
2337 1402 2083
2758 1328 642
2872 1476 897
2915 1582 1180
2871 1599 1380
2859 1611 1543
2847 1651 1731
2821 1699 1932
2766 1757 2141
2593 1795 2362
2983 1669 776
3084 1825 1049
3169 2014 1412
3166 2085 1685
3155 2123 1905
3139 2114 2058
3117 2151 2251
3041 2191 2444
2828 2187 2632
3202 2011 882
3294 2190 1196
3355 2365 1572
3400 2504 1909
3423 2585 2170
3420 2614 2382
3395 2608 2553
3333 2634 2747
3139 2609 2900
3394 2369 991
3453 2532 1321
3509 2701 1708
3558 2835 2032
3587 2937 2326
3602 3010 2599
3596 3043 2833
3564 3055 3020
3457 3056 3189
3532 2705 1049
3591 2864 1364
3641 3010 1755
3686 3131 2085
3708 3220 2397
3727 3304 2705
3745 3380 3011
3744 3426 3261
3701 3444 3440
3653 3034 1062
3702 3168 1307
3752 3294 1676
3793 3404 2027
3819 3484 2375
3839 3556 2719
3862 3634 3059
3874 3705 3392
3848 3750 3635
