src/luts/The_Walking_Dead_-_Rec709.3dl
# Created by Benjamin (IWLTBAP) : http://luts.iwltbap.com
# Copyright: (C) Copyright 2016 Triune Films and IWLTBAP
# Blockbuster LUTs Pack
0 256 512 767 1023
46 51 72
47 53 993
57 60 1920
71 73 2755
93 90 3605
60 856 93
242 944 1005
245 949 1938
254 949 2686
292 1016 3414
144 1731 180
391 1899 898
506 1972 1720
515 1988 2578
510 1970 3285
187 2613 133
438 2768 777
668 2925 1632
796 3006 2446
790 2996 3200
143 3310 61
387 3458 600
634 3614 1439
869 3778 2284
1023 3875 3047
1060 170 188
956 61 993
909 70 1945
944 83 2799
1055 101 3609
844 866 93
930 1028 1054
870 1052 2012
884 1048 2812
965 1100 3571
565 1789 189
875 1970 963
1046 2056 1834
1055 2066 2696
1103 2077 3399
570 2638 190
896 2794 895
1198 2952 1758
1382 3040 2580
1385 3031 3332
547 3349 103
817 3517 843
1187 3678 1706
1490 3826 2505
1709 3915 3251
2233 352 374
2205 287 1198
2125 117 2057
2050 121 2852
2068 161 3618
2109 1053 287
2291 1195 1144
1993 1132 2132
1887 1112 2906
1941 1148 3645
1935 1855 247
2069 2001 1120
2145 2176 2186
2026 2228 2984
2034 2228 3702
1763 2671 186
1827 2813 1047
1966 3002 2043
2125 3110 2781
2080 3077 3529
1613 3338 78
1778 3514 882
1975 3683 1999
2317 3834 2815
2482 3937 3503
3242 546 520
3207 492 1355
3228 300 2164
3120 212 2958
3088 196 3695
3055 1190 422
3184 1324 1268
3180 1249 2171
3120 1172 3007
3101 1187 3738
2957 1957 372
3096 2112 1205
3241 2304 2296
3186 2215 3112
3103 2181 3824
2804 2690 195
2953 2855 1022
3087 3023 2141
3231 3196 3196
3158 3182 3973
2643 3377 66
2812 3540 836
2948 3713 1987
3078 3879 3070
3252 4004 3828
3946 666 665
3945 580 1481
3971 401 2242
3975 249 3032
3917 170 3746
3792 1303 550
3916 1410 1390
3920 1332 2223
3996 1157 3077
3962 1125 3799
3653 1989 463
3768 2102 1193
3917 2260 2224
3954 2151 3075
3907 2129 3814
3579 2763 365
3703 2901 1061
3868 3079 2177
4015 3263 3262
4021 3196 3984
3478 3396 105
3619 3559 873
3770 3732 2022
3912 3885 3079
4055 4041 4043
