src/luts/The_Conjuring_-_Rec709.3dl
# Created by Benjamin (IWLTBAP) : http://luts.iwltbap.com
# Copyright: (C) Copyright 2016 Triune Films and IWLTBAP
# Blockbuster LUTs Pack
0 256 512 768 1023
32 36 46
34 43 274
62 114 591
122 231 946
186 361 1310
106 451 153
117 467 544
163 538 893
226 662 1257
291 784 1615
354 962 251
193 956 704
255 994 1145
330 1088 1527
417 1195 1901
764 1576 439
391 1473 801
385 1493 1370
466 1542 1768
553 1628 2159
1327 2358 740
838 2055 959
578 2102 1593
629 2066 2000
717 2147 2444
340 97 87
318 112 364
315 180 657
341 271 975
371 368 1298
554 537 133
520 642 680
438 704 1048
489 817 1423
557 935 1789
968 1091 199
882 1267 841
604 1221 1335
653 1293 1719
723 1395 2089
1514 1787 431
1363 1904 1001
829 1812 1584
867 1828 2016
921 1894 2411
2097 2645 764
1922 2738 1397
1337 2490 1675
1081 2477 2312
1147 2518 2752
930 230 168
893 240 452
783 291 757
760 402 1111
741 495 1431
1420 710 317
1410 850 776
1108 847 1117
931 935 1519
874 1035 1887
1726 1212 358
1811 1458 958
1467 1613 1619
1281 1643 2047
1247 1739 2432
2275 1969 547
2330 2201 1096
2192 2443 1857
1643 2346 2428
1546 2344 2798
2760 2884 811
2749 3033 1467
2686 3151 2118
2060 3026 2593
1799 2953 3086
1541 373 277
1452 372 539
1414 407 826
1256 468 1146
1207 638 1580
2068 856 411
2084 1054 906
1972 1059 1220
1753 1126 1589
1393 1187 2000
2474 1445 599
2593 1754 1210
2585 1967 1807
2307 1950 2138
1821 1929 2605
2838 2131 751
2961 2424 1375
2989 2662 2095
2987 2852 2667
2714 2862 3117
3281 2959 901
3337 3200 1489
3350 3372 2204
3343 3522 2873
3167 3533 3423
2093 481 350
2004 498 617
1972 543 912
1930 606 1224
1725 666 1563
2553 1032 536
2604 1156 951
2593 1219 1292
2553 1326 1685
2337 1402 2083
2983 1669 776
3169 2014 1412
3155 2123 1905
3117 2151 2251
2828 2187 2632
3394 2369 991
3509 2701 1708
3587 2937 2326
3596 3043 2833
3457 3056 3189
3653 3034 1062
3752 3294 1676
3819 3484 2375
3862 3634 3059
3848 3750 3635
