src/luts/The_Ring_-_Rec709.3dl
# Created by Benjamin (IWLTBAP) : http://luts.iwltbap.com
# Copyright: (C) Copyright 2016 Triune Films and IWLTBAP
# Blockbuster LUTs Pack
0 64 128 192 256 320 384 448 512 576 640 704 768 832 896 960 1023
0 0 0
0 0 32
0 1 79
0 14 141
0 31 249
0 65 393
0 113 530
0 174 683
0 249 838
0 326 1001
0 406 1178
0 486 1355
0 575 1545
0 652 1724
0 752 1916
0 847 2115
0 942 2313
0 40 0
0 54 54
0 68 116
0 84 211
0 114 332
0 151 461
0 199 595
0 257 736
0 331 898
0 394 1051
0 474 1221
0 554 1403
0 634 1578
0 720 1767
0 807 1959
0 895 2146
0 996 2357
0 112 1
0 145 69
0 169 153
0 198 265
0 236 392
0 269 526
0 324 670
0 377 814
0 441 969
0 506 1131
0 573 1296
0 646 1466
0 720 1637
0 804 1828
0 890 2017
0 978 2211
0 1067 2403
0 257 22
0 292 96
0 322 197
0 360 331
0 401 469
0 436 608
0 478 750
0 538 907
0 585 1060
0 644 1218
0 711 1389
0 773 1553
0 846 1730
0 923 1910
0 998 2100
0 1091 2297
0 1176 2487
0 436 46
0 463 134
0 502 252
0 537 396
0 578 537
0 620 688
0 665 835
0 704 988
0 761 1154
0 817 1317
0 874 1486
0 933 1657
0 1008 1833
0 1073 2010
0 1146 2202
0 1228 2388
0 1315 2589
0 625 87
0 652 182
0 684 305
0 724 454
0 766 603
0 809 758
0 861 922
0 901 1078
0 953 1243
0 1002 1414
0 1065 1589
0 1122 1762
0 1184 1933
0 1255 2129
0 1320 2308
0 1395 2500
0 1466 2697
0 829 147
0 851 252
0 889 370
0 923 512
0 973 667
0 1014 833
0 1064 1001
0 1116 1167
0 1160 1339
0 1208 1508
0 1262 1688
0 1323 1867
0 1391 2051
0 1441 2235
0 1513 2424
0 1592 2621
0 1657 2818
0 1030 224
0 1059 319
0 1095 436
0 1139 578
0 1188 742
0 1226 896
0 1281 1074
0 1334 1247
0 1381 1431
0 1433 1602
0 1486 1786
0 1540 1971
0 1602 2158
0 1665 2352
0 1726 2545
0 1801 2740
0 1863 2936
0 1258 304
0 1282 392
0 1316 511
0 1354 650
0 1411 808
0 1451 974
0 1507 1148
0 1563 1338
0 1616 1520
0 1668 1705
0 1720 1886
0 1774 2074
0 1835 2275
0 1896 2463
0 1963 2667
0 2017 2856
0 2087 3055
0 1501 391
0 1518 474
0 1545 586
0 1583 723
0 1642 882
0 1688 1049
0 1745 1230
0 1802 1415
0 1850 1603
0 1902 1787
0 1959 1982
0 2018 2181
0 2066 2368
0 2131 2573
0 2196 2777
0 2261 2984
0 2326 3182
0 1734 478
0 1759 561
0 1794 662
0 1832 800
0 1880 958
0 1931 1124
0 1986 1308
0 2036 1487
0 2093 1681
0 2150 1879
0 2207 2077
0 2262 2276
0 2329 2483
0 2381 2680
0 2442 2887
0 2508 3102
0 2580 3310
0 1993 572
0 2014 648
0 2036 746
0 2077 877
0 2131 1035
0 2177 1205
0 2238 1393
0 2293 1573
0 2349 1765
0 2408 1971
0 2470 2173
0 2524 2374
0 2586 2582
0 2647 2792
0 2709 3001
0 2774 3217
0 2833 3429
0 2265 677
0 2273 742
0 2293 835
0 2336 964
0 2385 1115
0 2432 1280
0 2491 1462
0 2549 1655
0 2614 1860
0 2674 2062
0 2728 2267
0 2793 2477
0 2851 2679
0 2918 2899
0 2992 3128
0 3046 3329
0 3111 3547
0 2514 761
0 2533 831
0 2565 922
0 2607 1053
0 2657 1203
0 2697 1371
0 2758 1549
0 2822 1744
0 2877 1940
0 2935 2146
0 3003 2363
0 3071 2578
0 3136 2787
0 3201 3010
0 3265 3232
0 3319 3442
0 3397 3675
0 2811 881
0 2815 937
0 2850 1031
0 2872 1140
0 2918 1288
0 2974 1453
0 3030 1638
0 3103 1834
0 3160 2040
0 3212 2245
0 3280 2456
0 3343 2668
0 3412 2893
0 3480 3108
0 3540 3337
0 3609 3568
0 3671 3791
0 3085 978
0 3099 1038
0 3115 1116
0 3150 1234
0 3194 1377
0 3256 1552
0 3308 1727
0 3382 1924
0 3444 2131
0 3496 2329
0 3573 2545
0 3634 2768
0 3705 2990
0 3767 3217
0 3835 3443
0 3907 3684
0 3966 3900
0 3385 1086
0 3393 1147
0 3414 1225
0 3444 1343
0 3489 1478
0 3544 1639
0 3603 1819
0 3668 2015
0 3733 2226
0 3798 2435
0 3863 2653
0 3928 2869
0 3994 3097
0 4058 3318
0 4094 3551
0 4095 3780
0 4095 4023
25 0 0
39 0 40
40 1 95
34 14 177
26 31 283
25 72 420
25 118 561
25 181 709
25 254 867
25 326 1025
25 406 1195
25 492 1372
25 567 1554
25 657 1738
25 752 1925
25 840 2128
25 942 2335
26 47 0
33 54 54
32 74 123
26 89 226
25 114 346
25 156 474
25 206 615
25 267 758
25 328 914
25 402 1071
25 474 1237
25 550 1411
25 634 1598
25 720 1777
25 807 1968
25 895 2166
25 996 2365
25 118 7
25 147 70
25 170 160
25 203 278
25 235 407
25 283 545
25 325 682
25 385 831
25 443 983
25 507 1145
25 573 1305
25 642 1476
25 726 1657
25 805 1839
25 892 2025
25 978 2224
25 1067 2416
25 262 22
25 294 98
25 331 205
25 365 336
25 403 478
25 446 620
25 485 765
25 538 914
25 591 1068
25 647 1229
25 709 1392
25 780 1566
25 850 1742
25 923 1917
25 1007 2110
25 1085 2298
25 1176 2502
25 429 46
25 465 131
25 507 255
25 548 399
25 580 542
25 623 692
25 661 842
25 713 1000
25 762 1160
25 816 1323
25 874 1491
25 935 1665
25 1004 1841
25 1072 2014
25 1151 2206
25 1226 2398
25 1315 2596
25 623 87
25 652 190
25 691 310
25 734 455
25 772 607
25 820 769
25 862 922
25 903 1082
25 955 1251
25 1009 1419
25 1059 1589
25 1118 1766
25 1183 1944
25 1253 2128
25 1321 2315
25 1399 2511
25 1477 2709
25 827 152
25 853 249
25 886 370
25 929 514
25 969 670
25 1021 837
25 1069 1002
25 1115 1171
25 1163 1343
25 1213 1515
25 1268 1693
25 1326 1868
25 1387 2056
25 1447 2241
25 1512 2426
25 1592 2633
25 1659 2823
25 1040 232
25 1065 322
25 1095 436
25 1143 581
25 1185 739
25 1232 908
25 1283 1079
25 1332 1253
25 1381 1428
25 1434 1609
25 1489 1793
25 1546 1976
25 1606 2166
25 1660 2351
25 1726 2546
25 1799 2746
25 1863 2944
25 1263 309
25 1288 399
25 1317 508
25 1362 650
25 1411 806
25 1455 977
25 1507 1154
25 1560 1330
25 1611 1509
25 1667 1701
25 1722 1894
25 1774 2078
25 1835 2277
25 1892 2467
25 1961 2663
25 2020 2858
25 2093 3067
25 1496 394
25 1518 477
25 1545 582
25 1587 722
25 1643 884
25 1689 1053
25 1744 1233
25 1795 1413
25 1853 1601
25 1903 1788
25 1957 1980
25 2020 2179
25 2079 2380
25 2134 2575
25 2192 2778
25 2262 2980
25 2326 3194
25 1731 481
25 1759 563
25 1794 666
25 1829 800
25 1878 957
25 1933 1126
25 1983 1305
25 2036 1491
25 2096 1685
25 2153 1883
25 2208 2078
25 2268 2281
25 2328 2487
25 2387 2684
25 2449 2894
25 2514 3106
25 2571 3313
25 1990 579
25 2007 649
25 2034 744
25 2074 878
25 2130 1035
25 2179 1205
25 2237 1392
25 2296 1578
25 2352 1772
25 2415 1973
25 2471 2182
25 2533 2382
25 2585 2587
25 2645 2792
25 2706 3007
25 2778 3216
25 2842 3436
25 2255 668
25 2266 741
25 2298 833
25 2336 965
25 2386 1116
25 2442 1288
25 2493 1468
25 2556 1660
25 2607 1858
25 2675 2064
25 2737 2267
25 2793 2476
25 2858 2695
25 2916 2904
25 2985 3117
25 3045 3332
25 3113 3552
25 2522 769
25 2543 837
25 2570 930
25 2602 1054
25 2654 1202
25 2708 1372
25 2761 1554
25 2825 1750
25 2881 1950
25 2949 2156
25 3009 2362
25 3070 2576
25 3136 2791
25 3196 3008
25 3261 3227
25 3318 3442
25 3395 3673
25 2801 870
25 2827 944
25 2843 1023
25 2872 1145
25 2919 1290
25 2979 1461
25 3034 1642
25 3099 1834
25 3152 2031
25 3218 2247
25 3281 2458
25 3344 2670
25 3409 2893
25 3475 3114
25 3539 3336
25 3614 3569
25 3669 3791
25 3080 978
25 3112 1046
25 3122 1128
25 3162 1241
25 3211 1390
25 3258 1553
25 3318 1733
25 3383 1926
25 3441 2128
25 3502 2331
25 3573 2557
25 3644 2778
25 3705 2993
25 3774 3223
25 3838 3446
25 3900 3677
25 3966 3908
25 3385 1086
25 3393 1148
25 3415 1225
25 3450 1343
25 3494 1480
25 3544 1642
25 3603 1826
25 3668 2018
25 3729 2217
25 3798 2435
25 3863 2649
25 3928 2866
25 3994 3100
25 4063 3323
25 4094 3551
25 4095 3792
25 4095 4023
66 0 0
96 0 48
109 1 111
111 21 207
106 42 330
71 73 459
53 118 600
50 181 742
50 250 897
50 333 1059
50 409 1233
50 493 1401
50 570 1579
50 660 1769
50 752 1959
50 840 2157
50 942 2358
80 47 0
95 61 61
103 71 134
102 96 248
88 119 371
63 161 509
51 211 646
50 269 788
50 333 943
50 404 1106
50 481 1272
50 561 1443
50 640 1623
50 721 1800
50 810 1991
50 903 2189
50 996 2386
78 125 13
80 154 71
80 170 168
75 211 299
57 250 432
53 284 567
50 338 712
50 391 856
50 446 1004
50 509 1169
50 583 1334
50 651 1500
50 730 1679
50 806 1862
50 892 2057
50 979 2241
50 1077 2444
52 264 22
53 297 99
53 331 211
53 372 350
51 409 491
51 449 631
50 495 782
50 542 932
50 592 1085
50 648 1247
50 713 1413
50 787 1587
50 853 1760
50 930 1946
50 1015 2133
50 1095 2328
50 1177 2517
50 434 55
50 466 141
50 506 256
50 551 407
50 591 552
50 625 702
50 674 858
50 718 1011
50 768 1172
50 818 1334
50 882 1502
50 946 1680
50 1012 1856
50 1079 2041
50 1158 2225
50 1228 2412
50 1317 2617
50 619 94
50 658 192
50 691 317
50 735 460
50 777 614
50 825 771
50 864 928
50 910 1095
50 957 1261
50 1012 1434
50 1070 1608
50 1119 1777
50 1187 1961
50 1255 2144
50 1322 2329
50 1396 2525
50 1479 2724
50 820 159
50 854 257
50 890 374
50 933 522
50 977 678
50 1031 845
50 1075 1007
50 1119 1179
50 1167 1354
50 1217 1523
50 1272 1707
50 1322 1880
50 1392 2065
50 1458 2251
50 1517 2438
50 1587 2635
50 1663 2837
50 1039 232
50 1064 325
50 1092 437
50 1139 583
50 1188 740
50 1238 910
50 1286 1083
50 1334 1256
50 1388 1440
50 1436 1611
50 1487 1798
50 1548 1986
50 1609 2172
50 1667 2361
50 1732 2554
50 1797 2751
50 1871 2958
50 1269 316
50 1284 398
50 1315 512
50 1365 652
50 1410 806
50 1464 983
50 1510 1156
50 1561 1337
50 1612 1520
50 1668 1705
50 1721 1893
50 1776 2083
50 1833 2275
50 1898 2477
50 1959 2672
50 2025 2871
50 2087 3071
50 1501 399
50 1518 478
50 1545 587
50 1588 724
50 1638 878
50 1696 1057
50 1748 1233
50 1803 1423
50 1853 1606
50 1910 1797
50 1965 1992
50 2013 2185
50 2078 2381
50 2137 2581
50 2208 2790
50 2262 2985
50 2334 3197
50 1742 484
50 1756 559
50 1790 663
50 1830 800
50 1884 963
50 1941 1130
50 1994 1314
50 2047 1496
50 2100 1687
50 2159 1889
50 2212 2082
50 2267 2279
50 2332 2488
50 2398 2698
50 2460 2908
50 2512 3106
50 2577 3316
50 1993 580
50 2012 653
50 2049 747
50 2080 880
50 2131 1037
50 2187 1207
50 2237 1390
50 2300 1581
50 2355 1775
50 2416 1977
50 2472 2180
50 2531 2381
50 2588 2587
50 2648 2801
50 2710 3015
50 2778 3226
50 2847 3443
50 2258 669
50 2275 748
50 2309 843
50 2348 970
50 2388 1117
50 2440 1288
50 2494 1472
50 2560 1667
50 2618 1866
50 2674 2062
50 2737 2267
50 2803 2483
50 2854 2692
50 2916 2907
50 2982 3119
50 3044 3332
50 3112 3559
50 2522 775
50 2538 834
50 2561 925
50 2610 1054
50 2653 1202
50 2708 1373
50 2758 1550
50 2819 1748
50 2885 1949
50 2952 2158
50 3008 2367
50 3069 2579
50 3136 2795
50 3200 3019
50 3259 3227
50 3321 3446
50 3385 3675
50 2810 881
50 2820 939
50 2843 1022
50 2872 1142
50 2920 1291
50 2976 1460
50 3038 1649
50 3098 1835
50 3160 2032
50 3221 2242
50 3285 2457
50 3360 2680
50 3421 2904
50 3486 3126
50 3540 3337
50 3610 3569
50 3681 3792
50 3093 978
50 3095 1040
50 3122 1129
50 3162 1248
50 3208 1389
50 3255 1548
50 3308 1727
50 3376 1928
50 3443 2130
50 3506 2338
50 3570 2554
50 3641 2776
50 3709 3000
50 3777 3227
50 3838 3445
50 3894 3671
50 3968 3914
50 3385 1086
50 3399 1155
50 3415 1238
50 3451 1349
50 3499 1489
50 3545 1640
50 3603 1831
50 3668 2022
50 3733 2220
50 3798 2441
50 3863 2655
50 3928 2870
50 3994 3096
50 4058 3319
50 4094 3552
50 4095 3788
50 4095 4023
141 0 0
197 8 56
221 13 132
243 22 248
249 43 376
233 73 509
203 123 650
149 181 790
97 258 944
75 333 1105
75 412 1279
75 493 1452
75 579 1623
75 666 1818
75 753 2003
75 846 2192
75 942 2400
150 53 6
191 68 74
220 78 155
234 103 278
237 128 408
222 166 544
191 217 682
135 278 828
83 344 991
75 411 1148
75 484 1311
75 563 1482
75 645 1666
75 728 1848
75 816 2037
75 904 2219
