src/luts/The_Conjuring_-_Rec709.3dl
# Created by Benjamin (IWLTBAP) : http://luts.iwltbap.com
# Copyright: (C) Copyright 2016 Triune Films and IWLTBAP
# Blockbuster LUTs Pack
0 64 128 192 256 320 384 448 512 576 640 704 768 832 896 960 1023
32 36 46
31 32 88
31 35 143
31 36 206
34 43 274
35 51 344
39 66 420
47 87 503
62 114 591
77 143 681
92 172 771
108 203 860
122 231 946
138 262 1036
154 295 1129
171 330 1222
186 361 1310
44 116 69
45 119 144
44 115 208
44 118 273
46 128 341
54 145 420
64 167 503
76 190 586
90 219 675
105 249 763
120 278 850
134 306 936
149 338 1029
165 372 1122
181 405 1212
197 438 1302
213 471 1393
56 226 97
56 225 178
58 226 269
62 225 340
70 237 418
78 249 494
89 270 577
101 296 661
115 323 746
130 353 835
146 385 929
162 418 1022
177 448 1111
192 480 1200
208 513 1290
223 546 1382
238 577 1471
73 339 129
69 339 208
78 339 304
86 344 407
93 348 487
102 360 566
113 378 645
125 402 727
140 430 818
156 461 915
172 492 1006
186 523 1094
202 556 1185
218 589 1278
234 621 1369
248 650 1455
262 679 1541
106 451 153
84 453 236
95 457 339
106 458 442
117 467 544
125 476 627
135 488 707
147 509 797
163 538 893
179 568 985
194 598 1071
210 631 1163
226 662 1257
241 692 1349
256 720 1437
271 752 1525
291 784 1615
145 566 173
112 563 249
109 575 365
124 583 481
136 586 585
147 596 687
158 606 777
170 622 868
184 646 956
200 676 1044
215 705 1137
231 735 1233
248 765 1329
264 795 1419
280 825 1504
299 855 1593
320 887 1685
195 686 194
151 678 268
129 687 374
138 703 514
155 709 631
168 713 734
180 727 837
193 740 929
207 759 1017
223 785 1113
238 812 1209
254 840 1305
270 870 1393
287 898 1480
306 927 1569
328 958 1661
350 987 1754
268 821 218
203 800 298
164 806 395
157 824 535
174 833 672
190 837 783
202 845 883
217 862 988
231 877 1085
247 897 1183
263 921 1280
279 949 1370
297 977 1458
317 1005 1549
338 1033 1639
361 1062 1734
382 1089 1828
354 962 251
276 931 329
212 928 422
189 949 557
193 956 704
211 963 833
227 970 938
240 978 1039
255 994 1145
270 1012 1243
288 1034 1338
309 1060 1434
330 1088 1527
350 1113 1618
371 1140 1713
397 1169 1812
417 1195 1901
464 1108 286
368 1073 363
280 1050 444
234 1073 578
225 1089 736
234 1093 879
254 1099 996
267 1103 1097
281 1111 1195
300 1131 1300
320 1151 1397
342 1173 1495
363 1197 1591
384 1222 1689
408 1249 1787
430 1276 1879
450 1300 1966
573 1258 323
470 1219 404
368 1182 474
297 1197 599
271 1221 762
264 1226 919
280 1226 1045
299 1230 1154
316 1238 1255
335 1251 1356
354 1268 1456
374 1288 1555
396 1310 1654
420 1335 1754
442 1360 1850
464 1386 1942
483 1408 2031
667 1414 371
561 1362 442
465 1320 518
375 1320 626
325 1348 782
308 1362 955
310 1360 1093
332 1360 1208
351 1367 1317
367 1373 1412
386 1386 1511
407 1405 1613
432 1427 1716
454 1449 1812
475 1471 1906
498 1494 2003
517 1515 2093
764 1576 439
656 1515 488
567 1465 563
461 1446 659
391 1473 801
359 1492 978
350 1498 1139
362 1493 1262
385 1493 1370
404 1499 1471
422 1508 1567
444 1522 1668
466 1542 1768
488 1563 1867
510 1583 1964
532 1606 2062
553 1628 2159
884 1747 503
762 1685 555
669 1622 615
563 1579 694
478 1599 824
423 1625 996
401 1637 1176
402 1633 1316
424 1630 1425
448 1631 1529
468 1639 1630
486 1649 1726
508 1665 1828
527 1683 1927
547 1702 2027
570 1724 2128
592 1747 2229
1017 1938 573
883 1871 640
786 1802 679
687 1741 750
578 1733 857
505 1763 1014
469 1787 1207
455 1783 1364
467 1777 1485
488 1771 1586
508 1769 1685
526 1779 1786
547 1792 1886
569 1809 1990
587 1826 2090
607 1845 2192
631 1869 2296
1159 2134 647
1019 2065 719
899 1997 770
813 1919 816
691 1875 893
603 1899 1033
543 1928 1220
520 1942 1404
514 1929 1540
529 1917 1645
548 1912 1740
569 1914 1841
588 1926 1946
607 1939 2048
630 1960 2157
652 1981 2264
671 2001 2366
1327 2358 740
1190 2295 804
1061 2225 866
954 2136 904
838 2055 959
717 2043 1059
644 2079 1231
603 2110 1435
578 2102 1593
577 2081 1709
592 2070 1804
610 2063 1898
629 2066 2000
651 2084 2116
672 2102 2224
699 2129 2340
717 2147 2444
76 39 49
78 38 104
77 41 165
77 45 228
79 50 291
83 59 359
89 74 429
98 94 505
110 115 586
123 139 668
138 166 757
152 194 845
166 220 927
179 245 1009
193 273 1096
208 303 1184
224 338 1278
94 129 73
96 134 162
95 133 226
97 137 292
102 147 364
109 166 444
120 189 531
134 218 621
148 246 708
162 276 795
177 305 882
191 334 971
206 366 1063
222 399 1153
238 432 1244
254 465 1335
269 499 1428
115 243 101
117 245 196
117 246 286
120 248 362
126 256 438
135 272 520
147 298 608
159 324 693
174 353 781
188 382 872
204 414 965
219 445 1054
234 477 1143
250 510 1235
266 543 1327
279 571 1413
294 602 1501
137 353 130
139 364 228
136 363 324
144 365 425
150 371 508
159 385 588
169 405 670
183 432 760
199 461 857
215 493 953
230 526 1044
245 556 1130
261 589 1223
275 618 1313
291 648 1402
307 678 1489
324 708 1575
172 470 153
175 487 259
154 484 357
164 486 464
173 493 565
182 501 650
193 519 739
207 543 835
223 573 930
237 603 1018
253 634 1108
270 666 1205
286 695 1299
301 723 1388
318 753 1476
336 784 1562
356 817 1654
218 588 170
228 612 281
185 615 388
183 616 506
194 619 610
206 627 716
217 640 810
230 659 902
245 684 992
259 712 1083
276 742 1180
294 772 1277
311 801 1369
329 831 1456
347 861 1544
367 891 1635
388 922 1727
280 713 191
295 744 303
231 740 407
203 745 540
214 747 656
227 751 764
240 764 868
253 780 962
268 798 1056
284 822 1153
302 851 1252
320 879 1345
337 909 1432
357 938 1522
377 966 1612
399 997 1707
421 1027 1803
371 854 213
377 884 327
289 865 428
239 872 559
233 876 701
249 881 816
263 887 920
277 900 1023
292 914 1119
311 935 1218
329 961 1315
348 990 1408
369 1019 1500
388 1046 1590
409 1073 1684
433 1103 1784
456 1132 1880
495 999 237
474 1027 359
365 993 453
291 999 578
267 1009 732
273 1012 869
289 1015 975
302 1019 1073
321 1036 1180
340 1054 1278
360 1077 1376
380 1102 1472
401 1129 1566
422 1156 1663
445 1184 1760
469 1213 1857
489 1239 1945
621 1153 268
588 1170 388
456 1128 483
359 1120 591
319 1144 756
307 1146 910
318 1146 1031
334 1147 1130
351 1155 1230
373 1176 1339
393 1196 1437
413 1217 1534
435 1242 1633
458 1268 1732
481 1295 1828
501 1321 1918
522 1346 2009
724 1308 316
696 1317 423
554 1268 519
443 1247 619
379 1270 771
357 1283 942
351 1278 1080
369 1279 1191
385 1284 1291
406 1297 1395
427 1316 1498
448 1336 1597
472 1359 1698
495 1384 1796
516 1407 1889
536 1429 1981
557 1455 2074
830 1474 384
803 1477 481
672 1422 560
541 1382 655
455 1392 781
413 1417 964
396 1420 1127
404 1414 1247
424 1417 1353
442 1423 1452
464 1437 1555
487 1457 1659
509 1478 1758
532 1499 1855
553 1520 1951
573 1543 2046
594 1567 2141
950 1643 446
895 1643 558
791 1583 609
655 1528 703
543 1520 809
479 1546 979
452 1562 1164
449 1554 1300
468 1551 1410
487 1555 1513
507 1564 1615
528 1578 1715
549 1596 1816
569 1616 1915
591 1636 2015
612 1659 2113
633 1683 2212
1073 1820 516
1002 1817 634
892 1751 676
777 1686 747
648 1660 850
562 1686 1006
518 1705 1193
503 1703 1351
513 1694 1467
533 1692 1572
552 1698 1677
571 1709 1776
592 1723 1877
611 1741 1980
631 1761 2082
652 1781 2182
674 1805 2284
1204 2009 592
1122 2002 709
994 1932 759
892 1857 804
769 1808 892
657 1824 1033
591 1851 1223
563 1854 1393
561 1845 1525
574 1834 1629
589 1827 1726
609 1837 1831
630 1850 1933
653 1869 2041
674 1889 2147
694 1909 2251
717 1932 2356
1343 2204 667
1260 2203 789
1120 2131 847
1010 2047 880
906 1975 948
766 1967 1066
683 1999 1242
637 2016 1432
616 2003 1577
621 1991 1693
636 1983 1790
654 1981 1891
674 1993 1999
694 2009 2106
720 2030 2218
742 2054 2328
760 2073 2431
1526 2437 768
1441 2439 892
1309 2374 950
1175 2297 1002
1073 2199 1027
932 2126 1098
803 2153 1252
738 2182 1447
702 2195 1633
683 2171 1761
688 2155 1863
702 2146 1961
722 2148 2064
741 2161 2176
764 2182 2290
791 2207 2406
807 2223 2508
137 50 56
150 53 122
150 55 189
147 60 254
145 66 317
143 77 383
145 91 451
151 109 524
162 130 602
175 154 684
188 178 767
200 201 848
213 227 931
227 254 1015
240 281 1100
254 310 1188
271 343 1280
174 153 81
177 159 177
176 148 240
170 153 309
167 163 379
167 175 450
170 193 529
181 217 616
194 246 704
207 273 788
220 299 870
233 326 955
248 356 1045
264 390 1138
277 418 1224
291 446 1308
306 476 1398
192 263 102
199 271 204
197 272 305
194 274 382
190 283 465
192 300 550
202 325 636
214 353 722
229 383 814
244 413 907
258 444 999
273 475 1086
288 508 1177
304 541 1269
318 571 1358
332 599 1444
350 631 1534
223 379 129
232 393 231
226 398 350
213 395 449
211 403 535
216 417 616
226 438 702
241 467 799
257 498 897
272 528 990
287 560 1077
301 590 1166
317 622 1260
332 651 1351
348 680 1440
365 711 1527
385 742 1616
259 495 146
272 516 258
261 534 387
240 528 492
234 528 592
241 538 681
253 559 777
266 583 873
282 613 966
297 643 1055
313 672 1150
329 702 1246
346 731 1340
363 761 1429
381 791 1516
401 823 1606
420 852 1695
314 619 161
329 646 278
316 672 420
269 667 536
259 662 644
266 666 747
278 680 842
293 702 937
309 728 1030
323 753 1124
340 782 1222
359 813 1322
377 843 1411
396 873 1499
415 902 1589
436 932 1680
455 961 1774
401 748 175
412 782 294
400 811 447
316 805 571
287 798 695
293 798 800
306 808 904
321 824 1000
336 842 1096
350 863 1191
369 893 1292
389 924 1385
408 953 1475
427 981 1565
446 1009 1657
469 1038 1756
492 1069 1855
522 887 191
524 923 312
500 952 460
382 939 594
328 936 736
324 933 853
335 936 959
348 946 1061
362 960 1156
381 980 1254
401 1008 1354
421 1036 1449
441 1065 1543
461 1091 1635
483 1119 1732
506 1148 1832
529 1178 1926
663 1035 211
660 1069 337
608 1094 480
468 1074 614
387 1075 764
359 1066 901
365 1067 1012
375 1068 1112
394 1084 1219
414 1104 1319
434 1124 1416
454 1149 1513
475 1176 1610
498 1204 1708
521 1232 1805
540 1257 1896
561 1285 1987
782 1194 255
776 1218 368
737 1237 504
573 1208 637
458 1209 779
412 1204 934
400 1199 1066
411 1201 1170
427 1208 1275
450 1228 1383
470 1246 1481
490 1265 1577
513 1291 1678
537 1319 1778
558 1344 1870
576 1367 1959
598 1395 2053
891 1358 321
869 1375 427
848 1387 541
679 1345 665
542 1332 788
478 1347 961
449 1341 1114
452 1337 1231
469 1342 1336
490 1353 1440
512 1372 1546
532 1390 1645
554 1411 1743
575 1433 1839
596 1458 1935
615 1481 2028
638 1509 2125
1019 1528 384
971 1541 501
942 1545 606
792 1491 699
640 1463 816
549 1481 978
514 1491 1158
502 1479 1288
516 1477 1396
533 1482 1497
554 1494 1601
575 1513 1708
597 1534 1808
617 1553 1906
637 1576 2003
657 1599 2101
679 1625 2199
1149 1704 447
1080 1714 574
1032 1713 684
895 1642 743
743 1605 858
629 1609 991
582 1635 1186
560 1629 1343
564 1617 1456
579 1616 1557
596 1624 1659
617 1637 1763
639 1657 1870
659 1678 1972
680 1699 2073
698 1719 2171
720 1744 2271
1278 1885 516
1197 1895 652
1132 1892 766
1026 1818 807
876 1762 905
731 1748 1022
659 1776 1205
628 1787 1389
618 1772 1519
629 1763 1624
644 1763 1723
662 1773 1826
684 1789 1933
704 1808 2038
723 1827 2141
742 1845 2243
762 1868 2344
1413 2084 600
1324 2087 734
1255 2085 850
1141 2012 898
1015 1930 950
852 1892 1058
747 1920 1228
698 1939 1421
678 1933 1579
677 1916 1687
688 1906 1782
705 1911 1886
724 1924 1993
748 1941 2101
769 1963 2211
789 1984 2317
808 2005 2421
1562 2288 679
1480 2303 827
1407 2303 946
1275 2231 1001
1168 2136 1024
1019 2063 1105
861 2069 1251
789 2102 1450
752 2106 1628
737 2088 1755
743 2076 1857
755 2067 1954
771 2075 2062
793 2093 2173
817 2113 2285
839 2136 2398
853 2150 2496
1730 2509 769
1646 2524 929
1573 2526 1049
1439 2460 1103
1318 2377 1144
1204 2275 1173
1033 2234 1281
899 2267 1465
852 2298 1671
814 2279 1816
805 2262 1939
814 2251 2039
824 2242 2135
838 2247 2243
860 2266 2355
886 2289 2470
908 2311 2581
219 68 68
247 76 140
245 76 209
229 79 277
223 88 341
221 102 409
219 116 478
222 131 550
230 153 628
239 175 707
248 197 787
257 220 866
267 243 944
279 269 1025
291 295 1109
305 324 1198
320 354 1288
290 180 99
299 191 194
296 182 261
277 180 331
263 187 402
254 200 473
249 215 549
247 235 630
252 260 714
261 286 797
272 312 880
284 338 962
297 368 1053
313 400 1144
326 428 1231
338 454 1315
