src/luts/The_Walking_Dead_-_Rec709.3dl
# Created by Benjamin (IWLTBAP) : http://luts.iwltbap.com
# Copyright: (C) Copyright 2016 Triune Films and IWLTBAP
# Blockbuster LUTs Pack
0 64 128 192 256 320 384 448 512 575 639 703 767 831 895 959 1023
46 51 72
46 52 277
47 53 519
47 53 758
47 53 993
48 53 1226
51 54 1461
54 57 1690
57 60 1920
60 63 2138
63 65 2344
67 69 2548
71 73 2755
76 78 2968
79 81 3183
83 84 3395
93 90 3605
56 205 75
70 205 277
70 210 527
70 209 763
69 207 996
69 204 1229
72 206 1468
74 210 1707
77 213 1941
81 220 2155
87 230 2356
95 244 2552
102 255 2751
109 266 2954
114 274 3162
120 285 3372
134 305 3570
55 434 78
110 446 292
127 451 529
127 453 799
127 454 1037
126 453 1250
126 451 1466
127 450 1695
130 450 1923
132 454 2134
136 461 2337
143 473 2534
149 484 2730
155 494 2928
162 505 3123
170 517 3315
182 535 3506
55 647 84
121 670 316
180 688 541
181 692 783
181 695 1049
181 694 1287
180 692 1510
179 690 1724
180 688 1935
183 691 2135
188 695 2324
193 703 2520
200 716 2713
208 731 2899
217 749 3084
227 766 3267
237 782 3450
60 856 93
129 889 320
198 921 550
242 942 768
242 944 1005
242 946 1257
244 948 1501
245 951 1729
245 949 1938
242 942 2127
241 936 2316
246 938 2505
254 949 2686
262 963 2872
271 979 3057
281 997 3238
292 1016 3414
80 1055 121
143 1095 326
215 1138 549
286 1181 773
306 1193 978
307 1197 1181
305 1193 1427
308 1197 1663
309 1201 1893
309 1201 2106
308 1195 2295
305 1186 2478
308 1187 2667
318 1199 2849
328 1215 3024
341 1237 3201
351 1256 3376
98 1277 141
162 1319 338
235 1364 550
304 1408 758
360 1443 951
374 1453 1134
376 1456 1349
376 1457 1591
379 1463 1820
382 1469 2046
383 1471 2257
383 1470 2450
380 1461 2632
376 1449 2812
386 1462 3002
395 1472 3168
408 1493 3337
121 1507 164
184 1545 352
255 1593 548
320 1640 737
381 1682 927
433 1718 1103
446 1724 1311
446 1724 1535
449 1729 1766
453 1736 1990
455 1740 2210
456 1742 2417
457 1742 2608
455 1736 2790
450 1723 2963
447 1712 3137
451 1715 3307
144 1731 180
202 1770 350
270 1817 531
332 1860 712
391 1899 898
446 1933 1082
495 1964 1289
504 1968 1505
506 1972 1720
510 1980 1944
512 1984 2167
513 1986 2381
515 1988 2578
517 1992 2764
517 1990 2944
515 1984 3119
510 1970 3285
160 1957 177
219 1994 338
285 2034 509
347 2078 687
406 2119 868
459 2151 1061
513 2188 1273
562 2221 1479
572 2224 1690
573 2225 1905
574 2227 2123
574 2228 2339
576 2232 2544
581 2241 2737
584 2247 2922
585 2249 3103
586 2251 3278
175 2188 167
233 2221 319
301 2260 482
362 2298 661
418 2335 837
474 2373 1040
528 2411 1253
581 2445 1461
630 2476 1664
646 2484 1871
646 2484 2083
645 2481 2298
644 2482 2509
648 2489 2708
652 2499 2899
655 2505 3084
658 2511 3261
189 2417 155
248 2453 297
317 2494 450
380 2529 638
437 2564 817
492 2600 1024
546 2636 1234
599 2668 1442
651 2701 1649
702 2734 1851
723 2747 2057
725 2750 2268
721 2744 2476
722 2747 2680
721 2748 2872
723 2752 3060
724 2755 3236
187 2613 133
243 2649 264
311 2691 406
377 2730 592
438 2768 777
498 2809 993
556 2850 1209
613 2889 1421
668 2925 1632
720 2958 1838
771 2990 2040
797 3005 2241
796 3006 2446
796 3007 2648
793 3002 2840
791 2997 3025
790 2996 3200
184 2807 110
237 2837 234
298 2874 364
367 2916 544
430 2953 730
490 2991 943
549 3032 1160
608 3073 1377
666 3115 1591
724 3156 1805
778 3190 2012
827 3221 2210
860 3244 2406
860 3246 2608
859 3245 2800
857 3240 2982
855 3237 3157
175 2983 88
228 3017 206
285 3052 326
353 3093 492
418 3134 678
480 3172 891
539 3209 1109
598 3250 1325
656 3292 1538
713 3331 1751
769 3368 1961
821 3402 2163
870 3435 2359
915 3466 2552
916 3467 2749
915 3468 2939
913 3462 3117
160 3153 72
216 3186 185
269 3218 298
333 3257 441
401 3300 632
462 3337 830
522 3375 1047
582 3414 1265
643 3458 1483
701 3502 1696
758 3541 1906
813 3577 2114
866 3611 2317
913 3643 2510
958 3672 2700
967 3678 2895
966 3675 3078
143 3310 61
201 3345 172
256 3379 281
318 3418 408
387 3458 600
454 3500 797
515 3538 1013
575 3575 1225
634 3614 1439
694 3657 1653
756 3703 1870
816 3744 2081
869 3778 2284
922 3810 2483
969 3844 2674
1013 3872 2864
1023 3875 3047
215 58 74
184 51 263
182 52 509
180 54 746
180 54 986
182 55 1226
185 56 1464
188 58 1697
190 61 1930
194 64 2148
206 66 2353
218 70 2557
234 74 2765
248 79 2979
260 82 3193
283 86 3404
314 90 3606
182 203 73
192 209 266
191 214 520
191 216 764
191 215 1007
193 216 1250
196 218 1492
198 222 1734
200 225 1969
204 232 2180
211 243 2378
220 256 2576
232 268 2782
243 279 2988
253 287 3198
273 299 3412
299 317 3616
170 438 76
223 453 286
250 461 524
248 462 782
248 462 1021
248 463 1251
250 464 1480
252 465 1718
254 465 1943
257 469 2153
261 478 2354
267 489 2552
273 498 2749
279 508 2946
287 519 3141
306 534 3340
333 553 3539
165 656 81
232 681 311
298 703 542
304 705 782
305 711 1051
304 711 1290
303 709 1512
302 705 1733
304 705 1947
308 708 2143
311 710 2338
316 719 2536
324 733 2728
332 749 2916
342 766 3101
352 781 3286
371 795 3473
168 867 90
240 904 321
314 938 555
364 960 776
363 961 1013
363 962 1270
364 965 1519
364 965 1748
363 961 1953
361 955 2144
361 950 2335
367 956 2514
375 966 2698
383 980 2885
393 998 3070
403 1014 3253
416 1034 3427
186 1068 122
253 1111 331
329 1154 558
403 1199 784
427 1213 994
428 1217 1197
426 1212 1452
428 1217 1688
429 1220 1917
429 1219 2127
426 1212 2314
425 1204 2499
428 1204 2682
439 1217 2858
450 1235 3034
461 1255 3213
471 1273 3387
202 1295 144
271 1338 344
347 1384 559
421 1432 770
480 1466 967
495 1475 1155
496 1477 1376
497 1479 1618
500 1485 1846
503 1491 2073
504 1493 2282
503 1489 2471
498 1477 2651
497 1470 2835
506 1480 3012
516 1491 3177
527 1511 3344
224 1527 167
291 1567 356
365 1613 555
434 1660 749
499 1703 943
553 1739 1125
567 1745 1338
567 1745 1561
571 1751 1792
574 1757 2017
575 1760 2236
576 1761 2440
576 1759 2630
573 1752 2810
569 1740 2983
565 1727 3154
572 1737 3320
247 1749 184
310 1789 357
380 1836 541
446 1880 726
508 1920 913
565 1956 1105
616 1986 1314
625 1990 1529
627 1994 1744
630 2001 1968
632 2004 2191
633 2006 2405
635 2008 2600
636 2010 2784
635 2008 2963
633 2001 3138
629 1988 3301
264 1976 183
326 2015 347
395 2056 519
460 2099 701
521 2141 884
577 2176 1086
634 2214 1299
684 2245 1504
695 2248 1714
696 2249 1929
697 2251 2148
697 2251 2365
699 2255 2568
704 2264 2757
706 2268 2941
705 2267 3120
707 2269 3292
275 2204 172
336 2237 325
408 2278 490
472 2316 675
531 2355 853
590 2395 1064
647 2434 1278
701 2468 1486
752 2499 1689
770 2509 1897
770 2509 2110
768 2505 2323
768 2507 2533
771 2512 2729
774 2520 2918
776 2524 3102
777 2526 3275
286 2426 160
348 2462 304
421 2504 458
486 2541 651
547 2578 836
604 2614 1045
659 2650 1253
713 2683 1461
769 2719 1670
820 2752 1873
843 2764 2079
844 2767 2290
841 2762 2497
843 2766 2700
842 2766 2888
843 2769 3076
843 2769 3248
286 2624 143
344 2659 278
417 2701 422
485 2740 613
549 2778 801
611 2818 1017
671 2858 1230
730 2897 1443
789 2934 1656
844 2967 1862
896 2999 2063
922 3015 2264
921 3017 2467
920 3018 2667
916 3014 2858
913 3010 3042
910 3007 3214
281 2817 127
338 2849 253
405 2886 387
477 2927 574
543 2963 762
605 3001 974
667 3042 1191
728 3082 1402
790 3122 1620
852 3164 1834
909 3199 2041
962 3229 2239
997 3252 2434
993 3250 2632
990 3249 2823
990 3248 3008
989 3245 3181
270 2996 111
328 3029 232
390 3064 356
465 3105 536
534 3145 726
599 3182 939
661 3219 1152
724 3260 1366
784 3301 1575
846 3341 1789
906 3378 1998
962 3410 2200
1014 3442 2396
1063 3473 2588
1064 3473 2785
1063 3473 2974
1062 3467 3151
251 3168 96
312 3201 215
373 3236 333
443 3274 493
516 3313 688
585 3352 897
650 3390 1111
715 3428 1326
778 3468 1537
842 3511 1749
904 3550 1960
963 3585 2164
1020 3619 2364
1073 3651 2560
1120 3680 2747
1130 3685 2940
1130 3681 3122
225 3321 83
290 3358 200
354 3396 315
423 3435 464
500 3475 661
573 3516 869
642 3555 1086
707 3591 1296
771 3629 1506
838 3671 1719
903 3714 1930
966 3753 2138
1025 3788 2339
1085 3820 2539
1138 3854 2731
1184 3881 2916
1198 3884 3099
532 99 114
458 74 272
434 53 497
424 54 734
416 56 976
403 57 1228
395 58 1472
398 60 1707
404 63 1941
412 66 2158
422 68 2364
435 72 2570
451 76 2779
465 81 2991
485 85 3203
509 89 3411
542 93 3611
506 230 107
504 233 265
414 220 510
390 227 764
378 230 1016
376 230 1266
376 230 1516
378 230 1762
384 233 1993
393 241 2203
402 250 2406
414 263 2609
424 275 2816
436 288 3022
458 298 3229
481 310 3437
509 323 3631
393 436 75
408 452 266
425 471 515
402 473 775
400 474 1027
403 478 1272
407 482 1512
409 485 1750
412 486 1978
416 490 2190
422 498 2393
430 507 2592
439 515 2791
448 524 2992
466 537 3194
490 554 3396
514 571 3590
329 658 76
353 688 298
422 715 535
440 722 774
437 724 1036
436 727 1277
439 728 1504
444 730 1738
453 732 1960
456 730 2165
460 730 2364
467 739 2563
478 753 2761
492 769 2954
508 783 3145
529 796 3338
550 811 3524
300 868 82
353 912 311
430 951 553
493 982 779
490 981 1009
487 981 1270
487 982 1524
486 980 1751
485 976 1962
487 973 2158
498 975 2342
510 980 2531
520 988 2722
533 1002 2915
550 1016 3106
570 1034 3294
591 1055 3472
295 1074 116
361 1123 328
441 1172 561
515 1214 785
549 1233 1000
550 1237 1208
548 1234 1466
549 1237 1707
550 1240 1933
549 1237 2139
547 1230 2329
550 1229 2515
565 1231 2695
584 1241 2879
602 1256 3064
618 1274 3249
634 1292 3424
304 1310 141
373 1352 342
454 1402 560
532 1449 776
597 1489 977
617 1498 1169
617 1498 1396
619 1501 1637
621 1506 1867
623 1511 2093
624 1513 2301
623 1507 2489
619 1497 2671
626 1496 2854
646 1503 3030
665 1515 3203
680 1529 3373
325 1543 167
393 1584 354
471 1631 558
543 1677 754
612 1720 954
671 1759 1143
687 1767 1358
688 1766 1582
691 1772 1813
694 1778 2041
694 1779 2260
695 1779 2462
694 1777 2650
692 1770 2828
689 1758 3003
694 1751 3174
712 1762 3337
347 1767 183
414 1805 361
486 1853 544
556 1898 735
620 1940 924
681 1977 1125
735 2008 1335
746 2012 1550
748 2016 1766
750 2021 1990
752 2023 2214
753 2026 2427
755 2029 2621
756 2030 2804
754 2026 2982
752 2018 3155
751 2014 3320
363 1991 184
429 2031 351
502 2075 525
568 2117 710
634 2161 897
694 2198 1106
755 2237 1323
807 2269 1529
820 2273 1737
822 2272 1953
822 2273 2173
822 2274 2391
825 2279 2591
830 2285 2779
831 2287 2962
830 2285 3141
831 2286 3309
377 2219 179
443 2255 336
517 2295 501
587 2333 694
651 2374 878
715 2414 1093
777 2455 1311
836 2491 1521
889 2521 1723
910 2532 1932
911 2534 2146
909 2531 2358
906 2531 2565
909 2537 2759
911 2541 2945
913 2543 3129
912 2542 3298
385 2432 172
451 2469 320
530 2511 479
602 2550 676
669 2587 868
734 2627 1084
794 2665 1294
853 2700 1502
913 2736 1712
971 2771 1917
996 2783 2123
996 2786 2333
994 2784 2540
993 2786 2739
992 2787 2925
990 2785 3108
989 2784 3279
382 2630 158
444 2665 295
523 2708 445
597 2747 642
667 2785 835
734 2825 1053
799 2865 1267
860 2902 1476
924 2940 1690
986 2976 1900
1043 3009 2102
1072 3024 2304
1072 3026 2507
1073 3029 2707
1071 3026 2899
1070 3024 3083
1067 3019 3252
377 2824 146
438 2858 275
510 2896 413
587 2937 608
657 2972 798
724 3009 1010
792 3050 1228
857 3091 1440
922 3130 1654
989 3169 1870
1051 3205 2077
1107 3237 2275
1149 3260 2471
1146 3257 2669
1144 3255 2861
1144 3253 3047
1146 3251 3222
363 3007 133
426 3039 259
493 3074 387
574 3116 578
649 3155 774
720 3192 987
787 3229 1199
855 3270 1413
919 3310 1621
985 3350 1831
1051 3388 2042
1110 3418 2243
1165 3450 2437
1219 3480 2629
1223 3480 2827
1223 3477 3016
1222 3473 3193
341 3181 119
408 3216 243
474 3251 366
551 3289 543
630 3327 741
706 3366 957
776 3404 1169
846 3441 1383
914 3481 1593
982 3523 1802
1049 3561 2011
1114 3595 2215
1174 3627 2412
1233 3658 2607
1285 3688 2796
1298 3693 2986
1298 3688 3171
308 3333 105
380 3372 228
449 3410 349
523 3448 509
611 3492 719
689 3531 931
765 3570 1149
837 3606 1360
908 3645 1570
978 3686 1780
1048 3727 1989
1115 3764 2193
1179 3798 2392
1242 3830 2590
1301 3862 2783
1351 3888 2965
1367 3891 3149
833 138 153
760 121 305
723 78 521
689 57 740
677 58 978
665 58 1224
653 60 1471
643 62 1714
638 64 1949
638 67 2168
646 71 2379
659 75 2588
675 79 2798
694 84 3006
716 88 3215
743 92 3421
782 96 3620
837 271 154
844 276 294
725 248 527
667 229 769
647 231 1017
630 235 1271
617 236 1524
609 239 1770
607 244 2001
611 252 2212
619 261 2417
631 273 2622
648 287 2827
667 300 3035
685 310 3243
708 322 3445
