src/luts/The_Lord_of_the_Rings_-_Rec709.3dl
# Created by Benjamin (IWLTBAP) : http://luts.iwltbap.com
# Copyright: (C) Copyright 2016 Triune Films and IWLTBAP
# Blockbuster LUTs Pack
0 64 128 192 256 320 384 448 512 576 640 704 768 832 896 960 1023
23 21 20
29 26 60
34 32 163
75 51 286
116 89 418
156 123 549
184 151 675
210 175 814
233 195 952
270 226 1097
327 230 1397
406 247 1746
501 285 2082
610 342 2422
709 402 2724
767 440 2910
789 455 2988
29 67 26
36 92 86
63 131 200
105 169 326
146 208 461
183 242 590
214 275 720
236 295 854
262 312 1014
295 320 1246
353 315 1546
417 325 1826
489 352 2083
550 381 2283
591 404 2415
618 421 2509
624 429 2546
50 200 36
75 223 135
100 252 245
148 294 372
184 330 503
215 364 627
245 396 761
265 417 915
284 422 1125
314 411 1375
362 409 1632
418 424 1845
467 438 2005
514 461 2154
547 479 2270
584 502 2390
597 521 2438
111 339 93
140 368 194
163 396 301
189 422 420
222 458 542
257 497 674
273 524 822
277 532 1001
288 528 1214
325 526 1436
371 535 1619
413 541 1770
454 552 1911
496 569 2052
536 589 2186
570 610 2300
585 636 2356
170 480 154
198 511 253
217 534 359
242 564 475
271 600 599
294 633 733
293 651 890
291 654 1073
313 657 1263
346 653 1415
386 659 1576
427 669 1726
468 683 1873
511 702 2020
550 720 2151
589 750 2282
614 784 2355
230 618 214
254 646 311
275 674 419
306 715 540
327 749 657
324 784 792
310 795 942
324 797 1100
354 801 1255
388 804 1415
428 814 1574
464 824 1721
507 840 1876
552 865 2032
595 888 2180
637 915 2318
658 943 2384
296 762 278
321 804 379
344 837 489
360 876 595
358 917 698
357 946 828
362 948 963
382 952 1112
410 955 1262
442 964 1423
483 981 1588
522 999 1747
567 1019 1910
606 1039 2058
648 1060 2206
680 1078 2329
708 1108 2417
363 925 348
383 955 443
404 1005 547
409 1063 632
415 1105 738
424 1113 860
430 1108 986
451 1119 1135
483 1136 1298
515 1147 1461
552 1164 1623
591 1184 1786
631 1201 1944
674 1227 2103
716 1252 2259
754 1272 2396
775 1289 2482
434 1086 414
454 1142 503
473 1216 586
489 1267 678
506 1291 789
515 1295 907
527 1303 1041
546 1317 1193
573 1335 1357
607 1351 1523
644 1373 1691
678 1388 1850
719 1412 2017
761 1435 2179
800 1458 2333
835 1476 2475
855 1483 2567
523 1289 491
553 1379 570
576 1444 647
592 1467 742
605 1481 847
620 1498 972
634 1510 1107
652 1526 1260
674 1544 1422
700 1558 1586
736 1581 1755
774 1605 1924
817 1633 2098
854 1654 2257
890 1672 2411
913 1672 2534
924 1660 2620
635 1546 570
666 1625 646
683 1652 723
700 1673 816
716 1695 925
728 1708 1048
741 1717 1182
759 1734 1333
781 1755 1496
806 1777 1666
839 1801 1836
877 1828 2009
912 1847 2174
947 1864 2332
980 1881 2485
1003 1880 2616
1009 1857 2702
757 1803 661
782 1844 735
797 1867 811
813 1889 903
827 1906 1010
840 1921 1131
851 1929 1262
874 1955 1418
900 1983 1586
921 2003 1751
943 2020 1915
975 2040 2085
1008 2058 2246
1040 2074 2404
1071 2088 2558
1096 2090 2698
1104 2068 2802
884 2042 767
897 2061 828
904 2070 895
913 2081 982
927 2100 1087
949 2129 1215
965 2147 1352
984 2168 1504
1003 2185 1660
1023 2203 1823
1044 2221 1984
1068 2240 2149
1100 2261 2315
1134 2281 2478
1167 2298 2640
1190 2299 2782
1201 2281 2896
990 2245 853
996 2253 910
1007 2269 983
1018 2283 1070
1033 2304 1176
1052 2329 1299
1066 2341 1431
1086 2365 1582
1108 2390 1742
1129 2410 1905
1148 2426 2065
1173 2449 2231
1194 2463 2390
1229 2486 2558
1256 2495 2714
1275 2489 2855
1297 2490 2992
1101 2455 948
1096 2447 997
1107 2462 1068
1120 2481 1158
1132 2496 1261
1149 2517 1381
1167 2538 1518
1188 2562 1667
1212 2589 1830
1226 2601 1982
1250 2625 2143
1270 2643 2303
1287 2653 2459
1315 2676 2622
1340 2682 2778
1363 2683 2926
1387 2687 3070
1181 2614 1020
1177 2607 1065
1183 2615 1134
1197 2633 1225
1211 2652 1332
1229 2676 1455
1237 2682 1583
1261 2712 1735
1285 2739 1894
1304 2758 2046
1323 2777 2197
1342 2793 2353
1357 2800 2504
1362 2792 2640
1389 2808 2796
1426 2834 2962
1465 2860 3141
1216 2699 1052
1209 2685 1100
1220 2701 1181
1229 2712 1276
1248 2737 1399
1271 2768 1532
1291 2794 1672
1314 2821 1823
1330 2836 1969
1344 2849 2112
1363 2867 2259
1393 2901 2424
1415 2923 2571
1442 2953 2727
1476 2988 2891
1521 3031 3062
1549 3045 3212
68 24 23
101 30 73
136 37 187
177 77 314
205 116 446
239 149 574
268 174 699
298 204 843
327 222 1007
366 225 1253
423 227 1563
505 254 1889
598 302 2212
689 354 2502
744 388 2688
776 413 2798
802 432 2893
118 98 32
138 125 114
169 160 230
202 197 358
238 237 488
272 272 617
300 302 749
320 314 910
338 312 1118
378 309 1373
432 315 1640
495 335 1888
560 361 2126
625 397 2346
686 432 2543
731 460 2695
739 474 2747
163 228 64
176 258 165
199 283 275
237 323 404
272 363 530
303 396 659
321 420 813
327 418 991
348 409 1216
388 408 1453
442 421 1685
492 435 1896
548 453 2103
601 481 2286
654 507 2456
693 537 2592
700 559 2636
203 363 119
229 397 224
251 425 333
278 457 451
310 493 578
329 523 715
330 532 876
337 530 1067
361 530 1272
396 529 1486
445 542 1694
498 557 1892
548 577 2077
599 601 2251
645 629 2409
677 648 2518
669 672 2507
261 504 182
286 537 285
302 567 389
326 591 501
343 628 625
347 653 768
341 657 928
352 658 1113
379 664 1306
418 671 1511
465 685 1705
512 699 1887
555 714 2045
598 734 2193
641 760 2334
677 786 2447
689 823 2482
322 646 245
345 681 345
370 715 459
377 752 562
379 781 675
374 802 810
368 807 965
383 815 1144
415 823 1332
452 832 1521
500 849 1703
546 865 1871
587 879 2021
634 905 2184
674 928 2322
711 951 2443
735 991 2510
389 803 314
408 837 408
416 879 504
417 922 601
413 947 703
413 968 839
415 979 995
439 991 1172
473 1002 1353
506 1004 1518
549 1022 1693
592 1039 1862
637 1063 2028
682 1086 2188
728 1112 2345
757 1129 2455
790 1169 2552
458 961 379
458 1011 459
468 1071 544
470 1112 632
476 1143 745
484 1162 881
486 1159 1025
507 1165 1189
540 1177 1362
579 1195 1544
622 1218 1724
664 1239 1897
711 1265 2069
748 1281 2221
791 1306 2375
825 1324 2502
855 1352 2606
524 1154 442
535 1230 512
548 1287 589
558 1324 685
570 1352 801
581 1363 937
587 1360 1078
604 1372 1241
633 1388 1418
670 1407 1600
712 1431 1780
754 1456 1957
796 1480 2128
832 1494 2281
874 1518 2440
902 1527 2566
938 1555 2690
614 1393 512
635 1467 579
651 1516 658
664 1543 754
671 1553 863
684 1564 997
701 1581 1150
719 1593 1309
741 1610 1483
769 1626 1660
805 1645 1835
846 1672 2015
885 1695 2184
924 1716 2347
958 1729 2499
984 1733 2627
1015 1751 2757
728 1656 598
746 1705 666
762 1740 742
771 1753 835
783 1767 945
798 1782 1077
811 1792 1221
825 1802 1377
847 1822 1552
873 1844 1731
907 1869 1910
943 1889 2083
978 1908 2249
1018 1932 2421
1051 1945 2575
1077 1948 2711
1114 1972 2860
848 1898 692
865 1938 763
875 1957 833
883 1965 920
897 1983 1031
911 1999 1162
923 2009 1304
944 2031 1469
965 2049 1636
986 2066 1809
1013 2090 1986
1044 2108 2157
1077 2126 2324
1106 2135 2482
1136 2147 2633
1164 2152 2777
1208 2186 2945
951 2087 779
975 2153 856
983 2163 923
985 2162 1002
1000 2180 1111
1013 2197 1238
1029 2214 1383
1053 2240 1547
1075 2263 1715
1095 2279 1887
1115 2295 2054
1134 2306 2216
1161 2317 2378
1195 2334 2541
1224 2346 2697
1261 2367 2861
1307 2401 3033
1049 2278 868
1074 2341 938
1077 2346 1002
1085 2356 1087
1102 2378 1197
1119 2400 1326
1137 2419 1470
1157 2440 1630
1179 2460 1795
1202 2482 1966
1222 2498 2130
1241 2510 2293
1258 2518 2448
1280 2523 2600
1312 2540 2759
1353 2566 2930
1401 2606 3104
1155 2482 964
1176 2537 1026
1182 2545 1092
1186 2549 1175
1200 2565 1282
1214 2582 1409
1237 2607 1558
1260 2633 1716
1279 2652 1877
1291 2658 2030
1306 2670 2187
1326 2686 2349
1342 2693 2505
1370 2711 2665
1407 2738 2831
1448 2769 3002
1484 2795 3166
1225 2626 1027
1240 2669 1081
1247 2679 1151
1263 2701 1246
1282 2724 1363
1299 2743 1493
1314 2760 1630
1327 2773 1777
1349 2797 1937
1365 2810 2094
1388 2831 2257
1407 2846 2413
1433 2871 2575
1454 2888 2726
1491 2918 2897
1528 2947 3062
1569 2979 3230
1262 2714 1061
1287 2773 1130
1297 2787 1213
1319 2815 1325
1338 2840 1452
1360 2868 1591
1382 2895 1739
1408 2927 1895
1433 2956 2055
1458 2984 2214
1484 3012 2373
1512 3042 2533
1542 3075 2689
1563 3094 2838
1594 3126 2996
1634 3162 3160
1659 3170 3307
187 31 29
218 39 103
246 69 217
280 108 341
312 144 476
339 174 602
368 207 734
395 234 884
421 216 1120
470 209 1401
533 229 1707
613 264 2012
690 311 2296
741 347 2482
778 376 2615
816 407 2750
843 429 2857
226 134 44
251 155 148
276 184 261
306 224 384
337 265 514
373 302 645
392 323 790
407 322 981
431 307 1221
471 307 1470
519 319 1714
574 341 1944
629 366 2160
685 402 2358
737 435 2538
776 463 2679
769 474 2701
266 259 91
291 285 195
313 315 307
346 354 434
378 392 563
395 423 695
400 429 869
405 413 1068
432 409 1289
467 409 1500
514 424 1723
563 442 1920
614 466 2114
661 492 2287
705 521 2448
739 544 2574
738 571 2608
319 394 147
342 422 253
366 455 361
397 491 481
408 523 608
406 541 754
394 532 919
405 527 1113
435 533 1316
471 539 1519
514 550 1718
562 568 1906
607 589 2085
655 614 2253
695 640 2402
734 672 2533
745 712 2591
377 538 212
405 569 315
427 599 424
433 627 531
415 647 646
406 661 789
401 658 954
419 663 1142
449 672 1335
489 682 1531
531 696 1720
576 714 1901
623 738 2077
672 767 2243
717 798 2397
753 829 2529
778 875 2615
444 680 277
468 715 379
481 751 481
458 786 573
435 803 679
431 814 819
431 817 982
455 828 1165
488 839 1354
525 852 1545
569 871 1730
616 893 1913
661 916 2085
705 941 2247
750 970 2405
786 997 2537
820 1042 2646
510 838 344
523 884 432
503 925 507
481 959 598
474 976 708
477 989 849
482 995 1009
507 1008 1191
544 1027 1380
580 1040 1568
622 1059 1750
666 1081 1930
712 1106 2103
755 1130 2265
800 1159 2426
840 1190 2567
882 1232 2699
579 1019 409
564 1079 470
539 1127 540
540 1154 635
544 1172 751
551 1186 893
558 1192 1049
577 1203 1224
613 1222 1412
650 1240 1600
692 1261 1783
738 1287 1964
783 1312 2140
828 1340 2308
871 1366 2467
908 1391 2610
950 1426 2757
628 1241 452
621 1305 521
627 1345 600
632 1367 696
641 1386 813
652 1401 956
661 1410 1110
678 1422 1284
708 1442 1468
744 1461 1654
784 1483 1837
828 1509 2017
872 1537 2193
911 1558 2358
950 1580 2518
983 1596 2662
1030 1634 2822
706 1496 529
719 1539 600
727 1567 675
734 1586 769
746 1604 885
757 1617 1022
773 1634 1179
791 1648 1350
813 1664 1528
848 1690 1719
882 1709 1895
921 1731 2073
961 1756 2246
995 1770 2408
1029 1787 2567
1066 1809 2719
1119 1851 2896
807 1722 612
827 1771 690
838 1791 763
845 1807 854
857 1823 967
869 1836 1102
888 1857 1261
910 1876 1431
933 1897 1612
957 1916 1789
988 1935 1966
1025 1959 2143
1058 1975 2309
1087 1988 2467
1124 2006 2632
1164 2033 2795
1216 2075 2974
917 1930 710
942 1996 787
950 2012 857
955 2021 943
968 2038 1056
989 2061 1198
1004 2076 1349
1023 2093 1513
1047 2118 1689
1065 2131 1860
1086 2145 2029
1119 2167 2202
1150 2183 2369
1180 2197 2530
1219 2222 2698
1262 2252 2866
1306 2285 3039
1022 2134 806
1043 2198 871
1057 2218 949
1065 2230 1036
1074 2241 1143
1093 2264 1278
1109 2280 1427
1127 2298 1589
1152 2322 1763
1176 2344 1938
1193 2357 2102
1215 2373 2268
1242 2386 2429
1271 2400 2589
1313 2430 2763
1361 2469 2944
1406 2504 3118
1130 2345 905
1147 2399 961
1158 2414 1036
1168 2427 1126
1179 2440 1235
1199 2463 1370
1212 2477 1511
1235 2502 1675
1258 2525 1847
1281 2548 2016
1299 2563 2178
1319 2577 2342
1339 2590 2502
1366 2603 2657
1409 2637 2836
1454 2674 3012
1503 2717 3193
1225 2536 994
1239 2581 1045
1252 2597 1119
1259 2606 1207
1271 2620 1316
1293 2645 1455
1314 2671 1604
1337 2696 1764
1357 2717 1925
1371 2728 2081
1385 2738 2236
1408 2759 2402
1431 2777 2564
1467 2814 2738
1508 2847 2912
1554 2886 3092
1591 2911 3258
1303 2697 1066
1310 2726 1108
1322 2740 1181
1337 2760 1280
1357 2785 1403
1376 2809 1538
1394 2831 1681
1410 2848 1829
1432 2871 1990
1453 2894 2153
1480 2922 2321
1511 2955 2488
1539 2984 2652
1563 3008 2811
1597 3038 2980
1636 3069 3151
1677 3100 3323
1345 2794 1105
1359 2833 1158
1375 2854 1247
1405 2895 1369
1432 2933 1506
1459 2970 1651
1484 3004 1802
1509 3036 1959
1543 3077 2130
1568 3106 2290
1596 3136 2456
1624 3167 2617
1655 3200 2780
1681 3226 2936
1708 3253 3094
1746 3285 3256
1770 3295 3401
322 58 50
340 81 143
363 106 252
397 140 374
428 168 500
463 206 631
489 232 776
505 207 977
536 191 1229
589 203 1508
662 232 1808
728 271 2076
771 309 2265
804 340 2405
849 379 2575
879 406 2702
889 419 2785
352 173 86
375 200 189
400 224 295
433 260 418
469 301 549
499 326 687
508 323 856
504 295 1059
525 291 1286
565 300 1524
614 319 1759
663 345 1975
710 376 2178
754 406 2361
800 442 2532
830 468 2662
