src/luts/The_Matrix_-_Rec709.3dl
# Created by Benjamin (IWLTBAP) : http://luts.iwltbap.com
# Copyright: (C) Copyright 2016 Triune Films and IWLTBAP
# Blockbuster LUTs Pack
0 256 512 768 1023
16 0 32
0 51 336
0 217 711
0 502 1151
0 883 1654
221 770 265
152 816 739
0 978 1196
0 1225 1598
0 1510 2035
674 2072 610
687 2079 988
546 2132 1700
289 2241 2270
177 2417 2690
1164 3064 1017
1180 3072 1365
1214 3083 1965
935 3141 2746
578 3288 3304
1879 3838 1654
1911 3838 2035
1927 3838 2521
1904 3874 3159
1526 4015 3806
614 44 112
482 111 581
176 275 1092
0 542 1448
0 918 1859
678 847 227
680 868 771
446 1061 1296
399 1304 1729
470 1587 2178
1024 2115 508
1064 2108 1075
876 2159 1746
711 2288 2327
691 2474 2786
1480 3098 905
1557 3086 1441
1542 3096 2033
1198 3156 2762
956 3320 3377
2243 3854 1590
2333 3839 2080
2369 3848 2593
2325 3883 3204
2018 4015 3822
1698 217 269
1386 357 735
1357 482 1323
1174 695 1984
655 996 2529
1536 1056 485
1968 931 787
1817 1046 1537
1203 1298 2216
911 1637 2663
1881 2190 512
1941 2187 1012
1865 2212 1770
1669 2349 2366
1293 2604 3065
2196 3144 788
2179 3145 1267
2214 3128 2166
1897 3194 2805
1466 3396 3549
2850 3870 1594
2878 3870 2060
2945 3870 2598
2919 3904 3216
2722 4019 3870
2923 522 422
2791 639 921
2379 844 1509
2474 955 2184
2446 1141 2895
2833 1271 618
3051 1162 931
2837 1331 1646
2695 1507 2328
2481 1689 3122
2781 2296 938
2952 2261 1250
3201 2203 1763
3068 2295 2617
2488 2446 3548
3051 3189 988
3065 3190 1392
3128 3180 2042
2953 3223 2876
2714 3390 3701
3558 3902 1770
3562 3902 2224
3574 3918 2677
3592 3951 3206
3500 4031 3954
3822 819 658
3790 879 1119
3469 1148 1750
3260 1337 2325
3421 1413 3083
3835 1439 725
3915 1376 1109
3643 1652 1846
3453 1803 2497
3533 1899 3253
3629 2425 1160
3736 2384 1458
4071 2250 1863
3708 2469 2782
3653 2585 3445
3730 3256 1420
3772 3256 1725
3805 3253 2272
4079 3174 2845
3858 3317 3653
4095 3983 2377
4095 3983 2690
4095 3999 3075
4095 4019 3602
4095 4079 4095
