src/luts/The_Revenant_-_Rec709.3dl
# Created by Benjamin (IWLTBAP) : http://luts.iwltbap.com
# Copyright: (C) Copyright 2016 Triune Films and IWLTBAP
# Blockbuster LUTs Pack
0 128 256 384 512 640 768 896 1023
0 0 0
2 23 72
6 81 238
17 224 480
35 374 715
64 530 976
104 686 1260
148 815 1508
197 950 1801
29 287 147
30 336 365
38 394 569
57 495 794
82 605 1044
120 736 1313
160 847 1558
202 964 1821
231 1042 1996
110 724 485
118 739 625
133 772 842
155 833 1111
180 904 1383
202 963 1617
232 1045 1871
255 1126 2075
272 1189 2219
267 1193 808
274 1206 953
282 1229 1188
295 1282 1483
313 1345 1769
333 1409 2035
352 1468 2276
359 1489 2465
373 1533 2647
430 1709 1165
444 1747 1323
453 1773 1550
465 1804 1843
486 1862 2150
508 1929 2430
535 2005 2711
542 2027 2933
548 2046 3148
612 2247 1547
620 2267 1692
636 2312 1925
649 2346 2210
659 2373 2499
680 2434 2788
709 2518 3098
723 2559 3351
737 2598 3557
775 2729 1914
788 2765 2055
807 2817 2278
826 2869 2572
836 2895 2848
844 2915 3127
873 2999 3436
901 3080 3575
911 3110 3573
935 3200 2272
947 3235 2410
963 3277 2627
980 3325 2895
985 3335 3174
985 3331 3440
980 3314 3563
981 3315 3560
981 3315 3560
1064 3579 2668
1056 3553 2790
1039 3498 2970
1016 3428 3198
991 3348 3453
983 3324 3531
1011 3332 3533
1673 3491 3651
2397 3670 3773
78 12 12
136 26 133
77 87 332
21 227 556
40 405 811
69 555 1067
112 710 1337
155 835 1594
205 970 1869
173 285 142
191 324 355
97 385 589
53 477 795
81 601 1061
115 721 1311
155 835 1556
196 948 1808
231 1041 2015
195 716 480
209 742 640
165 773 849
153 828 1119
177 894 1386
198 953 1614
223 1019 1840
248 1101 2058
276 1204 2275
265 1185 806
273 1202 963
281 1225 1194
292 1269 1478
310 1336 1762
329 1397 2031
345 1450 2272
358 1488 2483
376 1539 2687
431 1711 1165
440 1735 1325
456 1780 1565
463 1797 1844
480 1844 2133
508 1928 2422
529 1988 2702
544 2032 2950
547 2042 3160
607 2233 1544
621 2271 1705
634 2305 1931
645 2336 2210
656 2364 2495
681 2436 2801
707 2513 3102
726 2568 3365
732 2584 3549
773 2723 1905
788 2764 2067
803 2807 2287
822 2858 2570
836 2894 2854
845 2917 3147
871 2994 3438
899 3075 3575
912 3114 3573
940 3215 2284
947 3232 2419
966 3285 2640
981 3326 2901
986 3338 3183
989 3342 3454
980 3314 3563
981 3316 3560
981 3315 3561
1063 3577 2675
1054 3546 2801
1039 3498 2972
1016 3426 3204
991 3347 3459
983 3324 3532
1159 3366 3563
1907 3548 3690
2601 3721 3808
304 35 35
420 59 200
454 106 444
378 244 681
126 392 891
69 552 1129
105 688 1366
157 840 1663
201 959 1907
512 324 200
552 317 401
546 391 647
452 489 900
173 585 1123
108 698 1352
150 822 1598
198 951 1863
238 1065 2128
605 796 530
604 788 699
565 822 921
462 861 1177
243 892 1414
193 939 1649
220 1012 1877
249 1103 2110
275 1201 2331
596 1258 861
578 1265 1017
508 1268 1227
359 1267 1488
308 1323 1770
322 1373 2036
340 1433 2287
354 1476 2497
369 1519 2698
577 1730 1185
552 1750 1340
488 1759 1559
460 1787 1841
477 1837 2139
504 1915 2436
525 1978 2716
539 2018 2958
545 2037 3174
642 2232 1551
640 2266 1700
632 2299 1926
646 2338 2216
655 2361 2497
679 2428 2804
704 2502 3106
723 2560 3375
730 2579 3558
777 2721 1925
793 2762 2067
801 2800 2294
818 2846 2574
832 2882 2856
847 2924 3152
872 2997 3451
898 3072 3576
908 3101 3574
940 3200 2285
954 3250 2436
959 3266 2640
977 3314 2904
984 3332 3174
986 3332 3465
980 3314 3563
981 3316 3559
1090 3342 3578
1061 3567 2666
1054 3548 2805
1036 3490 2996
1015 3423 3212
990 3346 3463
1004 3330 3532
1523 3454 3627
2273 3639 3752
2846 3780 3857
597 92 113
738 127 288
797 163 487
824 264 776
775 419 1065
655 578 1318
329 714 1533
174 819 1761
194 940 2003
833 333 264
883 340 428
944 401 698
936 502 1011
851 627 1289
670 758 1525
382 851 1740
186 919 1936
223 1019 2163
977 808 513
1011 792 704
1045 848 995
1017 932 1293
930 994 1558
753 1034 1789
416 1035 1969
261 1074 2162
269 1178 2384
1084 1375 923
1106 1381 1106
1102 1388 1331
1049 1417 1615
936 1454 1894
767 1458 2131
471 1437 2338
357 1465 2556
362 1499 2751
1145 1857 1310
1148 1881 1445
1117 1900 1671
1020 1900 1934
871 1927 2222
684 1944 2485
538 1960 2740
533 2000 2985
541 2024 3205
1198 2363 1668
1177 2374 1791
1113 2400 2014
980 2401 2279
802 2381 2528
707 2422 2813
697 2484 3112
717 2542 3382
723 2558 3572
1243 2838 2015
1216 2850 2142
1129 2869 2348
973 2874 2607
856 2880 2865
844 2913 3153
869 2987 3460
895 3061 3576
943 3101 3581
1276 3279 2357
1235 3285 2481
1151 3313 2680
1043 3324 2917
997 3338 3192
984 3326 3463
989 3317 3562
1107 3346 3580
1595 3468 3652
1359 3638 2734
1319 3609 2862
1221 3537 3019
1099 3441 3235
1016 3351 3469
1309 3403 3588
2018 3575 3709
2620 3725 3813
3164 3860 3917
922 180 222
1085 235 375
1154 265 566
1247 343 860
1238 455 1178
1194 607 1463
1146 783 1759
1020 961 2033
787 1052 2219
1182 365 336
1263 392 488
1344 436 728
1371 512 1030
1352 643 1382
1288 765 1652
1175 927 1930
991 1067 2163
729 1116 2325
1356 763 533
1426 730 702
1470 792 962
1477 886 1292
1453 991 1632
1372 1071 1899
1255 1168 2155
1039 1235 2354
790 1266 2526
1545 1433 931
1573 1421 1093
1580 1420 1355
1582 1501 1709
1540 1559 2008
1464 1594 2274
1327 1607 2508
1163 1619 2715
922 1592 2860
1645 2002 1350
1645 2005 1524
1642 2013 1773
1601 2019 2038
1547 2064 2336
1461 2103 2627
1329 2123 2881
1164 2124 3105
1012 2104 3293
1706 2472 1768
1690 2485 1889
1673 2526 2123
1603 2532 2382
1517 2540 2648
1419 2586 2954
1252 2595 3216
1094 2603 3465
988 2598 3643
1750 2944 2114
1742 2969 2256
1706 3008 2470
1616 3024 2720
1502 3024 2972
1360 3029 3246
1208 3062 3534
1235 3119 3634
1556 3239 3682
1812 3395 2466
1791 3427 2600
1735 3449 2786
1644 3464 3030
1527 3452 3277
1350 3419 3534
1456 3431 3639
1734 3500 3682
2075 3585 3734
1851 3760 2839
1838 3729 2969
1776 3666 3133
1665 3575 3342
1582 3488 3567
1997 3570 3706
2531 3703 3796
3011 3821 3890
3485 3941 3973
1289 293 350
1418 332 462
1521 367 637
1628 429 919
1665 515 1223
1677 646 1564
1632 802 1872
1581 966 2157
1492 1129 2420
1554 422 436
1598 444 543
1697 489 751
1773 557 1065
1794 662 1410
1753 797 1758
1685 922 2017
1602 1080 2293
1481 1229 2533
1718 713 576
1779 690 696
1852 756 940
1908 854 1274
1895 960 1636
1853 1070 1982
1791 1161 2228
1685 1271 2485
1565 1386 2720
1937 1310 908
1970 1298 1038
2011 1265 1270
2041 1401 1644
2020 1546 2057
1989 1606 2345
1922 1657 2605
1827 1712 2848
1723 1747 3046
2082 2064 1346
2109 2079 1507
2121 2084 1782
2109 2107 2136
2110 2181 2462
2064 2231 2752
1980 2248 3016
1898 2270 3260
1826 2272 3477
2164 2581 1788
2173 2596 1955
2164 2623 2211
2150 2646 2492
2104 2663 2765
2053 2714 3059
1974 2754 3357
1891 2786 3611
1824 2786 3770
2217 3044 2210
2229 3078 2360
2214 3118 2567
2181 3146 2827
2108 3149 3083
2028 3169 3364
1940 3222 3650
1968 3285 3757
2164 3370 3785
2274 3498 2567
2274 3518 2690
2242 3565 2883
2208 3594 3128
2116 3592 3385
2018 3576 3656
2101 3590 3746
2300 3640 3777
2533 3700 3809
2311 3866 2940
2302 3843 3056
2267 3782 3237
2199 3704 3440
2245 3645 3700
2632 3727 3819
3066 3835 3897
3425 3926 3963
3841 4030 4048
1646 393 447
1756 421 539
1847 450 702
1970 506 958
2044 589 1287
2078 693 1610
2066 837 1963
2056 985 2273
2004 1140 2541
1888 490 515
1937 505 595
2022 540 776
2130 608 1078
2174 690 1407
2183 814 1789
2144 956 2129
2086 1092 2405
2017 1234 2648
2064 694 623
2111 680 710
2195 730 909
2272 822 1245
2308 921 1601
2293 1042 1992
2244 1162 2316
2195 1264 2577
2105 1370 2799
2283 1205 893
2332 1178 998
2385 1153 1199
2467 1272 1555
2468 1412 1971
2433 1564 2371
2394 1633 2655
2332 1662 2885
2253 1715 3109
2482 1918 1314
2517 1918 1430
2553 1905 1679
2576 1946 2040
2580 2130 2454
2563 2235 2803
2536 2301 3110
2482 2338 3365
2407 2339 3585
2625 2664 1797
2638 2677 1953
2653 2714 2227
2634 2728 2562
2630 2770 2868
2609 2822 3170
2572 2877 3472
2515 2902 3745
2451 2902 3879
2692 3134 2237
2690 3161 2403
2687 3217 2665
2673 3245 2926
2649 3268 3202
2600 3297 3479
2546 3350 3764
2589 3416 3865
2736 3486 3886
2713 3598 2673
2719 3634 2804
2735 3669 3005
2716 3709 3244
2666 3722 3500
2597 3717 3760
2677 3733 3844
2846 3776 3872
3044 3828 3899
2730 3963 3037
2750 3943 3175
2724 3891 3333
2752 3833 3567
2896 3801 3835
3224 3875 3928
3562 3961 3988
3903 4046 4059
4073 4089 4091
1956 468 525
2071 496 610
2169 522 748
2301 580 1010
2398 651 1305
2464 748 1666
2488 870 2018
2468 1035 2379
2464 1179 2675
2205 548 587
2264 571 673
2351 603 831
2465 662 1110
2528 737 1420
2556 835 1773
2542 967 2144
2516 1122 2495
2511 1287 2807
2374 674 671
2427 698 756
2533 739 930
2614 812 1228
2667 903 1582
2683 1010 1956
2647 1134 2319
2613 1275 2657
2531 1378 2904
2596 1095 881
2658 1066 980
2746 1070 1157
2841 1172 1487
2873 1288 1886
2857 1427 2295
2806 1566 2672
2748 1616 2922
2676 1668 3151
2831 1771 1268
2877 1753 1375
2940 1719 1593
3007 1763 1935
3034 1942 2357
3012 2121 2778
2978 2249 3142
2947 2265 3372
2889 2290 3619
2992 2483 1733
3035 2496 1890
3070 2543 2160
3095 2545 2464
3098 2697 2866
3098 2856 3239
3077 2933 3560
3038 2962 3833
2996 2990 3992
3098 3199 2252
3130 3239 2434
3148 3280 2686
3135 3319 2989
3128 3356 3296
3110 3407 3590
3091 3464 3873
3131 3516 3962
3248 3578 3979
3052 3633 2682
3092 3681 2855
3129 3756 3106
3159 3800 3352
3151 3822 3613
3102 3826 3856
3229 3863 3941
3363 3906 3955
3607 3970 4003
2971 4017 3147
3000 3993 3263
3046 3954 3452
3233 3937 3714
3456 3940 3944
3788 4017 4034
4041 4081 4085
4084 4092 4093
4095 4095 4095
2270 532 586
2384 557 670
2494 589 811
2619 647 1054
2740 718 1348
2793 794 1675
2867 916 2050
2837 1047 2413
2858 1232 2798
2454 587 637
2544 618 720
2623 647 866
2753 708 1122
2839 780 1440
2888 866 1789
2934 983 2150
2922 1132 2529
2898 1312 2892
2641 692 708
2737 711 790
2815 741 943
2924 813 1216
2991 893 1558
3041 1003 1955
3039 1122 2326
3005 1261 2677
2962 1403 2988
2892 1005 877
2947 954 953
3065 997 1128
3162 1076 1425
3215 1182 1829
3230 1296 2223
3194 1420 2594
3156 1554 2927
3089 1635 3202
3161 1619 1226
3220 1586 1335
3302 1510 1503
3399 1590 1846
3442 1743 2262
3444 1907 2674
3417 2057 3055
3375 2187 3397
3314 2191 3628
3297 2313 1696
3358 2307 1856
3428 2296 2062
3507 2284 2365
3553 2436 2746
3547 2668 3170
3517 2860 3563
3513 2917 3857
3475 2919 3998
3312 3139 2257
3356 3167 2417
3411 3193 2650
3481 3234 2960
3556 3289 3300
3606 3442 3654
3605 3519 3949
3677 3596 4051
3745 3615 4054
3262 3641 2714
3298 3693 2892
3342 3753 3117
3402 3828 3418
3473 3879 3690
3545 3909 3950
3742 3982 4034
3937 4053 4067
4037 4080 4085
3190 4055 3248
3225 4031 3372
3320 4006 3563
3473 3981 3816
3764 4012 4025
4042 4081 4085
4093 4095 4095
4095 4095 4095
4095 4095 4095
