src/luts/The_Matrix_-_Rec709.3dl
# Created by Benjamin (IWLTBAP) : http://luts.iwltbap.com
# Copyright: (C) Copyright 2016 Triune Films and IWLTBAP
# Blockbuster LUTs Pack
0 128 256 384 512 640 768 896 1023
16 0 32
0 16 176
0 51 336
0 126 508
0 217 711
0 343 921
0 502 1151
0 692 1401
0 883 1654
48 237 110
2 282 346
11 333 519
20 397 691
2 491 880
0 627 1089
0 798 1322
0 979 1560
0 1154 1798
221 770 265
218 780 447
152 816 739
13 889 992
0 978 1196
0 1098 1393
0 1225 1598
0 1366 1813
0 1510 2035
441 1427 431
450 1431 595
443 1446 836
379 1479 1192
200 1533 1496
26 1613 1734
0 1714 1945
0 1829 2144
0 1963 2349
674 2072 610
679 2072 768
687 2079 988
659 2096 1293
546 2132 1700
480 2159 2013
289 2241 2270
239 2322 2488
177 2417 2690
911 2594 803
921 2594 961
927 2598 1165
943 2608 1452
905 2622 1810
744 2654 2225
688 2693 2515
504 2782 2789
490 2850 3011
1164 3064 1017
1164 3067 1173
1180 3072 1365
1196 3079 1644
1214 3083 1965
1136 3100 2351
935 3141 2746
758 3205 3042
578 3288 3304
1417 3493 1241
1417 3494 1396
1420 3505 1587
1434 3505 1847
1429 3507 2130
1465 3511 2511
1280 3542 2887
1042 3573 3239
510 3700 3587
1879 3838 1654
1895 3838 1827
1911 3838 2035
1927 3838 2284
1927 3838 2521
2001 3854 2855
1904 3874 3159
1702 3920 3457
1526 4015 3806
269 2 48
190 32 285
95 64 507
0 141 692
0 231 846
0 343 1032
0 507 1243
0 707 1478
0 899 1718
267 254 112
231 269 364
145 321 584
77 397 772
54 502 947
33 648 1153
44 816 1374
76 996 1609
105 1168 1859
376 801 218
394 799 486
328 836 758
195 919 1018
108 1010 1237
54 1125 1438
58 1249 1641
86 1386 1857
132 1533 2082
568 1457 383
597 1447 618
595 1460 868
506 1494 1214
388 1550 1515
256 1639 1761
208 1739 1976
174 1856 2180
150 1988 2393
797 2088 558
824 2082 785
831 2090 1012
799 2102 1317
662 2140 1719
616 2170 2027
486 2258 2292
479 2341 2514
460 2437 2725
1036 2609 756
1068 2605 980
1075 2609 1187
1087 2610 1478
1033 2629 1836
843 2667 2236
802 2699 2532
683 2797 2809
682 2873 3038
1289 3080 968
1323 3079 1190
1334 3079 1386
1350 3080 1671
1345 3085 1989
1252 3104 2372
1031 3144 2756
872 3211 3057
767 3300 3332
1540 3507 1191
1585 3507 1413
1588 3507 1603
1593 3507 1866
1582 3507 2158
1602 3519 2540
1396 3543 2906
1139 3575 3252
697 3701 3605
2018 3838 1606
2094 3838 1855
2116 3838 2078
2140 3838 2315
2146 3838 2568
2205 3854 2890
2076 3882 3187
1887 3920 3471
1732 4015 3806
614 44 112
487 79 343
482 111 581
405 174 852
176 275 1092
0 395 1291
0 542 1448
0 725 1646
0 918 1859
582 313 203
714 272 378
650 306 674
414 398 959
133 507 1188
91 674 1338
150 855 1523
225 1039 1728
274 1212 1957
678 847 227
705 846 457
680 868 771
576 953 1030
446 1061 1296
392 1176 1523
399 1304 1729
435 1432 1941
470 1587 2178
829 1488 344
816 1496 552
849 1483 933
759 1523 1243
662 1584 1528
526 1685 1808
498 1789 2041
498 1906 2246
476 2033 2472
1024 2115 508
1002 2121 701
1064 2108 1075
1033 2123 1374
876 2159 1746
842 2192 2044
711 2288 2327
714 2372 2555
691 2474 2786
1234 2630 691
1228 2633 892
1304 2619 1246
1307 2624 1533
1239 2638 1883
1033 2676 2253
1002 2718 2552
886 2818 2841
871 2903 3097
1480 3098 905
1478 3098 1109
1557 3086 1441
1566 3092 1718
1542 3096 2033
1430 3115 2414
1198 3156 2762
1037 3232 3087
956 3320 3377
1733 3523 1132
1726 3523 1332
1805 3511 1647
1811 3508 1911
1796 3517 2204
1791 3523 2582
1568 3553 2937
1323 3589 3255
869 3720 3647
2243 3854 1590
2254 3854 1806
2333 3839 2080
2363 3838 2333
2369 3848 2593
2401 3854 2904
2325 3883 3204
2096 3934 3477
2018 4015 3822
1104 103 191
991 142 411
835 224 655
873 260 928
828 332 1240
599 461 1538
291 617 1776
47 782 1948
0 941 2124
1053 401 256
1204 350 424
1125 389 714
1023 479 1011
842 578 1335
563 707 1641
299 865 1834
303 1054 1991
364 1233 2187
1042 942 365
1156 908 520
1303 874 753
1238 914 1131
895 1057 1444
784 1207 1695
750 1362 1902
742 1509 2110
763 1655 2342
1221 1539 348
1231 1539 573
1281 1538 855
1219 1559 1248
1151 1614 1545
998 1729 1840
886 1852 2112
837 1969 2350
801 2106 2611
1395 2152 445
1391 2156 674
1371 2159 961
1405 2147 1447
1247 2191 1766
1204 2224 2064
1061 2326 2355
1009 2422 2618
944 2530 2899
1580 2656 641
1571 2658 839
1536 2664 1117
1648 2641 1607
1566 2660 1936
1357 2700 2270
1323 2742 2575
1164 2850 2881
1086 2946 3186
1785 3122 848
1768 3125 1033
1747 3127 1309
1879 3104 1767
1835 3112 2087
1707 3133 2456
1486 3172 2778
1344 3248 3108
1163 3352 3445
1983 3539 1060
1968 3539 1247
1968 3542 1524
2096 3523 1963
2078 3523 2265
2048 3537 2631
1827 3564 2965
1598 3598 3275
1087 3747 3707
2513 3864 1574
2544 3854 1811
2541 3856 2031
2636 3854 2345
2654 3854 2602
2631 3870 2889
2601 3890 3215
2384 3936 3494
2362 4015 3838
1698 217 269
1673 252 472
1386 357 735
1285 445 1004
1357 482 1323
1358 560 1664
1174 695 1984
912 841 2290
655 996 2529
1720 493 290
1802 470 487
1716 518 759
1501 654 1079
1480 719 1395
1393 812 1738
1175 931 2088
854 1068 2402
633 1227 2597
1536 1056 485
1750 998 586
1968 931 787
1961 944 1169
1817 1046 1537
1448 1198 1884
1203 1298 2216
991 1450 2440
911 1637 2663
1668 1620 543
1737 1608 697
1918 1571 929
2013 1562 1220
1956 1597 1649
1586 1751 1980
1413 1894 2275
1329 2028 2515
1239 2159 2818
1881 2190 512
1893 2190 729
1941 2187 1012
1955 2193 1341
1865 2212 1770
1810 2254 2084
1669 2349 2366
1537 2456 2654
1293 2604 3065
2049 2684 599
2049 2686 833
2035 2687 1110
2004 2694 1467
2015 2686 1983
1834 2730 2300
1787 2766 2591
1610 2878 2894
1360 3007 3323
2196 3144 788
2195 3144 1009
2179 3145 1267
2143 3152 1610
2214 3128 2166
2086 3157 2498
1897 3194 2805
1803 3250 3116
1466 3396 3549
2340 3555 1010
2334 3555 1210
2322 3558 1463
2308 3559 1811
2422 3537 2324
2353 3552 2646
2169 3583 3001
1984 3615 3305
1586 3762 3758
2850 3870 1594
2875 3870 1844
2878 3870 2060
2905 3870 2320
2945 3870 2598
2946 3884 2891
2919 3904 3216
2735 3951 3518
2722 4019 3870
2343 363 339
2338 382 549
2094 501 825
1869 610 1111
1807 685 1397
1914 719 1750
1968 781 2115
1840 912 2435
1622 1060 2768
2384 633 356
2417 624 553
2386 656 834
2079 816 1156
2007 886 1475
2039 941 1821
2007 1034 2169
1859 1153 2505
1607 1284 2878
2168 1175 566
2426 1088 638
2545 1041 848
2526 1065 1211
2373 1168 1592
2253 1272 1924
2079 1397 2274
1878 1490 2657
1567 1602 3068
2174 1726 712
2278 1703 831
2529 1634 989
2652 1591 1247
2627 1612 1681
2538 1682 2081
2162 1859 2427
1873 1933 2819
1619 2035 3179
2346 2239 758
2386 2236 898
2489 2220 1119
2600 2198 1402
2640 2196 1741
2589 2226 2181
2246 2358 2525
2021 2491 2847
1831 2607 3300
2514 2710 752
2527 2710 923
2540 2710 1194
2586 2706 1513
2540 2723 1885
2453 2738 2315
2359 2795 2616
2203 2892 2937
1827 3049 3471
2639 3161 795
2639 3161 1021
2630 3165 1291
2621 3169 1606
2580 3174 2032
2549 3176 2523
2375 3221 2839
2235 3277 3154
1863 3437 3669
2753 3571 991
2754 3570 1213
2745 3571 1470
2758 3569 1804
2760 3566 2226
2772 3563 2706
2599 3600 3034
2413 3635 3345
2209 3759 3805
3210 3886 1644
3217 3882 1898
3227 3886 2125
3242 3886 2374
3242 3900 2605
3262 3906 2882
3247 3925 3204
3150 3966 3554
3117 4031 3908
2923 522 422
2907 553 647
2791 639 921
2552 737 1217
2379 844 1509
2359 918 1820
2474 955 2184
2533 1016 2565
2446 1141 2895
2954 787 436
2967 787 641
2946 817 923
2722 958 1246
2553 1055 1566
2524 1124 1892
2584 1167 2257
2564 1267 2612
2462 1381 2958
2833 1271 618
2986 1190 712
3051 1162 931
3035 1189 1277
2837 1331 1646
2774 1406 2008
2695 1507 2328
2608 1614 2692
2481 1689 3122
2723 1825 822
2833 1788 920
3054 1700 1060
3158 1652 1305
3125 1692 1719
3124 1712 2151
2942 1861 2480
2677 2015 2827
2477 2054 3375
2781 2296 938
2833 2292 1060
2952 2261 1250
3114 2222 1466
3201 2203 1763
3164 2233 2218
3068 2295 2617
2731 2422 2992
2488 2446 3548
2919 2752 984
2950 2751 1120
3001 2741 1330
3103 2720 1617
3158 2711 1918
3167 2721 2290
3106 2751 2725
2759 2879 3109
2611 2896 3609
3051 3189 988
3064 3189 1143
3065 3190 1392
3096 3183 1700
3128 3180 2042
3044 3202 2474
2953 3223 2876
2863 3276 3200
2714 3390 3701
3169 3585 1041
3172 3585 1274
3186 3585 1572
3207 3585 1920
3228 3576 2281
3218 3585 2642
3128 3605 3045
2927 3651 3386
2902 3732 3826
3558 3902 1770
3558 3902 1991
3562 3902 2224
3571 3905 2448
3574 3918 2677
3579 3932 2915
3592 3951 3206
3529 3981 3574
3500 4031 3954
3410 677 532
3380 709 767
3349 752 1017
3140 883 1328
2964 1006 1628
2866 1097 1922
2866 1159 2241
2974 1192 2638
3023 1241 3021
3428 928 546
3439 929 753
3414 964 1023
3262 1097 1351
3086 1218 1665
3005 1300 1984
2985 1365 2309
3063 1399 2701
3054 1490 3085
3386 1354 670
3461 1306 811
3499 1290 1030
3488 1323 1363
3322 1471 1729
3170 1582 2069
3146 1640 2412
3141 1713 2766
3101 1794 3192
3214 1911 907
3343 1855 994
3513 1778 1140
3584 1746 1387
3571 1773 1774
3495 1858 2192
3405 1943 2576
3262 2069 2862
3178 2138 3372
3217 2361 1069
3282 2342 1177
3419 2302 1334
3570 2254 1540
3667 2222 1811
3618 2258 2247
3651 2276 2714
3469 2401 3029
3259 2501 3503
3289 2800 1174
3328 2793 1291
3393 2778 1477
3514 2745 1736
3611 2724 1983
3692 2705 2302
3670 2725 2780
3546 2811 3159
3379 2882 3598
3413 3223 1211
3431 3222 1348
3470 3213 1544
3523 3203 1822
3598 3181 2131
3635 3179 2464
3683 3175 2835
3597 3223 3258
3493 3262 3730
3575 3601 1343
3588 3601 1521
3592 3601 1798
3605 3591 2115
3637 3587 2465
3656 3587 2770
3667 3600 3045
3603 3619 3394
3563 3656 3869
3890 3934 1897
3890 3936 2103
3890 3936 2326
3892 3936 2550
3906 3952 2780
3918 3966 3019
3924 3982 3288
3921 3999 3623
3874 4047 4015
3822 819 658
3790 853 893
3790 879 1119
3641 1018 1443
3469 1148 1750
3308 1269 2048
3260 1337 2325
3292 1383 2672
3421 1413 3083
3836 1070 660
3850 1061 865
3824 1104 1132
3708 1237 1459
3530 1377 1791
3413 1462 2095
3352 1537 2397
3369 1587 2736
3485 1604 3162
3835 1439 725
3868 1420 911
3915 1376 1109
3869 1452 1459
3643 1652 1846
3499 1752 2176
3453 1803 2497
3435 1867 2828
3533 1899 3253
3700 1967 968
3777 1926 1077
3895 1857 1225
4043 1757 1421
3881 1903 1873
3643 2067 2279
3571 2124 2632
3512 2190 2951
3591 2230 3362
3629 2425 1160
3677 2402 1268
3736 2384 1458
3893 2320 1630
4071 2250 1863
3876 2357 2349
3708 2469 2782
3636 2528 3118
3653 2585 3445
3635 2857 1307
3668 2845 1417
3709 2834 1601
3772 2822 1841
3872 2792 2096
4079 2721 2342
3873 2816 2843
3776 2882 3251
3760 2941 3535
3730 3256 1420
3746 3256 1547
3772 3256 1725
3779 3256 1995
3805 3253 2272
3877 3235 2577
4079 3174 2845
3903 3257 3356
3858 3317 3653
3890 3617 1630
3901 3617 1790
3900 3617 2037
3890 3619 2290
3905 3620 2542
3920 3633 2795
3956 3635 3067
4091 3609 3375
4017 3669 3840
4095 3983 2377
4095 3983 2533
4095 3983 2690
4095 3986 2866
4095 3999 3075
4095 4015 3312
4095 4019 3602
4095 4047 3874
4095 4079 4095
