src/luts/The_Revenant_-_Rec709.3dl
# Created by Benjamin (IWLTBAP) : http://luts.iwltbap.com
# Copyright: (C) Copyright 2016 Triune Films and IWLTBAP
# Blockbuster LUTs Pack
0 64 128 192 256 320 384 448 512 576 640 704 768 832 896 960 1023
0 0 0
1 10 29
2 23 72
3 42 134
6 81 238
10 143 353
17 224 480
24 294 587
35 374 715
52 473 869
64 530 976
84 615 1122
104 686 1260
122 741 1370
148 815 1508
166 863 1616
197 950 1801
13 106 47
10 123 138
11 147 216
14 192 331
19 246 447
25 295 546
35 374 680
45 435 790
59 504 901
75 578 1034
91 642 1162
114 719 1309
132 769 1421
151 824 1534
175 889 1666
191 934 1761
215 1000 1905
29 287 147
29 312 275
30 336 365
33 360 468
38 394 569
47 442 687
57 495 794
66 539 902
82 605 1044
103 682 1194
120 736 1313
138 786 1425
160 847 1558
182 908 1685
202 964 1821
216 1002 1909
231 1042 1996
59 511 346
61 521 417
63 526 499
72 565 609
76 580 699
85 616 803
96 656 944
108 698 1077
124 746 1218
140 792 1336
154 832 1447
170 875 1557
189 929 1686
205 971 1792
221 1016 1904
239 1067 2022
251 1111 2106
110 724 485
111 724 543
118 739 625
126 755 726
133 772 842
143 802 974
155 833 1111
168 871 1254
180 904 1383
193 939 1504
202 963 1617
213 994 1728
232 1045 1871
246 1094 1998
255 1126 2075
268 1174 2176
272 1189 2219
185 948 642
189 955 699
199 977 792
203 979 901
206 977 996
215 1000 1145
227 1034 1296
233 1053 1422
245 1094 1573
255 1129 1703
263 1156 1818
270 1185 1934
279 1217 2047
289 1256 2165
296 1285 2260
304 1318 2349
313 1350 2448
267 1193 808
272 1201 877
274 1206 953
282 1230 1075
282 1229 1188
287 1247 1328
295 1282 1483
303 1311 1625
313 1345 1769
324 1381 1905
333 1409 2035
342 1439 2162
352 1468 2276
357 1485 2387
359 1489 2465
370 1523 2580
373 1533 2647
341 1439 980
346 1454 1044
354 1477 1150
360 1497 1255
359 1494 1362
369 1521 1512
372 1528 1657
385 1565 1804
398 1604 1954
408 1636 2103
422 1674 2238
431 1703 2371
443 1736 2500
450 1757 2622
454 1768 2708
458 1780 2817
457 1776 2895
430 1709 1165
437 1729 1238
444 1747 1323
448 1758 1432
453 1773 1550
461 1792 1698
465 1804 1843
471 1820 1983
486 1862 2150
497 1896 2286
508 1929 2430
519 1960 2570
535 2005 2711
540 2021 2833
542 2027 2933
552 2056 3058
548 2046 3148
522 1982 1358
524 1985 1413
534 2014 1506
535 2017 1611
545 2044 1737
550 2057 1878
559 2081 2026
563 2090 2169
571 2112 2316
581 2141 2451
595 2183 2612
609 2224 2770
618 2251 2902
630 2286 3040
632 2291 3143
643 2323 3272
644 2328 3387
612 2247 1547
612 2246 1606
620 2267 1692
627 2286 1800
636 2312 1925
643 2330 2062
649 2346 2210
655 2361 2347
659 2373 2499
668 2399 2640
680 2434 2788
694 2473 2947
709 2518 3098
716 2538 3226
723 2559 3351
734 2590 3466
737 2598 3557
696 2495 1735
699 2502 1786
709 2531 1884
713 2543 1983
722 2566 2104
732 2594 2241
737 2607 2387
744 2626 2529
747 2631 2666
754 2652 2822
761 2670 2963
779 2723 3123
794 2768 3278
805 2799 3419
814 2827 3532
823 2853 3579
832 2878 3587
775 2729 1914
782 2747 1971
788 2765 2055
794 2781 2158
807 2817 2278
815 2838 2415
826 2869 2572
830 2881 2700
836 2895 2848
838 2900 2984
844 2915 3127
858 2956 3286
873 2999 3436
884 3032 3545
901 3080 3575
906 3096 3574
911 3110 3573
856 2966 2101
858 2971 2140
867 2996 2234
873 3013 2327
885 3046 2455
894 3071 2588
905 3101 2734
909 3113 2867
915 3129 3001
923 3150 3166
928 3161 3294
937 3187 3441
949 3223 3556
957 3246 3566
964 3268 3565
968 3279 3565
968 3279 3565
935 3200 2272
938 3208 2331
947 3235 2410
955 3256 2512
963 3277 2627
972 3301 2759
980 3325 2895
983 3332 3031
985 3335 3174
987 3338 3311
985 3331 3440
983 3321 3541
980 3314 3563
980 3315 3563
981 3315 3560
981 3315 3560
981 3315 3560
1018 3445 2467
1016 3438 2513
1026 3466 2602
1029 3473 2691
1028 3470 2806
1026 3462 2919
1024 3453 3052
1018 3434 3169
1005 3393 3308
991 3347 3458
984 3325 3530
982 3319 3548
982 3320 3546
985 3320 3546
990 3325 3537
1004 3328 3538
1169 3367 3569
1064 3579 2668
1059 3564 2724
1056 3553 2790
1048 3527 2875
1039 3498 2970
1028 3466 3074
1016 3428 3198
1003 3386 3332
991 3348 3453
984 3326 3526
983 3324 3531
986 3326 3529
1011 3332 3533
1239 3387 3572
1673 3491 3651
2049 3584 3714
2397 3670 3773
35 1 1
51 12 48
48 24 104
33 46 185
11 89 297
11 157 412
18 238 536
27 313 643
37 385 756
52 472 897
67 543 1023
87 625 1162
107 695 1293
128 758 1423
150 821 1542
177 894 1697
202 963 1838
60 88 41
59 129 159
46 144 250
23 173 341
18 236 457
24 290 561
32 351 661
44 429 787
57 498 915
72 567 1036
92 643 1180
110 705 1303
130 766 1425
150 821 1540
174 886 1668
196 948 1799
219 1009 1939
65 276 161
71 308 271
51 324 379
43 346 458
40 395 587
45 433 685
55 488 798
68 547 923
81 601 1041
96 660 1172
116 725 1303
136 781 1426
156 836 1547
178 899 1682
198 952 1803
222 1017 1942
237 1061 2044
97 484 316
87 515 399
77 520 501
73 549 592
72 563 692
82 605 807
93 648 946
105 687 1073
118 729 1196
132 770 1313
154 831 1461
169 874 1570
184 914 1671
205 971 1803
224 1022 1936
236 1057 2014
254 1121 2133
114 712 474
119 724 549
121 733 637
127 755 725
133 771 843
143 802 975
154 832 1115
168 869 1258
179 900 1383
191 934 1506
201 961 1628
216 1000 1756
225 1027 1842
242 1080 1977
253 1117 2074
265 1164 2171
279 1217 2274
182 941 640
186 948 695
194 961 784
201 972 887
204 972 996
213 995 1143
224 1025 1295
232 1050 1427
243 1086 1564
250 1112 1688
263 1156 1832
269 1181 1941
279 1216 2053
287 1250 2169
297 1290 2278
301 1305 2341
313 1348 2452
266 1190 803
271 1199 876
274 1203 963
281 1226 1068
282 1227 1190
285 1240 1321
295 1281 1485
302 1308 1618
312 1341 1768
322 1374 1904
332 1406 2035
341 1437 2166
347 1453 2264
354 1474 2379
360 1494 2477
365 1509 2560
376 1540 2674
343 1443 990
345 1450 1045
351 1468 1141
358 1490 1257
360 1496 1375
365 1510 1511
371 1526 1661
385 1566 1810
397 1602 1956
407 1630 2091
419 1667 2232
428 1691 2364
442 1734 2503
448 1751 2616
452 1765 2712
454 1768 2811
457 1777 2908
426 1699 1166
436 1727 1237
442 1742 1327
448 1759 1438
454 1775 1560
458 1786 1701
466 1805 1850
472 1821 1983
484 1856 2140
496 1893 2287
509 1932 2438
520 1962 2570
530 1992 2703
538 2016 2833
543 2029 2940
549 2048 3052
549 2048 3159
523 1984 1369
524 1986 1421
530 2004 1503
536 2018 1614
544 2041 1740
550 2055 1883
556 2071 2029
562 2087 2167
570 2110 2316
584 2152 2474
592 2175 2605
602 2203 2754
617 2249 2900
627 2278 3033
632 2291 3147
642 2322 3283
643 2324 3386
607 2233 1540
615 2256 1604
621 2270 1696
627 2289 1798
635 2311 1929
642 2327 2065
648 2344 2225
652 2355 2356
661 2377 2505
668 2397 2643
680 2434 2787
691 2465 2941
705 2505 3087
719 2546 3225
724 2563 3351
735 2594 3479
738 2603 3552
694 2488 1733
701 2508 1789
706 2521 1881
714 2545 1979
722 2566 2108
731 2590 2248
737 2607 2397
744 2625 2542
752 2647 2685
757 2658 2828
762 2674 2966
775 2713 3126
793 2765 3276
804 2796 3414
813 2823 3533
823 2852 3578
831 2877 3587
772 2718 1898
784 2755 1973
790 2772 2061
797 2789 2166
807 2818 2293
815 2839 2421
822 2859 2575
830 2880 2717
837 2899 2862
839 2901 2994
844 2915 3135
858 2955 3291
873 2999 3440
886 3038 3549
897 3070 3576
907 3098 3574
914 3119 3573
851 2951 2090
857 2967 2150
868 3002 2230
877 3025 2342
884 3043 2466
889 3058 2580
903 3096 2731
910 3115 2881
918 3137 3028
923 3148 3166
929 3165 3313
935 3181 3445
949 3223 3557
956 3243 3566
967 3275 3565
968 3278 3565
967 3276 3565
932 3192 2262
939 3210 2331
947 3234 2406
954 3251 2513
963 3278 2629
973 3305 2763
980 3324 2895
984 3332 3033
985 3336 3180
987 3337 3318
985 3332 3446
982 3320 3545
980 3314 3563
980 3315 3562
981 3315 3560
981 3316 3558
981 3315 3560
1017 3443 2462
1020 3450 2518
1028 3472 2599
1030 3475 2699
1028 3470 2805
1028 3466 2921
1023 3450 3054
1017 3431 3179
1005 3393 3309
991 3349 3451
983 3324 3532
981 3318 3551
983 3320 3546
986 3322 3544
994 3326 3536
1076 3347 3547
1205 3376 3575
1064 3579 2664
1060 3565 2723
1056 3552 2792
1049 3530 2869
1039 3499 2968
1029 3467 3072
1016 3427 3201
1004 3389 3322
991 3349 3452
984 3327 3524
983 3324 3531
986 3326 3528
1043 3339 3539
1409 3426 3607
1792 3520 3671
2170 3613 3735
2479 3690 3787
78 12 12
127 14 63
136 26 133
123 46 216
77 87 332
33 146 436
21 227 556
26 305 661
40 405 811
54 483 941
69 555 1067
88 630 1191
112 710 1337
132 772 1467
155 835 1594
179 900 1721
205 970 1869
160 113 59
181 126 163
169 138 249
142 181 363
83 231 478
39 279 579
32 349 683
43 423 799
56 494 934
72 567 1064
90 638 1188
111 707 1328
131 768 1445
154 833 1577
178 899 1711
201 959 1832
222 1018 1969
173 285 142
193 298 267
191 324 355
156 359 480
97 385 589
51 413 675
53 477 795
65 533 919
81 601 1061
96 657 1187
115 721 1311
136 781 1440
155 835 1556
180 904 1711
196 948 1808
216 1002 1921
231 1041 2015
201 491 326
206 515 410
203 526 490
177 547 603
154 580 723
100 606 835
90 632 943
101 676 1076
118 728 1209
135 778 1339
149 817 1448
167 868 1571
185 918 1697
204 968 1817
221 1014 1929
237 1062 2038
252 1115 2141
195 716 480
208 725 551
209 742 640
185 761 742
165 773 849
141 791 973
153 828 1119
164 860 1254
177 894 1386
194 940 1530
198 953 1614
210 985 1733
223 1019 1840
239 1069 1967
248 1101 2058
263 1156 2169
276 1204 2275
194 939 643
195 948 698
195 954 776
199 967 881
206 978 1007
213 993 1146
221 1016 1278
231 1049 1436
242 1083 1564
252 1119 1706
262 1151 1831
269 1179 1945
276 1207 2054
287 1248 2174
295 1280 2269
303 1313 2371
310 1339 2454
265 1185 806
269 1192 874
273 1202 963
279 1219 1078
281 1225 1194
283 1234 1323
292 1269 1478
299 1299 1613
310 1336 1762
322 1373 1899
329 1397 2031
337 1425 2154
345 1450 2272
353 1472 2385
358 1488 2483
366 1510 2571
376 1539 2687
345 1449 992
344 1448 1051
352 1470 1136
356 1485 1252
360 1497 1370
364 1506 1501
370 1522 1648
384 1563 1814
397 1602 1961
407 1632 2101
419 1665 2233
430 1698 2366
438 1722 2497
445 1742 2611
453 1765 2728
453 1766 2824
452 1764 2891
431 1711 1165
435 1722 1240
440 1735 1325
447 1757 1435
456 1780 1565
459 1786 1705
463 1797 1844
471 1819 1994
480 1844 2133
495 1890 2289
508 1928 2422
518 1957 2560
529 1988 2702
538 2017 2831
544 2032 2950
547 2043 3059
547 2042 3160
521 1978 1352
525 1989 1425
529 2001 1504
536 2020 1617
545 2044 1741
551 2059 1887
556 2072 2030
561 2084 2174
568 2103 2319
585 2155 2485
596 2187 2617
607 2218 2765
616 2244 2894
627 2276 3033
635 2301 3161
641 2319 3279
641 2318 3393
607 2233 1544
611 2244 1607
621 2271 1705
626 2283 1804
634 2305 1931
643 2330 2071
645 2336 2210
654 2360 2364
656 2364 2495
668 2399 2657
681 2436 2801
692 2467 2943
707 2513 3102
717 2542 3229
726 2568 3365
734 2590 3479
732 2584 3549
691 2479 1722
699 2504 1798
704 2517 1885
715 2547 1988
720 2559 2107
733 2597 2260
738 2610 2401
744 2623 2547
751 2643 2688
758 2662 2839
763 2676 2973
776 2715 3125
789 2753 3268
808 2809 3435
813 2823 3528
823 2852 3572
825 2859 3588
773 2723 1905
782 2748 1983
788 2764 2067
799 2795 2179
803 2807 2287
813 2833 2424
822 2858 2570
829 2875 2713
836 2894 2854
841 2907 3004
845 2917 3147
859 2957 3302
871 2994 3438
887 3040 3555
899 3075 3575
906 3097 3574
912 3114 3573
857 2971 2098
863 2987 2163
870 3006 2248
878 3028 2356
888 3055 2472
893 3068 2600
903 3096 2734
909 3111 2875
918 3135 3028
924 3152 3168
928 3163 3308
939 3193 3460
946 3212 3555
959 3250 3566
969 3281 3565
969 3282 3565
967 3276 3565
940 3215 2284
940 3214 2340
947 3232 2419
954 3251 2516
966 3285 2640
973 3305 2766
981 3326 2901
984 3333 3036
986 3338 3183
987 3338 3323
989 3342 3454
982 3320 3545
980 3314 3563
981 3316 3559
981 3316 3560
981 3316 3558
981 3315 3561
1020 3449 2472
1022 3455 2528
1027 3469 2611
1030 3477 2705
1029 3471 2809
1027 3465 2930
1024 3451 3062
1015 3424 3191
1005 3393 3308
992 3350 3447
984 3324 3531
981 3317 3554
984 3320 3546
988 3322 3544
1007 3329 3538
1148 3364 3559
1276 3393 3587
1063 3577 2675
1059 3563 2728
1054 3546 2801
1048 3526 2877
1039 3498 2972
1027 3461 3089
1016 3426 3204
1004 3388 3326
991 3347 3459
984 3325 3528
983 3324 3532
998 3328 3531
1159 3366 3563
1533 3456 3628
1907 3548 3690
2294 3644 3756
2601 3721 3808
164 23 24
237 33 100
277 37 164
268 51 263
251 91 368
194 152 488
93 226 602
41 301 699
39 398 822
52 472 943
70 556 1082
89 634 1231
110 705 1361
133 772 1486
159 845 1620
177 896 1724
204 968 1888
285 113 79
324 130 183
335 143 279
328 186 395
287 236 520
218 286 628
123 333 711
59 407 820
56 492 962
72 565 1089
89 634 1208
109 701 1335
133 773 1466
154 832 1598
180 903 1737
198 953 1845
