src/luts/The_Revenant_-_Rec709.3dl
# Created by Benjamin (IWLTBAP) : http://luts.iwltbap.com
# Copyright: (C) Copyright 2016 Triune Films and IWLTBAP
# Blockbuster LUTs Pack
0 256 512 768 1023
0 0 0
6 81 238
35 374 715
104 686 1260
197 950 1801
110 724 485
133 772 842
180 904 1383
232 1045 1871
272 1189 2219
430 1709 1165
453 1773 1550
486 1862 2150
535 2005 2711
548 2046 3148
775 2729 1914
807 2817 2278
836 2895 2848
873 2999 3436
911 3110 3573
1064 3579 2668
1039 3498 2970
991 3348 3453
1011 3332 3533
2397 3670 3773
304 35 35
454 106 444
126 392 891
105 688 1366
201 959 1907
605 796 530
565 822 921
243 892 1414
220 1012 1877
275 1201 2331
577 1730 1185
488 1759 1559
477 1837 2139
525 1978 2716
545 2037 3174
777 2721 1925
801 2800 2294
832 2882 2856
872 2997 3451
908 3101 3574
1061 3567 2666
1036 3490 2996
990 3346 3463
1523 3454 3627
2846 3780 3857
922 180 222
1154 265 566
1238 455 1178
1146 783 1759
787 1052 2219
1356 763 533
1470 792 962
1453 991 1632
1255 1168 2155
790 1266 2526
1645 2002 1350
1642 2013 1773
1547 2064 2336
1329 2123 2881
1012 2104 3293
1750 2944 2114
1706 3008 2470
1502 3024 2972
1208 3062 3534
1556 3239 3682
1851 3760 2839
1776 3666 3133
1582 3488 3567
2531 3703 3796
3485 3941 3973
1646 393 447
1847 450 702
2044 589 1287
2066 837 1963
2004 1140 2541
2064 694 623
2195 730 909
2308 921 1601
2244 1162 2316
2105 1370 2799
2482 1918 1314
2553 1905 1679
2580 2130 2454
2536 2301 3110
2407 2339 3585
2692 3134 2237
2687 3217 2665
2649 3268 3202
2546 3350 3764
2736 3486 3886
2730 3963 3037
2724 3891 3333
2896 3801 3835
3562 3961 3988
4073 4089 4091
2270 532 586
2494 589 811
2740 718 1348
2867 916 2050
2858 1232 2798
2641 692 708
2815 741 943
2991 893 1558
3039 1122 2326
2962 1403 2988
3161 1619 1226
3302 1510 1503
3442 1743 2262
3417 2057 3055
3314 2191 3628
3312 3139 2257
3411 3193 2650
3556 3289 3300
3605 3519 3949
3745 3615 4054
3190 4055 3248
3320 4006 3563
3764 4012 4025
4093 4095 4095
4095 4095 4095
