src/luts/The_Book_of_Eli_-_Rec709.3dl
# Created by Benjamin (IWLTBAP) : http://luts.iwltbap.com
# Copyright: (C) Copyright 2016 Triune Films and IWLTBAP
# Blockbuster LUTs Pack
0 256 512 768 1023
130 123 112
160 149 386
229 227 786
340 331 1226
447 458 1698
312 531 246
340 564 587
454 686 1054
680 933 1672
974 1229 2307
510 1050 461
554 1117 833
650 1239 1296
796 1525 1930
1111 1925 2600
618 1749 734
624 1844 1177
758 1987 1684
944 2201 2229
1309 2506 2828
1233 2471 1207
1259 2586 1658
1499 2821 2264
1654 2950 2686
1834 3092 3089
440 170 152
561 283 549
733 466 1082
781 529 1492
873 637 1932
636 612 320
723 710 746
877 866 1268
1200 1178 1948
1537 1464 2554
856 1200 582
937 1300 979
1121 1524 1577
1539 1932 2310
1917 2289 2939
1205 1922 893
1188 1965 1291
1435 2212 1912
1788 2521 2559
2127 2816 3117
1821 2689 1459
1877 2786 1886
2049 2973 2426
2211 3138 2881
2384 3301 3328
777 225 195
925 357 606
1288 636 1267
1691 942 1962
1858 1076 2423
1013 688 391
1132 778 798
1468 1059 1460
1925 1465 2194
2121 1595 2661
1362 1353 699
1628 1603 1269
1853 1819 1838
2178 2113 2462
2504 2423 3048
2041 2301 1297
2190 2452 1816
2334 2609 2316
2518 2796 2812
2712 2995 3297
2672 3132 2001
2610 3117 2280
2655 3197 2665
2794 3354 3102
2943 3509 3521
1205 322 288
1395 448 688
1751 669 1290
2312 1086 2114
2551 1291 2652
1557 835 525
1750 950 975
2133 1258 1654
2643 1733 2460
2887 1962 2993
2158 1685 997
2349 1854 1506
2519 2024 2046
2799 2312 2643
2990 2516 3153
2732 2561 1604
2782 2638 2033
2953 2835 2565
3059 2961 2981
3192 3095 3392
3174 3307 2248
3229 3388 2610
3341 3519 3004
3427 3614 3358
3474 3663 3659
1781 446 401
1982 566 825
2363 831 1439
2631 1070 2059
2987 1401 2767
2268 1017 692
2568 1263 1296
2784 1492 1892
3072 1814 2567
3352 2124 3147
2926 2045 1376
3020 2138 1813
3121 2274 2320
3286 2476 2833
3485 2702 3321
3340 2857 1996
3379 2931 2394
3460 3028 2784
3508 3085 3114
3604 3189 3477
3659 3510 2503
3695 3565 2815
3756 3642 3138
3832 3729 3481
3866 3773 3759
