src/luts/The_Matrix_-_Rec709.3dl
# Created by Benjamin (IWLTBAP) : http://luts.iwltbap.com
# Copyright: (C) Copyright 2016 Triune Films and IWLTBAP
# Blockbuster LUTs Pack
0 64 128 192 256 320 384 448 512 576 640 704 768 832 896 960 1023
16 0 32
0 16 125
0 16 176
0 32 256
0 51 336
0 80 424
0 126 508
0 174 608
0 217 711
0 280 813
0 343 921
0 419 1038
0 502 1151
0 597 1275
0 692 1401
0 788 1528
0 883 1654
17 95 48
0 126 174
0 143 266
11 171 345
0 187 415
0 211 502
0 245 586
0 284 679
0 332 777
0 390 876
0 460 990
0 539 1102
0 628 1227
0 723 1351
0 819 1465
0 914 1591
0 1010 1717
48 237 110
46 239 220
2 282 346
0 314 440
11 333 519
14 365 606
20 397 691
3 442 785
2 491 880
0 559 983
0 627 1089
0 709 1206
0 798 1322
0 885 1435
0 979 1560
0 1071 1683
0 1154 1798
112 456 176
112 456 272
92 474 404
24 513 534
1 547 647
2 579 743
3 615 834
3 662 927
3 719 1022
2 782 1122
0 848 1230
0 916 1338
0 995 1447
0 1074 1558
0 1153 1672
0 1232 1794
0 1321 1905
221 770 265
229 778 348
218 780 447
200 794 584
152 816 739
68 849 875
13 889 992
0 929 1097
0 978 1196
0 1035 1293
0 1098 1393
0 1159 1495
0 1225 1598
0 1291 1704
0 1366 1813
0 1435 1924
0 1510 2035
332 1099 345
339 1100 424
343 1115 522
330 1115 632
314 1131 777
284 1145 956
213 1169 1107
68 1211 1244
6 1250 1359
0 1294 1467
0 1345 1564
0 1398 1663
0 1461 1762
0 1527 1868
0 1593 1969
0 1663 2077
0 1735 2185
441 1427 431
444 1431 507
450 1431 595
454 1435 707
443 1446 836
419 1460 999
379 1479 1192
322 1498 1358
200 1533 1496
74 1574 1625
26 1613 1734
5 1660 1842
0 1714 1945
0 1776 2044
0 1829 2144
0 1894 2248
0 1963 2349
560 1756 519
564 1759 595
564 1763 677
564 1763 779
571 1773 912
552 1779 1060
522 1796 1242
471 1821 1445
431 1830 1616
345 1859 1760
199 1905 1898
145 1940 2010
104 1981 2117
69 2030 2220
42 2078 2322
26 2132 2422
12 2192 2520
674 2072 610
674 2072 681
679 2072 768
682 2075 864
687 2079 988
691 2087 1137
659 2096 1293
623 2110 1488
546 2132 1700
508 2146 1880
480 2159 2013
329 2205 2158
289 2241 2270
267 2277 2384
239 2322 2488
207 2369 2591
177 2417 2690
789 2341 705
797 2341 777
801 2341 859
801 2343 957
806 2357 1073
817 2357 1218
805 2357 1366
769 2372 1543
726 2381 1750
634 2401 1967
610 2417 2127
587 2432 2263
433 2483 2414
399 2516 2529
394 2554 2641
379 2592 2750
351 2639 2856
911 2594 803
911 2594 878
921 2594 961
927 2594 1055
927 2598 1165
942 2604 1304
943 2608 1452
931 2612 1614
905 2622 1810
837 2638 2009
744 2654 2225
724 2670 2383
688 2693 2515
521 2751 2668
504 2782 2789
503 2818 2901
490 2850 3011
1038 2834 909
1038 2834 985
1039 2835 1064
1054 2841 1156
1054 2843 1266
1066 2843 1399
1070 2844 1545
1070 2848 1698
1068 2857 1889
1032 2865 2082
941 2880 2277
851 2906 2490
831 2916 2636
775 2947 2768
584 3007 2925
564 3039 3047
562 3071 3161
1164 3064 1017
1164 3067 1094
1164 3067 1173
1178 3067 1267
1180 3072 1365
1185 3079 1495
1196 3079 1644
1195 3080 1792
1214 3083 1965
1202 3086 2161
1136 3100 2351
1030 3119 2556
935 3141 2746
892 3158 2885
758 3205 3042
597 3257 3190
578 3288 3304
1291 3288 1128
1291 3288 1206
1291 3288 1284
1295 3288 1370
1306 3291 1473
1307 3299 1597
1322 3299 1742
1313 3299 1886
1319 3302 2048
1349 3304 2242
1304 3313 2427
1217 3324 2620
1082 3346 2821
990 3364 2997
908 3384 3141
634 3459 3314
562 3494 3443
1417 3493 1241
1417 3493 1317
1417 3494 1396
1417 3505 1490
1420 3505 1587
1433 3505 1698
1434 3505 1847
1433 3507 1989
1429 3507 2130
1476 3507 2320
1465 3511 2511
1398 3523 2697
1280 3542 2887
1143 3558 3088
1042 3573 3239
867 3622 3412
510 3700 3587
1578 3680 1385
1579 3680 1463
1580 3680 1542
1580 3684 1626
1580 3696 1720
1592 3696 1842
1600 3696 1980
1607 3696 2125
1595 3696 2257
1630 3696 2425
1653 3696 2619
1607 3709 2793
1517 3725 2970
1365 3745 3159
1210 3763 3344
1029 3808 3521
363 3905 3760
1879 3838 1654
1893 3838 1734
1895 3838 1827
1897 3838 1924
1911 3838 2035
1923 3838 2158
1927 3838 2284
1927 3838 2402
1927 3838 2521
1990 3842 2695
2001 3854 2855
1967 3859 3010
1904 3874 3159
1809 3900 3314
1702 3920 3457
1618 3950 3599
1526 4015 3806
158 0 32
95 16 159
63 18 281
21 35 362
0 61 428
0 91 495
0 126 575
0 166 666
0 213 762
0 265 858
0 343 963
0 418 1073
0 506 1191
0 597 1307
0 694 1432
0 789 1559
0 883 1685
126 95 62
97 110 191
66 114 298
34 141 395
5 163 479
0 202 555
0 237 631
0 281 718
0 328 810
0 391 909
0 466 1019
0 545 1133
0 633 1247
0 727 1370
0 822 1496
0 916 1622
0 1011 1748
142 239 82
140 250 237
82 284 349
64 316 457
75 335 540
64 363 631
44 397 723
29 443 808
15 501 904
4 564 1010
4 634 1116
4 713 1227
5 804 1342
6 896 1464
8 990 1576
29 1074 1701
31 1167 1827
191 472 145
204 472 288
186 475 411
114 518 547
68 553 660
51 593 759
52 630 854
57 673 948
57 726 1044
49 785 1148
43 855 1251
33 930 1357
21 1006 1468
20 1087 1584
20 1166 1698
21 1245 1810
32 1327 1925
283 786 234
299 780 362
294 785 464
277 800 600
234 823 745
147 861 883
81 898 1005
37 944 1111
6 992 1213
0 1048 1311
0 1108 1410
0 1172 1511
0 1240 1615
0 1306 1720
0 1371 1830
0 1446 1940
0 1525 2060
387 1115 327
402 1115 438
409 1115 532
404 1121 647
378 1135 791
345 1156 962
281 1179 1116
153 1223 1254
74 1261 1373
36 1304 1477
9 1351 1579
1 1413 1679
0 1469 1778
0 1536 1882
0 1607 1985
0 1673 2094
0 1747 2205
497 1435 406
507 1432 516
514 1435 602
520 1446 711
510 1449 846
483 1465 1010
432 1487 1199
386 1504 1361
282 1539 1504
172 1583 1633
132 1625 1745
92 1672 1855
54 1725 1958
34 1777 2058
21 1841 2159
13 1907 2260
5 1973 2364
611 1764 500
626 1763 601
627 1764 685
627 1772 788
632 1778 921
615 1787 1071
583 1799 1248
520 1822 1449
486 1837 1624
417 1864 1763
299 1908 1904
262 1948 2020
238 1990 2129
218 2041 2232
195 2092 2334
179 2145 2434
153 2200 2536
726 2075 583
741 2075 689
742 2075 772
745 2079 873
753 2087 998
754 2088 1147
721 2101 1302
683 2110 1500
594 2134 1711
563 2149 1888
542 2163 2025
410 2216 2164
386 2248 2280
381 2285 2390
363 2327 2499
347 2374 2603
331 2424 2702
848 2356 682
863 2341 787
864 2351 867
864 2357 964
866 2357 1082
880 2357 1227
873 2361 1377
832 2373 1551
781 2385 1756
683 2405 1969
659 2421 2136
638 2432 2274
506 2488 2420
490 2523 2540
492 2559 2654
486 2598 2762
465 2645 2864
974 2598 787
989 2594 887
991 2594 967
991 2602 1061
992 2605 1172
1006 2606 1317
1007 2610 1463
994 2614 1625
963 2624 1821
887 2642 2023
788 2658 2232
774 2674 2386
737 2695 2529
598 2753 2682
590 2786 2798
595 2820 2910
585 2864 3021
1096 2843 890
1115 2841 991
1117 2841 1071
1117 2843 1165
1118 2843 1271
1133 2843 1406
1133 2846 1557
1133 2854 1709
1132 2858 1897
1089 2865 2090
989 2883 2292
896 2906 2490
878 2922 2639
824 2948 2783
659 3008 2937
656 3040 3059
656 3079 3173
1224 3079 1000
1242 3067 1098
1244 3070 1179
1244 3077 1269
1244 3079 1377
1259 3079 1505
1261 3079 1656
1260 3080 1800
1271 3083 1976
1261 3088 2172
1191 3100 2358
1067 3125 2561
971 3142 2746
933 3160 2891
811 3208 3047
674 3260 3190
673 3292 3316
1353 3298 1111
1368 3288 1208
1370 3288 1290
1370 3296 1379
1371 3299 1478
1382 3299 1605
1387 3299 1752
1386 3299 1900
1381 3304 2055
1412 3304 2251
1365 3313 2435
1267 3330 2626
1131 3347 2825
1036 3366 2997
953 3394 3154
709 3460 3326
656 3497 3458
1479 3505 1223
1495 3504 1320
1496 3505 1402
1497 3505 1491
1497 3506 1588
1506 3507 1710
1512 3507 1855
1512 3507 2001
1497 3507 2142
1542 3507 2332
1529 3513 2524
1459 3523 2701
1332 3542 2891
1192 3558 3092
1089 3575 3251
916 3623 3414
603 3700 3600
1640 3695 1355
1659 3682 1465
1659 3693 1546
1669 3695 1640
1673 3696 1736
1674 3696 1857
1685 3696 1994
1689 3696 2137
1675 3696 2272
1693 3696 2438
1729 3696 2634
1678 3709 2807
1582 3726 2985
1427 3746 3173
1271 3763 3347
1089 3809 3522
489 3906 3762
1941 3838 1623
1973 3838 1747
1987 3838 1843
1990 3838 1940
2006 3838 2051
2018 3838 2173
2022 3838 2299
2023 3838 2423
2022 3838 2542
2064 3850 2703
2087 3854 2874
2049 3859 3025
1982 3874 3174
1887 3902 3317
1793 3920 3459
1698 3952 3601
1621 4015 3806
269 2 48
205 29 173
190 32 285
159 46 410
95 64 507
37 103 601
0 141 692
0 182 765
0 231 846
0 280 935
0 343 1032
0 420 1137
0 507 1243
0 600 1357
0 707 1478
0 802 1592
0 899 1718
237 111 107
283 98 192
262 111 331
164 140 458
72 169 578
24 198 651
0 235 729
0 272 802
0 328 885
0 394 977
0 470 1078
0 554 1183
0 647 1292
0 738 1405
0 835 1528
0 931 1654
0 1024 1778
267 254 112
283 254 234
231 269 364
193 289 474
145 321 584
108 357 683
77 397 772
61 453 855
54 502 947
43 577 1048
33 648 1153
34 728 1263
44 816 1374
50 902 1495
76 996 1609
93 1089 1732
105 1168 1859
314 488 141
313 488 266
310 491 434
251 530 550
195 568 666
160 611 777
154 646 883
155 692 981
153 749 1080
152 804 1179
148 877 1283
140 946 1388
143 1023 1498
153 1103 1608
158 1180 1721
173 1260 1840
189 1342 1956
376 801 218
379 809 328
394 799 486
376 811 615
328 836 758
266 876 890
195 919 1018
144 962 1130
108 1010 1237
76 1065 1337
54 1125 1438
52 1190 1536
58 1249 1641
73 1319 1747
86 1386 1857
111 1461 1968
132 1533 2082
470 1131 301
473 1131 400
490 1129 549
490 1132 666
470 1145 808
429 1162 975
375 1189 1123
271 1232 1261
199 1276 1384
153 1320 1496
123 1368 1599
86 1429 1701
65 1490 1802
41 1553 1902
36 1620 2011
35 1688 2122
38 1764 2233
568 1457 383
576 1451 485
597 1447 618
599 1449 730
595 1460 868
564 1474 1026
506 1494 1214
466 1514 1373
388 1550 1515
291 1596 1648
256 1639 1761
233 1687 1870
208 1739 1976
188 1794 2078
174 1856 2180
167 1923 2282
150 1988 2393
679 1780 470
688 1779 570
705 1775 698
710 1778 805
713 1780 936
699 1794 1087
658 1807 1263
589 1827 1462
555 1844 1630
506 1874 1774
402 1922 1918
372 1959 2032
364 2004 2142
353 2049 2248
344 2104 2354
338 2156 2453
318 2215 2555
797 2088 558
801 2086 659
824 2082 785
825 2087 889
831 2090 1012
832 2095 1163
799 2102 1317
753 2117 1512
662 2140 1719
632 2155 1892
616 2170 2027
501 2221 2177
486 2258 2292
486 2298 2405
479 2341 2514
474 2385 2619
460 2437 2725
911 2357 650
926 2357 757
942 2357 879
944 2357 975
951 2357 1097
959 2357 1241
952 2367 1393
910 2373 1567
851 2389 1771
747 2410 1981
728 2421 2141
708 2444 2279
592 2496 2431
584 2531 2552
596 2569 2664
589 2608 2774
578 2654 2887
1036 2609 756
1044 2609 858
1068 2605 980
1070 2609 1076
1075 2609 1187
1086 2610 1330
1087 2610 1478
1070 2619 1640
1033 2629 1836
952 2643 2034
843 2667 2236
836 2677 2394
802 2699 2532
680 2764 2685
683 2797 2809
694 2830 2924
682 2873 3038
1162 2850 858
1176 2846 967
1195 2843 1085
1197 2846 1175
1205 2846 1285
1212 2846 1421
1221 2848 1574
1211 2857 1725
1207 2859 1912
1157 2869 2103
1049 2890 2300
946 2909 2499
934 2925 2647
888 2952 2788
739 3020 2951
748 3051 3067
742 3087 3189
1289 3080 968
1306 3079 1071
1323 3079 1190
1324 3079 1283
1334 3079 1386
1339 3080 1518
1350 3080 1671
1339 3082 1818
1345 3085 1989
1331 3094 2186
1252 3104 2372
1127 3126 2571
1031 3144 2756
988 3161 2900
872 3211 3057
766 3268 3205
767 3300 3332
1415 3303 1079
1432 3299 1182
1451 3298 1299
1451 3299 1387
1463 3299 1492
1465 3299 1621
1475 3299 1767
1468 3301 1915
1461 3304 2068
1482 3305 2266
1433 3316 2451
1331 3331 2638
1188 3352 2835
1098 3366 3000
1012 3398 3157
783 3473 3330
746 3506 3463
1540 3507 1191
1559 3507 1292
1585 3507 1413
1588 3507 1505
1588 3507 1603
1591 3507 1725
1593 3507 1866
1593 3507 2015
1582 3507 2158
1608 3509 2342
1602 3519 2540
1526 3526 2717
1396 3543 2906
1255 3558 3092
1139 3575 3252
990 3624 3417
697 3701 3605
1705 3696 1337
1721 3696 1436
1752 3696 1558
1754 3696 1653
1756 3696 1752
1769 3696 1875
1771 3696 2010
1776 3696 2153
1769 3696 2292
1776 3697 2449
1809 3697 2651
1758 3712 2825
1652 3726 3000
1497 3746 3179
1349 3763 3348
1153 3810 3522
619 3920 3776
2018 3838 1606
2037 3838 1717
2094 3838 1855
2110 3838 1970
2116 3838 2078
2131 3838 2188
2140 3838 2315
2147 3838 2441
2146 3838 2568
2165 3845 2718
2205 3854 2890
2158 3859 3041
2076 3882 3187
1970 3905 3330
1887 3920 3471
1795 3952 3603
1732 4015 3806
412 19 80
348 45 204
317 50 301
323 64 425
296 77 562
229 112 678
130 157 790
38 204 881
0 252 973
0 309 1053
0 372 1137
0 437 1230
0 517 1331
0 614 1436
0 713 1545
0 808 1656
0 912 1780
393 127 126
468 109 208
439 124 345
403 142 475
316 175 602
233 207 736
108 246 846
13 293 943
0 341 1012
0 405 1085
0 476 1172
0 564 1263
0 658 1366
0 754 1476
0 851 1588
1 946 1701
