src/luts/The_Book_of_Eli_-_Rec709.3dl
# Created by Benjamin (IWLTBAP) : http://luts.iwltbap.com
# Copyright: (C) Copyright 2016 Triune Films and IWLTBAP
# Blockbuster LUTs Pack
0 128 256 384 512 640 768 896 1023
130 123 112
132 127 221
160 149 386
192 184 590
229 227 786
272 271 992
340 331 1226
388 388 1459
447 458 1698
253 357 205
245 346 333
258 362 504
313 416 735
369 482 960
433 549 1205
513 631 1478
590 720 1714
678 806 1982
312 531 246
319 549 423
340 564 587
375 601 798
454 686 1054
548 795 1357
680 933 1672
815 1083 1999
974 1229 2307
409 762 340
429 785 507
460 806 680
494 851 907
540 923 1163
659 1053 1469
782 1233 1819
954 1437 2166
1090 1632 2528
510 1050 461
525 1072 639
554 1117 833
572 1137 1037
650 1239 1296
728 1373 1615
796 1525 1930
909 1714 2256
1111 1925 2600
509 1384 588
504 1394 758
568 1478 989
600 1529 1223
616 1572 1450
689 1691 1744
868 1875 2090
956 2019 2373
1111 2158 2643
618 1749 734
609 1760 915
624 1844 1177
733 1944 1448
758 1987 1684
804 2077 1947
944 2201 2229
1158 2360 2536
1309 2506 2828
869 2105 930
846 2135 1141
843 2196 1382
990 2324 1707
1070 2393 1948
1129 2459 2186
1262 2568 2446
1396 2662 2686
1584 2803 2957
1233 2471 1207
1230 2518 1422
1259 2586 1658
1411 2724 1994
1499 2821 2264
1556 2872 2472
1654 2950 2686
1758 3032 2918
1834 3092 3089
280 151 131
302 166 265
357 221 472
398 267 688
425 296 878
458 340 1091
492 394 1324
561 459 1561
624 538 1811
402 372 227
416 394 390
434 403 554
489 472 796
557 544 1053
616 625 1300
688 698 1572
799 805 1844
890 899 2131
477 570 287
503 615 482
543 649 680
605 702 906
678 791 1187
780 916 1503
924 1055 1822
1089 1230 2162
1234 1365 2451
588 819 383
607 840 557
639 886 766
703 951 1010
799 1074 1313
914 1232 1646
1054 1417 1989
1227 1611 2340
1460 1825 2715
658 1108 521
674 1122 671
714 1175 873
755 1247 1123
819 1357 1428
944 1546 1764
1118 1740 2121
1329 1935 2471
1527 2118 2776
711 1442 640
705 1448 783
712 1491 1010
815 1610 1294
867 1686 1559
1009 1849 1889
1216 2058 2260
1437 2242 2570
1601 2397 2871
854 1797 791
830 1817 969
826 1873 1207
967 1984 1495
1045 2069 1774
1157 2179 2048
1325 2322 2352
1592 2530 2690
1731 2656 2958
1142 2181 1012
1124 2196 1214
1133 2249 1437
1258 2378 1752
1399 2488 2050
1488 2568 2299
1618 2675 2547
1775 2790 2811
1933 2936 3091
1493 2554 1305
1509 2599 1515
1550 2664 1755
1642 2766 2037
1779 2892 2331
1862 2974 2572
1939 3045 2781
2028 3124 3003
2092 3190 3203
440 170 152
485 207 306
561 283 549
657 380 818
733 466 1082
768 507 1295
781 529 1492
803 565 1697
873 637 1932
557 400 256
572 419 414
617 461 626
694 537 885
788 637 1155
864 714 1408
938 800 1677
1056 894 1956
1168 989 2233
636 612 320
686 662 533
723 710 746
794 777 978
877 866 1268
1043 1022 1593
1200 1178 1948
1371 1338 2278
1537 1464 2554
748 865 431
800 921 635
869 1000 884
919 1065 1135
1036 1208 1441
1183 1379 1778
1409 1589 2156
1623 1795 2511
1826 1970 2827
856 1200 582
898 1241 760
937 1300 979
996 1396 1257
1121 1524 1577
1335 1742 1947
1539 1932 2310
1734 2126 2638
1917 2289 2939
1026 1580 731
998 1556 880
1001 1599 1106
1095 1716 1402
1241 1858 1720
1433 2044 2068
1680 2266 2450
1881 2442 2763
2021 2566 3027
1205 1922 893
1171 1925 1072
1188 1965 1291
1271 2073 1586
1435 2212 1912
1587 2351 2222
1788 2521 2559
1998 2694 2866
2127 2816 3117
1456 2283 1128
1452 2302 1321
1474 2356 1548
1565 2450 1828
1724 2593 2163
1847 2698 2426
1971 2792 2665
2103 2916 2930
2239 3046 3206
1821 2689 1459
1850 2736 1664
1877 2786 1886
1949 2866 2149
2049 2973 2426
2161 3076 2680
2211 3138 2881
2292 3220 3104
2384 3301 3328
607 195 170
647 241 346
730 314 581
869 438 885
1037 588 1224
1176 697 1520
1274 780 1779
1294 806 1974
1309 832 2151
717 416 276
753 451 446
805 509 682
918 614 953
1091 754 1294
1260 897 1612
1369 990 1888
1448 1045 2127
1502 1098 2344
815 653 366
853 680 537
907 739 775
985 812 1028
1141 948 1351
1340 1128 1690
1509 1290 2035
1663 1411 2336
1835 1546 2623
930 911 466
1003 981 699
1102 1093 972
1182 1172 1239
1271 1259 1487
1497 1479 1877
1731 1690 2245
1913 1847 2578
2103 2011 2864
1085 1275 659
1155 1332 825
1288 1473 1151
1421 1621 1474
1518 1706 1740
1665 1851 2051
1871 2045 2407
2083 2241 2748
2249 2380 3009
1348 1711 857
1398 1766 1079
1475 1839 1329
1578 1963 1631
1720 2102 1950
1851 2222 2238
2055 2395 2560
2210 2539 2859
2355 2670 3129
1671 2159 1114
1655 2161 1314
1654 2192 1535
1727 2265 1774
1881 2415 2118
2017 2530 2386
2175 2664 2673
2345 2824 2989
2460 2937 3235
1976 2547 1430
1915 2515 1555
1915 2545 1756
1972 2614 2004
2088 2718 2288
2211 2839 2560
2310 2928 2799
2432 3047 3063
2533 3151 3306
2233 2884 1680
2211 2892 1849
2239 2935 2062
2280 2998 2298
2344 3071 2518
2429 3168 2773
2504 3245 2993
2579 3335 3221
2654 3407 3423
777 225 195
815 270 378
925 357 606
1049 461 908
1288 636 1267
1540 826 1655
1691 942 1962
1799 1032 2216
1858 1076 2423
893 456 301
937 486 485
1026 557 711
1149 657 1002
1396 853 1392
1676 1063 1783
1873 1224 2132
1964 1299 2368
1992 1315 2561
1013 688 391
1067 723 584
1132 778 798
1240 876 1078
1468 1059 1460
1722 1287 1862
1925 1465 2194
2040 1546 2459
2121 1595 2661
1178 996 538
1269 1072 771
1375 1159 1021
1460 1250 1305
1584 1362 1586
1810 1570 1958
2053 1780 2327
2193 1908 2622
2297 1990 2855
1362 1353 699
1474 1463 960
1628 1603 1269
1782 1750 1598
1853 1819 1838
1946 1907 2103
2178 2113 2462
2372 2293 2788
2504 2423 3048
1660 1810 949
1752 1899 1190
1891 2029 1504
2052 2185 1855
2175 2305 2146
2232 2364 2383
2338 2456 2622
2485 2604 2925
2620 2737 3199
2041 2301 1297
2113 2377 1556
2190 2452 1816
2244 2520 2054
2334 2609 2316
2429 2707 2577
2518 2796 2812
2629 2906 3069
2712 2995 3297
2417 2760 1687
2419 2784 1871
2400 2785 2039
2424 2833 2250
2459 2876 2450
2553 2975 2711
2613 3048 2926
2722 3157 3178
2841 3263 3416
2672 3132 2001
2636 3124 2145
2610 3117 2280
2626 3152 2468
2655 3197 2665
2705 3260 2872
2794 3354 3102
2867 3434 3321
2943 3509 3521
957 264 238
1029 301 401
1144 398 648
1308 514 969
1470 633 1272
1816 863 1700
2049 1040 2069
2173 1150 2351
2253 1212 2573
1114 497 335
1170 526 522
1275 614 767
1443 740 1073
1629 868 1400
1994 1144 1867
2262 1370 2280
2365 1460 2539
2420 1484 2698
1274 750 464
1327 787 650
1410 856 875
1539 948 1171
1794 1157 1546
2106 1417 1988
2345 1634 2364
2493 1761 2644
2546 1798 2841
1488 1103 642
1561 1152 831
1678 1252 1084
1762 1324 1341
1946 1487 1691
2194 1707 2091
2407 1903 2427
2527 2030 2725
2578 2061 2902
1731 1499 819
1850 1601 1096
1975 1723 1391
2098 1828 1674
2196 1922 1945
2290 2014 2201
2470 2187 2522
2630 2350 2840
2721 2443 3076
2054 1954 1081
2128 2043 1352
2230 2145 1639
2375 2279 1947
2493 2396 2246
2533 2436 2450
2586 2497 2661
2727 2645 2962
2848 2765 3225
2398 2429 1450
2442 2482 1674
2501 2543 1910
2604 2661 2217
2701 2772 2495
2772 2848 2723
2800 2891 2922
2872 2965 3129
2970 3054 3352
2695 2853 1798
2719 2893 2013
2753 2945 2238
2804 3012 2451
2840 3063 2662
2891 3129 2875
2960 3200 3090
3026 3263 3289
3107 3344 3495
2940 3239 2146
2962 3276 2344
2971 3309 2517
2997 3347 2696
3014 3375 2859
3032 3404 3022
3101 3480 3234
3160 3542 3419
3217 3582 3589
1205 322 288
1263 363 463
1395 448 688
1586 575 1002
1751 669 1290
1971 829 1639
2312 1086 2114
2471 1238 2454
2551 1291 2652
1378 547 377
1444 592 584
1567 672 819
1762 808 1157
1968 960 1493
2179 1125 1844
2523 1421 2316
2676 1553 2637
2730 1597 2830
1557 835 525
1630 860 708
1750 950 975
1905 1080 1291
2133 1258 1654
2382 1472 2028
2643 1733 2460
2807 1898 2777
2887 1962 2993
1835 1198 704
1930 1275 935
2012 1350 1197
2138 1452 1483
2290 1596 1801
2501 1805 2186
2743 2045 2573
2855 2175 2864
2931 2233 3058
2158 1685 997
2247 1766 1243
2349 1854 1506
2438 1935 1784
2519 2024 2046
2624 2128 2310
2799 2312 2643
2903 2435 2927
2990 2516 3153
2455 2140 1282
2509 2199 1522
2588 2279 1782
2653 2351 2042
2752 2453 2309
2810 2526 2549
2863 2579 2747
2973 2701 3018
3079 2814 3269
2732 2561 1604
2742 2580 1793
2782 2638 2033
2850 2710 2280
2953 2835 2565
3030 2932 2813
3059 2961 2981
3090 3001 3162
3192 3095 3392
2960 2940 1922
2970 2963 2107
2994 3005 2307
3047 3077 2542
3123 3169 2786
3213 3265 3014
3269 3324 3208
3294 3356 3366
3322 3377 3526
3174 3307 2248
3199 3347 2432
3229 3388 2610
3275 3448 2803
3341 3519 3004
3383 3570 3191
3427 3614 3358
3458 3646 3523
3474 3663 3659
1471 363 325
1559 426 507
1676 492 743
1874 630 1072
2086 778 1412
2223 868 1685
2415 1040 2048
2688 1255 2464
2793 1373 2751
1691 626 468
1788 683 663
1912 752 889
2106 902 1235
2324 1077 1618
2494 1220 1942
2667 1381 2283
2874 1606 2678
2980 1680 2911
1895 913 593
2031 996 849
2162 1103 1123
2284 1197 1405
2488 1389 1772
2657 1558 2132
2823 1736 2472
3047 1983 2861
3138 2072 3099
2233 1363 853
2304 1406 1062
2413 1499 1346
2541 1619 1650
2645 1731 1951
2801 1895 2281
2960 2090 2633
3104 2252 2932
3221 2375 3196
2575 1871 1187
2624 1923 1419
2702 1999 1675
2771 2060 1912
2839 2138 2163
2926 2245 2436
3056 2408 2757
3183 2546 3035
3250 2616 3244
2834 2323 1494
2874 2368 1714
2929 2431 1957
2976 2485 2189
3024 2545 2418
3071 2606 2633
3136 2684 2866
3240 2798 3105
3310 2878 3325
3043 2692 1784
3050 2717 1968
3089 2773 2198
3131 2827 2424
3181 2891 2633
3249 2974 2863
3295 3029 3055
3337 3071 3238
3396 3136 3424
3234 3060 2087
3232 3068 2248
3256 3110 2442
3287 3152 2629
3341 3224 2837
3423 3317 3072
3496 3386 3267
3521 3412 3419
3519 3411 3556
3443 3425 2393
3440 3433 2537
3460 3462 2693
3490 3503 2862
3546 3564 3052
3608 3630 3246
3670 3692 3442
3695 3722 3586
3702 3732 3717
1781 446 401
1875 491 565
1982 566 825
2166 682 1111
2363 831 1439
2536 978 1793
2631 1070 2059
2798 1206 2403
2987 1401 2767
2046 722 543
2156 787 768
2274 874 1056
2433 1001 1364
2591 1141 1696
2777 1323 2045
2873 1433 2342
3015 1569 2658
3155 1715 2946
2268 1017 692
2441 1157 1022
2568 1263 1296
2652 1346 1571
2784 1492 1892
2951 1674 2262
3072 1814 2567
3198 1968 2864
3352 2124 3147
2609 1525 1032
2693 1589 1264
2807 1686 1557
2902 1794 1849
2978 1883 2115
3083 2011 2405
3179 2140 2685
3295 2277 2959
3455 2461 3285
2926 2045 1376
2968 2078 1586
3020 2138 1813
3072 2199 2075
3121 2274 2320
3184 2346 2556
3286 2476 2833
3401 2616 3109
3485 2702 3321
3170 2500 1714
3196 2533 1926
3241 2586 2147
3256 2617 2343
3282 2648 2534
3321 2707 2738
3384 2777 2955
3469 2876 3190
3540 2951 3408
3340 2857 1996
3361 2892 2189
3379 2931 2394
3428 2986 2592
3460 3028 2784
3481 3056 2950
3508 3085 3114
3559 3152 3318
3604 3189 3477
3487 3178 2250
3494 3195 2413
3524 3241 2598
3563 3292 2784
3605 3343 2953
3635 3381 3130
3680 3430 3303
3704 3455 3463
3706 3458 3599
3659 3510 2503
3674 3534 2653
3695 3565 2815
3726 3602 2971
3756 3642 3138
3788 3680 3305
3832 3729 3481
3860 3764 3627
3866 3773 3759
