src/luts/The_Book_of_Eli_-_Rec709.3dl
# Created by Benjamin (IWLTBAP) : http://luts.iwltbap.com
# Copyright: (C) Copyright 2016 Triune Films and IWLTBAP
# Blockbuster LUTs Pack
0 64 128 192 256 320 384 448 512 576 640 704 768 832 896 960 1023
130 123 112
129 122 156
132 127 221
142 135 294
160 149 386
177 168 486
192 184 590
210 202 683
229 227 786
248 244 887
272 271 992
303 307 1112
340 331 1226
367 360 1345
388 388 1459
428 432 1586
447 458 1698
200 249 166
197 243 223
196 242 288
199 244 364
217 259 458
239 282 565
258 302 667
283 328 776
300 357 882
329 390 994
356 413 1108
385 439 1227
414 464 1344
438 506 1471
486 551 1587
518 584 1706
548 620 1835
253 357 205
247 351 268
245 346 333
250 350 412
258 362 504
282 380 616
313 416 735
341 451 851
369 482 960
401 516 1074
433 549 1205
479 595 1349
513 631 1478
553 680 1602
590 720 1714
634 762 1838
678 806 1982
287 445 226
282 443 293
279 446 373
285 451 452
291 459 543
313 474 651
342 505 770
376 544 892
411 577 1002
450 621 1136
490 672 1284
542 724 1439
601 790 1593
658 848 1725
703 896 1869
759 958 2019
821 997 2149
312 531 246
320 544 333
319 549 423
326 553 500
340 564 587
355 578 688
375 601 798
406 638 919
454 686 1054
499 738 1202
548 795 1357
607 853 1509
680 933 1672
746 1001 1825
815 1083 1999
907 1177 2170
974 1229 2307
352 638 296
364 654 384
369 663 465
382 664 538
394 674 622
409 696 728
427 713 838
456 754 959
489 797 1102
554 860 1249
609 920 1402
671 999 1584
745 1080 1750
820 1161 1910
913 1273 2099
1002 1373 2272
1070 1450 2445
409 762 340
422 773 421
429 785 507
445 795 582
460 806 680
471 828 793
494 851 907
519 879 1020
540 923 1163
599 986 1304
659 1053 1469
717 1136 1648
782 1233 1819
858 1322 1986
954 1437 2166
1025 1541 2360
1090 1632 2528
476 892 386
486 906 468
507 926 580
508 933 640
518 950 756
527 966 874
541 991 984
562 1015 1085
611 1071 1218
652 1133 1366
718 1216 1549
765 1290 1710
806 1376 1872
868 1479 2066
939 1584 2214
1000 1691 2395
1099 1785 2570
510 1050 461
514 1058 540
525 1072 639
542 1095 720
554 1117 833
558 1119 939
572 1137 1037
601 1180 1157
650 1239 1296
678 1291 1444
728 1373 1615
762 1448 1766
796 1525 1930
843 1619 2104
909 1714 2256
1032 1837 2425
1111 1925 2600
522 1213 516
523 1227 612
528 1241 711
543 1257 783
566 1286 890
582 1306 1019
601 1331 1117
615 1363 1242
631 1399 1374
655 1447 1515
690 1517 1665
724 1600 1826
781 1691 2009
882 1783 2167
969 1865 2308
1044 1962 2449
1101 2046 2624
509 1384 588
509 1389 675
504 1394 758
536 1439 876
568 1478 989
587 1508 1108
600 1529 1223
601 1542 1337
616 1572 1450
646 1626 1592
689 1691 1744
761 1765 1900
868 1875 2090
937 1961 2245
956 2019 2373
1015 2085 2508
1111 2158 2643
559 1558 668
562 1564 747
562 1572 827
592 1608 940
613 1646 1083
632 1688 1215
644 1721 1333
645 1743 1444
673 1773 1550
731 1834 1701
781 1887 1846
821 1946 1982
865 2028 2145
932 2106 2299
1058 2206 2465
1150 2276 2613
1209 2324 2736
618 1749 734
599 1736 814
609 1760 915
607 1791 1027
624 1844 1177
674 1895 1318
733 1944 1448
744 1964 1575
758 1987 1684
784 2031 1817
804 2077 1947
868 2137 2085
944 2201 2229
1041 2265 2376
1158 2360 2536
1249 2446 2696
1309 2506 2828
704 1934 822
696 1932 913
710 1949 1019
706 1983 1146
749 2030 1287
803 2096 1440
843 2142 1576
861 2164 1697
881 2191 1802
903 2213 1924
944 2253 2055
1021 2328 2211
1080 2389 2342
1136 2437 2464
1240 2510 2596
1371 2604 2763
1472 2679 2911
869 2105 930
846 2115 1019
846 2135 1141
831 2159 1267
843 2196 1382
900 2253 1542
990 2324 1707
1041 2363 1834
1070 2393 1948
1099 2428 2071
1129 2459 2186
1190 2510 2316
1262 2568 2446
1325 2613 2561
1396 2662 2686
1495 2735 2825
1584 2803 2957
1022 2276 1048
1003 2286 1149
1013 2324 1261
1014 2344 1385
1029 2371 1511
1102 2438 1667
1199 2529 1853
1253 2574 1999
1293 2612 2121
1322 2635 2226
1352 2660 2329
1401 2698 2441
1477 2751 2553
1534 2806 2674
1593 2852 2801
1637 2890 2907
1691 2934 3018
1233 2471 1207
1230 2489 1313
1230 2518 1422
1226 2542 1531
1259 2586 1658
1331 2653 1813
1411 2724 1994
1466 2781 2141
1499 2821 2264
1527 2841 2368
1556 2872 2472
1599 2908 2573
1654 2950 2686
1715 2993 2803
1758 3032 2918
1800 3067 3016
1834 3092 3089
207 137 122
209 140 170
213 146 241
228 160 325
244 175 421
265 198 530
284 217 632
299 233 727
313 252 822
333 275 927
357 301 1038
380 325 1153
406 357 1269
432 385 1388
468 421 1508
502 461 1631
523 489 1738
273 253 169
276 255 234
277 258 305
282 269 393
299 283 484
323 307 595
346 332 703
372 357 812
392 387 921
408 410 1021
442 437 1144
470 464 1268
498 497 1390
533 547 1522
576 592 1645
603 613 1752
638 658 1882
328 367 217
328 366 283
327 366 356
328 371 439
343 387 532
371 408 647
396 441 762
433 482 891
463 512 1001
485 545 1112
522 586 1249
568 638 1402
604 675 1530
643 719 1651
689 756 1773
736 805 1909
784 854 2056
366 470 257
366 464 318
371 471 399
377 480 484
385 492 578
413 514 696
445 542 814
472 583 937
514 620 1059
554 668 1198
599 725 1350
649 778 1499
699 826 1641
758 890 1791
817 951 1944
876 1007 2080
932 1046 2204
394 552 267
406 569 363
410 577 451
417 584 541
437 602 630
455 622 738
479 643 853
519 691 983
563 736 1121
607 788 1270
661 848 1421
723 914 1576
790 983 1735
871 1070 1908
946 1152 2083
1034 1231 2230
1091 1294 2373
438 656 299
454 677 401
461 691 490
470 699 583
487 710 660
500 729 764
517 754 891
572 811 1031
620 869 1178
666 916 1326
723 978 1483
787 1059 1656
859 1142 1812
950 1242 1989
1024 1333 2179
1122 1440 2346
1198 1533 2529
498 788 361
508 799 448
518 813 531
522 822 619
543 840 721
564 867 831
597 901 957
638 943 1085
671 999 1235
716 1051 1377
780 1132 1555
822 1206 1719
900 1310 1892
992 1406 2061
1061 1502 2242
1148 1626 2436
1254 1729 2618
562 928 429
567 931 501
583 944 589
573 953 670
594 986 792
612 1003 900
639 1038 1017
671 1080 1145
718 1146 1301
756 1207 1441
817 1301 1616
844 1359 1774
917 1462 1952
995 1563 2124
1057 1661 2293
1157 1771 2469
1270 1866 2635
584 1086 499
589 1086 570
601 1093 648
617 1116 737
634 1145 855
649 1161 965
660 1178 1076
703 1232 1209
739 1297 1362
768 1370 1511
816 1454 1676
859 1526 1835
918 1618 2014
981 1716 2184
1078 1806 2344
1195 1910 2512
1295 2005 2670
593 1241 543
596 1250 627
600 1255 712
618 1278 806
637 1307 906
658 1345 1038
663 1362 1152
682 1403 1289
702 1446 1426
748 1521 1575
789 1602 1733
852 1685 1904
955 1787 2088
1056 1882 2256
1138 1957 2398
1210 2058 2563
1303 2144 2714
606 1402 601
605 1412 687
601 1422 769
604 1438 874
621 1479 997
647 1526 1130
690 1565 1253
711 1592 1374
733 1622 1495
778 1695 1643
822 1762 1800
910 1851 1978
1018 1965 2166
1092 2046 2319
1165 2116 2459
1248 2194 2606
1341 2274 2751
664 1583 681
677 1587 761
679 1600 846
686 1630 959
703 1660 1094
728 1714 1235
756 1753 1350
776 1787 1482
801 1819 1608
862 1881 1737
912 1936 1886
947 2004 2041
1013 2097 2208
1136 2197 2374
1275 2308 2544
1358 2365 2684
1405 2405 2798
710 1771 744
697 1757 830
707 1781 934
706 1818 1051
717 1858 1191
769 1907 1334
840 1961 1460
873 1997 1610
886 2025 1732
931 2073 1859
977 2123 1994
1024 2175 2128
1112 2254 2282
1228 2338 2437
1371 2452 2618
1472 2529 2768
1524 2574 2888
828 1954 835
815 1954 930
825 1985 1049
836 2004 1166
862 2042 1297
912 2102 1440
972 2165 1592
1003 2201 1738
1022 2234 1859
1066 2275 1991
1118 2319 2122
1185 2374 2254
1263 2437 2393
1352 2500 2528
1466 2584 2683
1593 2680 2847
1676 2744 2973
994 2127 954
979 2134 1037
975 2163 1167
975 2191 1298
975 2216 1400
1038 2277 1552
1119 2347 1730
1192 2406 1881
1233 2440 2003
1263 2470 2120
1307 2509 2242
1374 2569 2377
1444 2625 2502
1518 2676 2623
1591 2724 2749
1695 2809 2903
1769 2874 3027
1164 2314 1085
1160 2327 1185
1163 2352 1297
1165 2384 1428
1178 2409 1544
1237 2468 1686
1327 2555 1879
1393 2610 2030
1446 2654 2162
1487 2686 2274
1515 2710 2379
1568 2754 2499
1640 2808 2613
1703 2858 2734
1755 2898 2845
1796 2944 2953
1847 2992 3069
1353 2512 1248
1357 2528 1353
1364 2549 1460
1377 2580 1573
1395 2614 1694
1449 2676 1848
1522 2746 2015
1590 2808 2168
1641 2856 2296
1671 2887 2409
1706 2920 2517
1751 2956 2619
1799 2995 2731
1852 3038 2847
1895 3074 2954
1934 3112 3059
1963 3139 3139
280 151 131
285 155 183
302 166 265
324 190 361
357 221 472
382 246 584
398 267 688
412 283 785
425 296 878
437 315 980
458 340 1091
473 364 1208
492 394 1324
524 421 1439
561 459 1561
593 501 1686
624 538 1811
354 265 180
356 270 243
363 277 322
375 291 418
404 310 517
432 344 639
448 373 748
470 399 859
492 424 970
507 449 1078
531 475 1195
558 508 1323
587 539 1446
623 577 1570
654 606 1682
694 639 1804
735 695 1948
402 372 227
408 382 293
416 394 390
417 396 473
434 403 554
466 438 682
489 472 796
523 511 922
557 544 1053
581 580 1171
616 625 1300
655 664 1444
688 698 1572
742 759 1708
799 805 1844
842 856 1990
890 899 2131
442 475 266
451 488 338
464 510 443
473 519 539
486 524 619
511 548 730
539 576 844
576 624 985
619 666 1121
659 713 1257
702 761 1399
748 812 1544
807 873 1702
879 946 1862
939 1001 2003
999 1065 2148
1055 1114 2283
477 570 287
490 587 386
503 615 482
522 631 581
543 649 680
569 670 786
605 702 906
642 749 1046
678 791 1187
722 847 1336
780 916 1503
847 982 1646
924 1055 1822
1012 1151 1995
1089 1230 2162
1174 1301 2311
1234 1365 2451
528 685 325
539 699 422
549 719 511
571 740 616
589 757 712
612 777 818
660 826 958
706 881 1108
740 929 1250
790 988 1403
862 1068 1575
923 1150 1733
1003 1235 1908
1093 1333 2084
1172 1431 2267
1291 1540 2449
1388 1628 2625
588 819 383
595 823 469
607 840 557
620 856 651
639 886 766
654 903 875
703 951 1010
760 1015 1162
799 1074 1313
853 1145 1471
914 1232 1646
969 1318 1813
1054 1417 1989
1129 1502 2162
1227 1611 2340
1354 1728 2525
1460 1825 2715
644 957 461
646 959 527
660 975 612
659 987 699
682 1020 816
706 1043 927
738 1089 1059
789 1154 1214
825 1217 1375
881 1309 1540
933 1396 1702
993 1477 1879
1083 1578 2055
1164 1674 2231
1266 1773 2399
1411 1890 2568
1492 1972 2734
658 1108 521
664 1111 587
674 1122 671
689 1145 763
714 1175 873
739 1214 996
755 1247 1123
803 1302 1270
819 1357 1428
872 1451 1599
944 1546 1764
1023 1636 1943
1118 1740 2121
1214 1839 2306
1329 1935 2471
1449 2045 2630
1527 2118 2776
668 1269 573
678 1275 636
681 1271 713
695 1294 814
719 1338 939
741 1384 1073
749 1416 1207
774 1465 1343
803 1512 1489
887 1604 1655
983 1701 1833
1075 1804 2018
1174 1903 2197
1276 2008 2377
1380 2093 2517
1489 2202 2700
1564 2264 2822
711 1442 640
706 1438 701
705 1448 783
700 1458 887
712 1491 1010
752 1549 1155
815 1610 1294
852 1654 1423
867 1686 1559
926 1764 1718
1009 1849 1889
1122 1966 2090
1216 2058 2260
1327 2161 2424
1437 2242 2570
1518 2316 2730
1601 2397 2871
789 1622 714
784 1622 785
781 1626 865
783 1645 973
804 1676 1104
830 1735 1246
878 1789 1371
918 1840 1521
937 1875 1660
992 1937 1807
1067 2012 1967
1145 2101 2141
1255 2190 2306
1385 2299 2474
1522 2395 2630
1590 2457 2778
1632 2502 2895
854 1797 791
846 1805 868
830 1817 969
819 1837 1077
826 1873 1207
876 1917 1349
967 1984 1495
1031 2039 1645
1045 2069 1774
1089 2113 1905
1157 2179 2048
1223 2245 2195
1325 2322 2352
1453 2421 2516
1592 2530 2690
1690 2608 2837
1731 2656 2958
986 1988 887
977 1998 973
971 2019 1086
973 2033 1199
993 2062 1317
1033 2115 1459
1099 2183 1620
1157 2240 1770
1198 2284 1904
1251 2322 2033
1302 2374 2175
1372 2431 2313
1455 2488 2441
1559 2563 2584
1667 2652 2748
1784 2748 2914
1843 2802 3035
1142 2181 1012
1120 2176 1097
1124 2196 1214
1128 2224 1335
1133 2249 1437
1177 2298 1572
1258 2378 1752
1345 2445 1918
1399 2488 2050
1450 2530 2176
1488 2568 2299
1543 2614 2419
1618 2675 2547
1695 2726 2673
1775 2790 2811
1871 2877 2969
1933 2936 3091
1302 2357 1132
1304 2369 1224
1309 2387 1342
1319 2423 1476
1332 2453 1590
1376 2502 1723
1451 2576 1899
1535 2645 2066
1601 2702 2208
1643 2747 2330
1685 2781 2433
1729 2817 2550
1787 2860 2666
1859 2912 2788
1912 2959 2906
1963 3010 3027
2016 3064 3142
1493 2554 1305
1500 2576 1408
1509 2599 1515
1523 2625 1626
1550 2664 1755
1585 2711 1896
1642 2766 2037
1714 2829 2188
1779 2892 2331
1825 2939 2458
1862 2974 2572
1894 3004 2672
1939 3045 2781
1989 3090 2891
2028 3124 3003
2064 3162 3110
2092 3190 3203
361 155 139
371 162 198
395 186 286
428 226 400
464 260 518
501 291 641
527 315 747
555 347 858
573 371 971
574 383 1070
587 406 1172
593 424 1277
607 443 1391
639 468 1504
660 497 1617
697 541 1742
731 582 1874
431 275 190
437 281 255
449 295 339
469 316 446
500 346 558
536 389 688
563 420 802
590 451 914
615 481 1040
628 500 1146
647 526 1259
669 560 1384
691 579 1497
726 614 1618
766 654 1739
806 692 1875
