src/luts/The_Lord_of_the_Rings_-_Rec709.3dl
# Created by Benjamin (IWLTBAP) : http://luts.iwltbap.com
# Copyright: (C) Copyright 2016 Triune Films and IWLTBAP
# Blockbuster LUTs Pack
0 128 256 384 512 640 768 896 1023
23 21 20
34 32 163
116 89 418
184 151 675
233 195 952
327 230 1397
501 285 2082
709 402 2724
789 455 2988
50 200 36
100 252 245
184 330 503
245 396 761
284 422 1125
362 409 1632
467 438 2005
547 479 2270
597 521 2438
170 480 154
217 534 359
271 600 599
293 651 890
313 657 1263
386 659 1576
468 683 1873
550 720 2151
614 784 2355
296 762 278
344 837 489
358 917 698
362 948 963
410 955 1262
483 981 1588
567 1019 1910
648 1060 2206
708 1108 2417
434 1086 414
473 1216 586
506 1291 789
527 1303 1041
573 1335 1357
644 1373 1691
719 1412 2017
800 1458 2333
855 1483 2567
635 1546 570
683 1652 723
716 1695 925
741 1717 1182
781 1755 1496
839 1801 1836
912 1847 2174
980 1881 2485
1009 1857 2702
884 2042 767
904 2070 895
927 2100 1087
965 2147 1352
1003 2185 1660
1044 2221 1984
1100 2261 2315
1167 2298 2640
1201 2281 2896
1101 2455 948
1107 2462 1068
1132 2496 1261
1167 2538 1518
1212 2589 1830
1250 2625 2143
1287 2653 2459
1340 2682 2778
1387 2687 3070
1216 2699 1052
1220 2701 1181
1248 2737 1399
1291 2794 1672
1330 2836 1969
1363 2867 2259
1415 2923 2571
1476 2988 2891
1549 3045 3212
187 31 29
246 69 217
312 144 476
368 207 734
421 216 1120
533 229 1707
690 311 2296
778 376 2615
843 429 2857
266 259 91
313 315 307
378 392 563
400 429 869
432 409 1289
514 424 1723
614 466 2114
705 521 2448
738 571 2608
377 538 212
427 599 424
415 647 646
401 658 954
449 672 1335
531 696 1720
623 738 2077
717 798 2397
778 875 2615
510 838 344
503 925 507
474 976 708
482 995 1009
544 1027 1380
622 1059 1750
712 1106 2103
800 1159 2426
882 1232 2699
628 1241 452
627 1345 600
641 1386 813
661 1410 1110
708 1442 1468
784 1483 1837
872 1537 2193
950 1580 2518
1030 1634 2822
807 1722 612
838 1791 763
857 1823 967
888 1857 1261
933 1897 1612
988 1935 1966
1058 1975 2309
1124 2006 2632
1216 2075 2974
1022 2134 806
1057 2218 949
1074 2241 1143
1109 2280 1427
1152 2322 1763
1193 2357 2102
1242 2386 2429
1313 2430 2763
1406 2504 3118
1225 2536 994
1252 2597 1119
1271 2620 1316
1314 2671 1604
1357 2717 1925
1385 2738 2236
1431 2777 2564
1508 2847 2912
1591 2911 3258
1345 2794 1105
1375 2854 1247
1432 2933 1506
1484 3004 1802
1543 3077 2130
1596 3136 2456
1655 3200 2780
1708 3253 3094
1770 3295 3401
457 110 98
504 153 296
553 202 533
625 214 848
691 190 1325
800 242 1867
850 303 2178
927 381 2520
948 414 2722
524 335 173
576 397 383
627 424 617
642 406 949
638 412 1351
693 444 1761
765 497 2129
828 546 2437
842 610 2615
628 609 278
670 659 453
656 660 655
631 676 979
626 705 1366
691 745 1751
769 794 2104
845 860 2423
910 943 2696
762 951 363
757 1000 501
721 1013 721
674 1036 1036
706 1083 1421
777 1128 1795
859 1186 2154
937 1242 2482
1027 1324 2811
907 1387 482
891 1433 635
851 1453 857
830 1486 1165
867 1524 1524
945 1582 1906
1021 1635 2262
1090 1680 2590
1200 1777 2957
1090 1831 688
1060 1895 819
1028 1918 1029
1055 1964 1338
1099 2010 1691
1144 2048 2043
1216 2101 2397
1298 2163 2747
1404 2252 3120
1275 2277 894
1239 2326 1001
1244 2366 1223
1279 2409 1517
1326 2463 1859
1368 2503 2205
1431 2561 2555
1512 2625 2909
1613 2710 3282
1444 2683 1081
1413 2715 1173
1448 2766 1407
1482 2811 1690
1524 2861 2017
1585 2928 2370
1649 2996 2716
1713 3053 3061
1803 3124 3425
1587 2980 1212
1558 3024 1329
1624 3120 1610
1690 3209 1925
1759 3293 2270
1817 3359 2605
1872 3418 2932
1922 3465 3248
1986 3514 3565
712 186 174
768 234 375
887 248 620
1017 202 971
1087 226 1405
1107 286 1780
1152 356 2149
1199 426 2494
1132 429 2644
806 428 262
914 463 447
997 439 668
1022 420 992
1044 445 1388
1062 488 1785
1065 539 2143
1056 589 2449
980 645 2659
968 697 320
1035 708 460
1044 717 699
1048 732 1019
1074 784 1409
1094 845 1800
1089 896 2151
1045 928 2460
1066 1003 2783
1120 1047 381
1143 1073 537
1132 1084 779
1147 1127 1108
1164 1187 1484
1160 1248 1871
1151 1292 2222
1095 1322 2541
1199 1428 2917
1284 1482 568
1308 1536 707
1307 1558 952
1314 1597 1269
1289 1641 1615
1267 1699 1988
1234 1739 2333
1268 1798 2682
1377 1904 3072
1491 1972 795
1513 2034 915
1528 2070 1167
1526 2112 1476
1457 2147 1796
1406 2184 2141
1408 2239 2491
1498 2317 2866
1600 2411 3250
1703 2456 1021
1729 2506 1126
1739 2548 1378
1694 2584 1664
1626 2616 1972
1578 2652 2308
1635 2720 2667
1716 2796 3036
1813 2879 3416
1901 2889 1222
1914 2918 1314
1900 2962 1556
1818 2986 1819
1765 3040 2136
1804 3109 2491
1865 3179 2843
1926 3241 3197
2018 3317 3571
2079 3206 1371
2072 3269 1482
2043 3355 1775
2015 3430 2080
1976 3476 2388
2036 3547 2731
2082 3601 3055
2128 3647 3373
2178 3681 3684
1013 269 256
1194 311 458
1419 330 718
1467 330 1031
1460 325 1380
1485 378 1770
1536 446 2163
1575 507 2509
1533 523 2697
1227 504 330
1411 524 507
1471 522 742
1494 522 1063
1501 526 1433
1524 576 1824
1542 628 2178
1529 668 2483
1472 727 2752
1426 779 385
1519 794 550
1536 825 801
1544 848 1116
1561 884 1483
1593 945 1868
1618 1005 2227
1618 1067 2552
1600 1156 2911
1554 1147 512
1643 1185 659
1651 1219 910
1656 1262 1229
1675 1309 1580
1713 1383 1963
1746 1456 2328
1774 1540 2691
1747 1625 3071
1752 1608 698
1830 1667 828
1835 1698 1079
1844 1741 1398
1876 1811 1759
1898 1876 2119
1939 1964 2494
1964 2047 2875
1875 2117 3247
1983 2123 926
2051 2187 1043
2079 2235 1308
2082 2275 1618
2094 2326 1959
2092 2380 2302
2124 2470 2678
2139 2562 3064
2051 2617 3424
2230 2642 1169
2291 2690 1279
2306 2734 1519
2310 2778 1833
2323 2838 2181
2312 2894 2518
2295 2949 2854
2261 3023 3220
2210 3077 3578
2437 3076 1375
2481 3116 1472
2494 3171 1702
2505 3234 2034
2522 3308 2383
2504 3372 2716
2457 3412 3035
2394 3453 3363
2374 3505 3714
2624 3410 1530
2648 3496 1644
2669 3590 1945
2682 3664 2281
2678 3724 2609
2647 3775 2918
2570 3804 3210
2556 3839 3520
2583 3832 3788
1514 396 388
1819 469 599
1872 493 806
1887 498 1090
1910 505 1442
1943 516 1838
1973 566 2212
2028 631 2597
1953 630 2771
1779 618 465
1942 657 647
1980 666 857
1988 669 1157
1994 677 1514
2002 687 1883
2009 722 2227
1986 747 2523
1982 827 2846
1877 888 543
2037 922 704
2055 964 939
2070 997 1246
2088 1035 1602
2095 1060 1953
2124 1119 2310
2149 1193 2655
2176 1296 3041
2042 1268 676
2176 1321 819
2192 1366 1064
2212 1430 1389
2225 1472 1725
2242 1518 2076
2303 1611 2455
2357 1703 2839
2386 1815 3236
2271 1749 866
2369 1812 989
2406 1872 1255
2427 1933 1576
2431 1982 1915
2459 2047 2266
2525 2146 2647
2588 2249 3040
2628 2374 3447
2520 2275 1084
2613 2348 1212
2650 2406 1460
2657 2455 1776
2668 2509 2124
2709 2594 2492
2753 2676 2849
2811 2779 3239
2830 2880 3634
2760 2789 1314
2845 2850 1430
2869 2899 1645
2888 2959 1986
2894 3016 2332
2913 3078 2682
2931 3138 3015
2961 3219 3383
2976 3305 3748
2947 3226 1510
3031 3279 1619
3059 3346 1829
3081 3424 2180
3093 3487 2530
3106 3542 2870
3098 3582 3181
3084 3619 3500
3124 3663 3810
3118 3555 1659
3183 3663 1787
3207 3756 2065
3217 3822 2399
3223 3875 2733
3228 3917 3048
3215 3950 3341
3185 3966 3625
3266 3940 3861
2203 617 611
2304 662 763
2322 669 938
2341 677 1200
2384 694 1550
2402 698 1924
2453 716 2320
2548 793 2758
1963 556 2366
2233 754 635
2443 809 809
2450 813 991
2450 817 1267
2454 822 1607
2454 821 1954
2436 805 2267
2413 826 2558
2463 935 2937
2346 1020 714
2525 1065 867
2544 1114 1093
2561 1150 1383
2570 1174 1714
2585 1204 2063
2602 1245 2401
2636 1309 2760
2687 1426 3161
2539 1406 852
2674 1461 985
2701 1518 1225
2727 1588 1542
2749 1637 1875
2779 1698 2232
2811 1754 2583
2868 1841 2965
2931 1973 3378
2796 1897 1045
2891 1962 1167
2934 2028 1413
2962 2096 1735
2991 2180 2099
3016 2241 2444
3052 2307 2794
3111 2403 3178
3167 2528 3586
3045 2421 1258
3139 2496 1383
3185 2563 1609
3220 2643 1955
3230 2706 2304
3251 2777 2658
3278 2836 2995
3320 2919 3362
3372 3039 3746
3272 2927 1471
3364 2987 1587
3404 3053 1784
3421 3122 2133
3419 3174 2472
3421 3223 2810
3440 3281 3142
3458 3341 3483
3499 3436 3810
3440 3349 1639
3542 3412 1758
3568 3488 1926
3573 3548 2284
3568 3597 2619
3563 3639 2946
3561 3673 3258
3551 3703 3569
3592 3746 3861
3602 3689 1784
3667 3788 1907
3675 3864 2147
3674 3919 2475
3662 3957 2794
3652 3984 3098
3646 4009 3390
3625 4012 3659
3614 3990 3896
2749 834 828
2748 834 924
2774 846 1085
2806 860 1337
2841 874 1666
2883 890 2046
2986 930 2483
3031 944 2874
2361 676 2475
2631 883 784
2869 955 956
2850 945 1115
2844 947 1373
2841 949 1685
2817 931 1998
2797 920 2301
2815 928 2629
2882 1033 3018
2781 1152 875
2954 1201 1018
2966 1250 1232
2979 1279 1504
2993 1311 1828
3018 1352 2174
3047 1392 2519
3076 1437 2868
3140 1551 3268
3009 1549 1023
3113 1595 1138
3152 1661 1375
3185 1739 1691
3214 1797 2024
3247 1855 2375
3289 1922 2733
3324 1984 3091
3393 2110 3495
3270 2029 1209
3346 2095 1323
3396 2167 1558
3435 2256 1894
3475 2349 2259
3509 2420 2610
3537 2478 2951
3563 2537 3298
3624 2655 3696
3509 2548 1415
3596 2621 1532
3644 2701 1751
3682 2787 2097
3710 2867 2457
3730 2938 2809
3739 2986 3132
3751 3036 3465
3767 3144 3793
3723 3031 1608
3809 3098 1725
3847 3177 1903
3870 3253 2261
3879 3315 2604
3876 3360 2935
3871 3398 3249
3860 3429 3557
3861 3515 3851
3889 3446 1770
3968 3526 1891
3986 3595 2045
3993 3649 2388
3985 3692 2712
3962 3718 3017
3940 3736 3313
3921 3755 3609
3921 3798 3895
4011 3780 1897
4038 3862 2004
4045 3928 2244
4035 3967 2546
4017 3994 2841
3999 4015 3126
3980 4032 3402
3968 4044 3679
3987 4045 3936
3128 978 971
3111 971 1056
3083 959 1192
3052 945 1404
3105 967 1712
3124 974 2040
2596 740 1965
2648 758 2261
2720 787 2587
2904 971 879
3114 1033 1037
3085 1019 1203
3095 1028 1459
3106 1035 1757
3123 1042 2072
3149 1052 2394
3176 1066 2719
3253 1161 3111
3105 1268 993
3254 1317 1128
3291 1377 1362
3320 1406 1635
3352 1449 1964
3394 1500 2305
3419 1537 2642
3447 1574 2973
3530 1708 3378
3346 1661 1143
3462 1729 1266
3513 1797 1515
3559 1891 1842
3600 1954 2179
3641 2018 2523
3679 2083 2876
3716 2143 3221
3770 2249 3595
3629 2139 1335
3708 2213 1449
3768 2309 1705
3821 2410 2052
3862 2503 2415
3892 2569 2753
3917 2630 3089
3940 2683 3427
3960 2765 3762
3861 2629 1527
3903 2721 1652
3927 2835 1933
3952 2927 2296
3976 3008 2638
4000 3087 2962
4018 3135 3249
4031 3155 3533
4043 3237 3829
3958 3074 1712
3980 3179 1872
4003 3267 2148
4029 3350 2515
4052 3421 2840
4068 3463 3115
4085 3507 3371
4095 3589 3662
4095 3571 3876
4028 3460 1895
4047 3542 2049
4067 3614 2279
4091 3681 2677
4095 3730 2997
4095 3769 3282
4095 3800 3524
4095 3836 3738
4095 3851 3933
4085 3762 2050
4095 3838 2238
4095 3900 2665
4095 3942 3022
4095 3976 3322
4095 4004 3551
4095 4032 3772
4095 4058 3943
4095 4090 4086
