src/luts/The_Lord_of_the_Rings_-_Rec709.3dl
# Created by Benjamin (IWLTBAP) : http://luts.iwltbap.com
# Copyright: (C) Copyright 2016 Triune Films and IWLTBAP
# Blockbuster LUTs Pack
0 256 512 768 1023
23 21 20
116 89 418
233 195 952
501 285 2082
789 455 2988
170 480 154
271 600 599
313 657 1263
468 683 1873
614 784 2355
434 1086 414
506 1291 789
573 1335 1357
719 1412 2017
855 1483 2567
884 2042 767
927 2100 1087
1003 2185 1660
1100 2261 2315
1201 2281 2896
1216 2699 1052
1248 2737 1399
1330 2836 1969
1415 2923 2571
1549 3045 3212
457 110 98
553 202 533
691 190 1325
850 303 2178
948 414 2722
628 609 278
656 660 655
626 705 1366
769 794 2104
910 943 2696
907 1387 482
851 1453 857
867 1524 1524
1021 1635 2262
1200 1777 2957
1275 2277 894
1244 2366 1223
1326 2463 1859
1431 2561 2555
1613 2710 3282
1587 2980 1212
1624 3120 1610
1759 3293 2270
1872 3418 2932
1986 3514 3565
1013 269 256
1419 330 718
1460 325 1380
1536 446 2163
1533 523 2697
1426 779 385
1536 825 801
1561 884 1483
1618 1005 2227
1600 1156 2911
1752 1608 698
1835 1698 1079
1876 1811 1759
1939 1964 2494
1875 2117 3247
2230 2642 1169
2306 2734 1519
2323 2838 2181
2295 2949 2854
2210 3077 3578
2624 3410 1530
2669 3590 1945
2678 3724 2609
2570 3804 3210
2583 3832 3788
2203 617 611
2322 669 938
2384 694 1550
2453 716 2320
1963 556 2366
2346 1020 714
2544 1114 1093
2570 1174 1714
2602 1245 2401
2687 1426 3161
2796 1897 1045
2934 2028 1413
2991 2180 2099
3052 2307 2794
3167 2528 3586
3272 2927 1471
3404 3053 1784
3419 3174 2472
3440 3281 3142
3499 3436 3810
3602 3689 1784
3675 3864 2147
3662 3957 2794
3646 4009 3390
3614 3990 3896
3128 978 971
3083 959 1192
3105 967 1712
2596 740 1965
2720 787 2587
3105 1268 993
3291 1377 1362
3352 1449 1964
3419 1537 2642
3530 1708 3378
3629 2139 1335
3768 2309 1705
3862 2503 2415
3917 2630 3089
3960 2765 3762
3958 3074 1712
4003 3267 2148
4052 3421 2840
4085 3507 3371
4095 3571 3876
4085 3762 2050
4095 3900 2665
4095 3976 3322
4095 4032 3772
4095 4090 4086
