src/luts/The_Walking_Dead_-_Rec709.3dl
# Created by Benjamin (IWLTBAP) : http://luts.iwltbap.com
# Copyright: (C) Copyright 2016 Triune Films and IWLTBAP
# Blockbuster LUTs Pack
0 128 256 384 512 639 767 895 1023
46 51 72
47 53 519
47 53 993
51 54 1461
57 60 1920
63 65 2344
71 73 2755
79 81 3183
93 90 3605
55 434 78
127 451 529
127 454 1037
126 451 1466
130 450 1923
136 461 2337
149 484 2730
162 505 3123
182 535 3506
60 856 93
198 921 550
242 944 1005
244 948 1501
245 949 1938
241 936 2316
254 949 2686
271 979 3057
292 1016 3414
98 1277 141
235 1364 550
360 1443 951
376 1456 1349
379 1463 1820
383 1471 2257
380 1461 2632
386 1462 3002
408 1493 3337
144 1731 180
270 1817 531
391 1899 898
495 1964 1289
506 1972 1720
512 1984 2167
515 1988 2578
517 1990 2944
510 1970 3285
175 2188 167
301 2260 482
418 2335 837
528 2411 1253
630 2476 1664
646 2484 2083
644 2482 2509
652 2499 2899
658 2511 3261
187 2613 133
311 2691 406
438 2768 777
556 2850 1209
668 2925 1632
771 2990 2040
796 3006 2446
793 3002 2840
790 2996 3200
175 2983 88
285 3052 326
418 3134 678
539 3209 1109
656 3292 1538
769 3368 1961
870 3435 2359
916 3467 2749
913 3462 3117
143 3310 61
256 3379 281
387 3458 600
515 3538 1013
634 3614 1439
756 3703 1870
869 3778 2284
969 3844 2674
1023 3875 3047
532 99 114
434 53 497
416 56 976
395 58 1472
404 63 1941
422 68 2364
451 76 2779
485 85 3203
542 93 3611
393 436 75
425 471 515
400 474 1027
407 482 1512
412 486 1978
422 498 2393
439 515 2791
466 537 3194
514 571 3590
300 868 82
430 951 553
490 981 1009
487 982 1524
485 976 1962
498 975 2342
520 988 2722
550 1016 3106
591 1055 3472
304 1310 141
454 1402 560
597 1489 977
617 1498 1396
621 1506 1867
624 1513 2301
619 1497 2671
646 1503 3030
680 1529 3373
347 1767 183
486 1853 544
620 1940 924
735 2008 1335
748 2016 1766
752 2023 2214
755 2029 2621
754 2026 2982
751 2014 3320
377 2219 179
517 2295 501
651 2374 878
777 2455 1311
889 2521 1723
911 2534 2146
906 2531 2565
911 2541 2945
912 2542 3298
382 2630 158
523 2708 445
667 2785 835
799 2865 1267
924 2940 1690
1043 3009 2102
1072 3026 2507
1071 3026 2899
1067 3019 3252
363 3007 133
493 3074 387
649 3155 774
787 3229 1199
919 3310 1621
1051 3388 2042
1165 3450 2437
1223 3480 2827
1222 3473 3193
308 3333 105
449 3410 349
611 3492 719
765 3570 1149
908 3645 1570
1048 3727 1989
1179 3798 2392
1301 3862 2783
1367 3891 3149
1060 170 188
1028 133 557
956 61 993
928 64 1475
909 70 1945
916 75 2379
944 83 2799
985 91 3217
1055 101 3609
1078 514 173
1147 543 556
888 506 1058
833 513 1561
809 514 2037
818 521 2452
849 542 2860
884 569 3265
945 602 3640
844 866 93
904 941 533
930 1028 1054
876 1049 1537
870 1052 2012
874 1053 2422
884 1048 2812
913 1068 3197
965 1100 3571
691 1327 153
712 1428 564
888 1523 1025
937 1548 1458
939 1551 1941
955 1558 2369
981 1572 2746
998 1567 3103
1030 1583 3452
565 1789 189
717 1876 562
875 1970 963
1021 2048 1399
1046 2056 1834
1049 2060 2290
1055 2066 2696
1060 2063 3054
1103 2077 3399
572 2226 194
738 2315 534
897 2395 930
1046 2478 1371
1189 2557 1801
1220 2566 2221
1222 2569 2643
1227 2573 3024
1229 2569 3373
570 2638 190
727 2717 491
896 2794 895
1053 2876 1334
1198 2952 1758
1338 3021 2173
1382 3040 2580
1383 3038 2977
1385 3031 3332
557 3022 168
693 3097 450
876 3177 868
1035 3248 1291
1191 3328 1715
1346 3406 2137
1483 3470 2533
1551 3497 2915
1552 3488 3286
547 3349 103
629 3435 435
817 3517 843
1017 3603 1289
1187 3678 1706
1343 3759 2111
1490 3826 2505
1619 3880 2880
1709 3915 3251
1621 253 275
1641 234 661
1641 147 1098
1554 85 1531
1504 83 1992
1491 89 2398
1502 96 2785
1526 108 3189
1560 137 3581
1610 617 250
1735 658 651
1586 615 1126
1481 548 1589
1429 540 2036
1399 556 2443
1413 576 2858
1446 598 3254
1484 615 3620
1537 968 208
1697 1024 577
1759 1106 1079
1461 1087 1615
1308 1100 2132
1293 1102 2545
1308 1096 2925
1347 1114 3305
1397 1137 3662
1418 1370 185
1485 1445 591
1529 1529 1117
1536 1623 1633
1449 1664 2061
1431 1672 2493
1437 1672 2879
1447 1651 3242
1478 1650 3592
1292 1828 230
1263 1904 653
1253 2015 1116
1367 2087 1497
1429 2117 1921
1420 2112 2357
1458 2134 2779
1511 2160 3171
1561 2178 3535
1114 2245 238
1033 2335 618
1182 2429 1036
1326 2492 1439
1478 2561 1860
1538 2586 2284
1539 2588 2708
1544 2588 3096
1564 2594 3453
890 2649 196
921 2725 539
1123 2809 963
1300 2882 1395
1475 2964 1829
1642 3038 2251
1712 3066 2657
1712 3061 3051
1711 3050 3415
952 3036 167
953 3109 507
1115 3192 968
1303 3268 1401
1473 3347 1816
1641 3421 2229
1797 3486 2625
1887 3520 3008
1886 3506 3383
1042 3343 87
1105 3445 425
1190 3529 922
1379 3619 1429
1574 3690 1865
1755 3766 2283
1891 3836 2661
1981 3899 3003
2055 3937 3352
2233 352 374
2228 342 768
2205 287 1198
2203 174 1631
2125 117 2057
2072 111 2458
2050 121 2852
2041 143 3233
2068 161 3618
2168 710 330
2241 765 740
2170 752 1200
2166 651 1652
2076 590 2078
2033 591 2502
1976 611 2879
1983 631 3261
2018 649 3635
2109 1053 287
2172 1122 672
2291 1195 1144
2129 1186 1662
1993 1132 2132
1926 1119 2538
1887 1112 2906
1909 1131 3285
1941 1148 3645
2029 1448 262
2114 1527 661
2254 1586 1068
2312 1679 1650
2039 1678 2177
1883 1694 2635
1873 1692 3014
1875 1667 3360
1895 1649 3690
1935 1855 247
1995 1928 632
2069 2001 1120
2130 2085 1654
2145 2176 2186
2051 2212 2597
2026 2228 2984
2029 2234 3351
2034 2228 3702
1859 2279 208
1902 2352 591
1942 2434 1135
1898 2518 1667
2008 2622 2091
2100 2673 2487
2107 2680 2906
2095 2689 3282
2109 2695 3651
1763 2671 186
1805 2740 555
1827 2813 1047
1789 2909 1601
1966 3002 2043
2058 3074 2405
2125 3110 2781
2108 3101 3169
2080 3077 3529
1687 3018 128
1747 3101 492
1754 3183 976
1776 3269 1545
1948 3346 2001
2095 3425 2401
2199 3493 2764
2260 3533 3124
2255 3512 3505
1613 3338 78
1726 3428 403
1778 3514 882
1840 3604 1476
1975 3683 1999
2161 3760 2421
2317 3834 2815
2432 3894 3173
2482 3937 3503
2763 459 451
2761 453 867
2721 407 1277
2743 297 1696
2708 218 2123
2647 182 2516
2609 156 2899
2597 169 3289
2592 184 3647
2696 798 408
2764 851 821
2725 846 1261
2714 769 1701
2708 690 2136
2637 639 2550
2579 635 2941
2566 652 3321
2577 674 3679
2595 1114 356
2661 1185 747
2737 1274 1235
2683 1279 1707
2673 1186 2154
2576 1139 2563
2531 1143 2947
2507 1159 3316
2516 1164 3667
2551 1511 325
2625 1594 720
2699 1675 1200
2773 1764 1732
2683 1747 2228
2595 1702 2645
2532 1692 3026
2489 1656 3357
2495 1642 3700
2504 1914 328
2570 1992 712
2648 2069 1184
2747 2132 1635
2823 2226 2196
2632 2225 2708
2562 2224 3110
2535 2211 3468
2522 2187 3808
2417 2304 259
2483 2379 620
2541 2459 1119
2609 2535 1639
2686 2612 2147
2731 2712 2717
2651 2726 3121
2626 2719 3488
2609 2703 3849
2337 2688 154
2407 2766 509
2463 2837 983
2516 2923 1565
2557 3008 2135
2622 3108 2655
2739 3166 3044
2727 3155 3430
2688 3126 3785
2251 3037 97
2337 3123 437
2400 3195 910
2462 3276 1473
2512 3355 2060
2575 3438 2589
2721 3522 2999
2802 3561 3349
2760 3539 3705
2145 3341 69
2259 3427 373
2331 3511 846
2393 3590 1390
2455 3674 1993
2528 3757 2536
2684 3843 2947
2806 3911 3324
2890 3952 3665
3242 546 520
3251 537 957
3207 492 1355
3181 434 1750
3228 300 2164
3169 248 2578
3120 212 2958
3088 185 3319
3088 196 3695
3164 878 471
3241 933 909
3221 929 1340
3187 880 1757
3232 768 2173
3176 717 2606
3127 686 2987
3106 672 3354
3114 686 3729
3055 1190 422
3121 1257 820
3184 1324 1268
3168 1331 1732
3180 1249 2171
3172 1183 2617
3120 1172 3007
3089 1174 3370
3101 1187 3738
2975 1548 394
3041 1619 773
3110 1691 1204
3204 1797 1764
3163 1794 2228
3165 1706 2644
3100 1667 3016
3064 1659 3376
3072 1673 3749
2957 1957 372
3026 2033 740
3096 2112 1205
3172 2199 1750
3241 2304 2296
3219 2266 2733
3186 2215 3112
3137 2208 3484
3103 2181 3824
2905 2342 338
2978 2425 700
3044 2507 1163
3117 2593 1709
3197 2666 2198
3280 2756 2727
3214 2740 3167
3184 2740 3553
3158 2728 3942
2804 2690 195
2889 2779 547
2953 2855 1022
3023 2940 1582
3087 3023 2141
3167 3102 2649
3231 3196 3196
3188 3204 3590
3158 3182 3973
2715 3038 86
2802 3120 408
2875 3202 890
2945 3280 1417
3018 3366 2010
3079 3454 2589
3142 3544 3139
3216 3606 3517
3190 3597 3893
2643 3377 66
2739 3455 360
2812 3540 836
2872 3620 1373
2948 3713 1987
3009 3792 2544
3078 3879 3070
3179 3956 3468
3252 4004 3828
3687 621 589
3699 612 1041
3657 556 1427
3616 503 1810
3653 363 2191
3643 276 2608
3582 230 3002
3546 197 3359
3518 168 3700
3601 949 541
3672 1001 991
3672 989 1418
3639 940 1813
3642 854 2200
3655 744 2622
3602 711 3024
3566 688 3388
3544 661 3733
3492 1259 501
3553 1320 894
3616 1377 1332
3613 1375 1776
3592 1313 2188
3664 1197 2644
3623 1167 3052
3587 1149 3424
3567 1136 3769
3397 1601 460
3465 1666 833
3523 1721 1234
3590 1787 1738
3571 1784 2200
3600 1707 2625
3583 1665 3038
3545 1657 3408
3525 1652 3764
3340 1966 423
3405 2033 773
3468 2102 1172
3540 2177 1691
3639 2297 2268
3611 2270 2703
3603 2179 3087
3545 2143 3439
3512 2136 3798
3314 2377 376
3381 2447 707
3449 2523 1131
3526 2613 1694
3600 2699 2238
3671 2802 2788
3660 2765 3198
3643 2727 3560
3616 2723 3935
3232 2733 326
3307 2809 647
3377 2888 1089
3452 2974 1632
3528 3061 2183
3603 3142 2706
3682 3232 3223
3644 3201 3596
3633 3191 3981
3142 3048 139
3231 3131 446
3304 3214 922
3375 3296 1470
3448 3384 2069
3515 3463 2623
3593 3548 3123
3652 3626 3632
3630 3632 4019
3076 3383 62
3157 3463 354
3229 3550 841
3299 3629 1367
3377 3722 1979
3442 3802 2525
3513 3883 3051
3580 3963 3568
3637 4030 3947
3946 666 665
3961 637 1097
3945 580 1481
3927 517 1850
3971 401 2242
3995 295 2645
3975 249 3032
3944 206 3404
3917 170 3746
3870 988 595
3940 1037 1047
3952 1018 1466
3939 960 1856
3946 881 2239
4001 754 2652
3982 707 3052
3959 677 3427
3938 659 3765
3792 1303 550
3852 1356 944
3916 1410 1390
3931 1400 1817
3920 1332 2223
4003 1195 2667
3996 1157 3077
3977 1135 3459
3962 1125 3799
3721 1644 510
3781 1695 880
3836 1745 1274
3904 1802 1766
3913 1786 2222
3939 1701 2641
3966 1640 3066
3944 1627 3445
3923 1639 3794
3653 1989 463
3713 2045 814
3768 2102 1193
3831 2166 1665
3917 2260 2224
3913 2236 2663
3954 2151 3075
3931 2129 3455
3907 2129 3814
3620 2393 408
3686 2464 737
3745 2529 1105
3823 2613 1646
3906 2700 2217
3988 2796 2776
4000 2770 3202
4008 2707 3567
3980 2686 3914
3579 2763 365
3643 2831 673
3703 2901 1061
3781 2984 1589
3868 3079 2177
3942 3164 2719
4015 3263 3262
4018 3229 3618
4021 3196 3984
3525 3090 287
3591 3159 575
3659 3233 989
3736 3317 1526
3824 3410 2127
3898 3493 2671
3970 3576 3168
4039 3654 3658
4033 3630 4012
3478 3396 105
3546 3474 391
3619 3559 873
3689 3641 1409
3770 3732 2022
3842 3810 2571
3912 3885 3079
3989 3972 3577
4055 4041 4043
