src/luts/The_Ring_-_Rec709.3dl
# Created by Benjamin (IWLTBAP) : http://luts.iwltbap.com
# Copyright: (C) Copyright 2016 Triune Films and IWLTBAP
# Blockbuster LUTs Pack
0 256 512 768 1023
0 0 0
0 31 249
0 249 838
0 575 1545
0 942 2313
0 436 46
0 578 537
0 761 1154
0 1008 1833
0 1315 2589
0 1258 304
0 1411 808
0 1616 1520
0 1835 2275
0 2087 3055
0 2265 677
0 2385 1115
0 2614 1860
0 2851 2679
0 3111 3547
0 3385 1086
0 3489 1478
0 3733 2226
0 3994 3097
0 4095 4023
235 2 2
406 56 419
338 264 997
100 579 1678
100 944 2446
230 462 63
282 605 579
134 785 1217
100 1019 1903
100 1329 2665
100 1275 324
100 1425 826
100 1625 1539
100 1850 2307
100 2105 3106
100 2262 683
100 2391 1128
100 2628 1877
100 2871 2713
100 3118 3577
100 3387 1101
100 3503 1492
100 3734 2230
100 4006 3102
100 4095 4037
809 72 43
1068 145 583
1209 333 1235
1210 625 1939
960 982 2704
880 539 124
1065 676 678
1179 842 1361
1162 1070 2086
855 1365 2864
773 1331 381
861 1474 884
917 1675 1618
764 1891 2402
241 2134 3216
201 2305 726
201 2431 1166
201 2660 1923
201 2903 2769
201 3159 3646
201 3426 1133
201 3534 1525
201 3765 2266
201 4033 3152
201 4095 4083
1476 234 145
1780 322 731
2035 477 1461
2170 712 2213
2199 1043 3009
1559 667 248
1795 792 808
2026 948 1542
2156 1155 2304
2172 1433 3121
1620 1429 477
1767 1554 975
1953 1748 1731
2055 1961 2548
2052 2205 3399
1430 2377 799
1513 2495 1242
1630 2722 2004
1674 2958 2866
1572 3209 3763
301 3474 1188
327 3588 1580
323 3818 2320
301 4076 3222
301 4095 4095
2241 449 319
2558 536 895
2878 666 1664
3110 867 2474
3255 1159 3313
2313 839 393
2575 931 941
2886 1094 1723
3110 1287 2553
3255 1536 3400
2415 1548 594
2603 1674 1100
2867 1860 1873
3077 2067 2731
3197 2310 3617
2429 2476 900
2545 2593 1346
2748 2809 2117
2921 3045 2998
3021 3289 3921
2169 3559 1275
2241 3663 1667
2374 3892 2405
2487 4095 3324
2719 4095 4066
