src/luts/The_Grand_Budapest_Hotel_-_Rec709.3dl
# Created by Benjamin (IWLTBAP) : http://luts.iwltbap.com
# Copyright: (C) Copyright 2016 Triune Films and IWLTBAP
# Blockbuster LUTs Pack
0 128 256 384 512 640 768 896 1023
0 0 0
128 85 449
244 153 823
324 267 1212
403 423 1581
469 504 1942
514 519 2258
590 733 2546
628 822 2694
104 226 60
150 264 377
270 370 734
346 510 1100
444 658 1451
505 773 1770
565 869 2050
614 952 2289
627 983 2346
214 438 120
237 476 402
300 571 720
392 701 1073
477 826 1408
535 928 1706
593 1020 1982
639 1101 2213
659 1148 2275
342 695 191
363 736 457
400 801 744
468 927 1089
539 1043 1422
592 1130 1704
646 1214 1976
686 1281 2202
706 1317 2285
468 981 266
484 1017 531
506 1076 810
551 1161 1126
620 1267 1450
659 1346 1730
707 1423 2003
755 1485 2229
764 1498 2331
584 1251 338
605 1288 623
619 1344 896
652 1410 1190
689 1484 1487
730 1559 1765
778 1627 2035
816 1687 2274
820 1681 2392
689 1490 414
694 1529 706
713 1585 983
741 1634 1259
762 1690 1536
796 1749 1798
833 1808 2066
870 1866 2312
879 1866 2471
774 1688 483
764 1713 760
777 1771 1057
815 1821 1329
829 1869 1594
849 1909 1833
882 1970 2100
918 2013 2333
939 2036 2537
716 1633 433
733 1716 825
773 1794 1158
797 1854 1429
821 1904 1677
851 1966 1911
896 2041 2147
946 2120 2380
976 2172 2586
632 42 3
529 111 443
549 158 828
623 225 1233
684 282 1600
781 338 1982
887 388 2329
970 429 2654
947 446 2815
392 254 72
356 320 412
362 368 744
415 458 1098
498 586 1443
560 709 1749
616 813 2017
660 902 2217
661 966 2186
348 462 114
338 497 404
378 579 731
466 706 1087
551 836 1423
605 943 1716
662 1038 1970
699 1118 2169
712 1177 2211
423 698 168
442 750 464
475 822 768
544 954 1122
614 1073 1451
668 1167 1732
720 1252 1986
760 1323 2192
791 1392 2325
537 976 228
558 1037 535
582 1110 846
632 1202 1170
695 1310 1494
735 1392 1770
784 1471 2030
829 1538 2245
865 1609 2433
647 1251 321
677 1312 626
697 1388 940
735 1464 1251
766 1536 1543
815 1616 1821
859 1683 2075
891 1743 2301
935 1818 2535
750 1493 403
764 1546 691
787 1627 1026
820 1691 1323
845 1750 1602
880 1817 1871
918 1879 2123
961 1943 2363
1007 2024 2613
837 1693 479
835 1736 730
858 1824 1101
903 1889 1400
916 1944 1668
945 1994 1919
981 2063 2178
1030 2146 2438
1071 2219 2685
819 1720 471
832 1809 845
894 1934 1251
940 2034 1545
974 2118 1809
1013 2191 2067
1064 2280 2321
1098 2347 2553
1127 2400 2761
1199 75 0
1134 68 419
1031 181 853
1035 233 1267
1074 293 1660
1150 348 2043
1255 397 2382
1377 436 2697
1388 451 2849
912 321 52
923 391 412
839 465 811
771 508 1182
620 538 1486
631 622 1775
679 735 2036
716 863 2225
714 1003 2183
716 524 138
796 632 458
728 687 798
579 713 1119
632 848 1457
685 970 1755
742 1077 2011
777 1169 2202
806 1262 2327
696 776 164
748 872 461
620 880 762
639 991 1155
699 1126 1502
755 1227 1787
805 1320 2042
847 1395 2245
886 1489 2451
728 1051 205
743 1118 479
697 1164 838
729 1271 1218
779 1385 1551
828 1471 1833
877 1552 2091
916 1624 2311
968 1725 2566
803 1326 268
804 1377 525
803 1474 964
834 1559 1310
863 1627 1604
910 1711 1889
954 1783 2148
1000 1864 2399
1053 1965 2670
910 1596 353
897 1618 570
898 1743 1066
945 1817 1393
964 1881 1675
994 1938 1945
1037 2019 2217
1085 2103 2489
1137 2195 2759
983 1808 456
955 1812 620
980 1952 1137
1011 2022 1460
1032 2085 1740
1071 2156 2012
1118 2248 2290
1167 2334 2575
1201 2404 2833
986 1867 463
965 1945 785
1026 2117 1298
1082 2224 1610
1126 2313 1890
1162 2395 2168
1205 2470 2433
1240 2541 2683
1260 2590 2900
1776 98 26
1801 28 314
1645 174 880
1550 265 1306
1541 300 1698
1569 357 2099
1648 404 2437
1754 443 2743
1779 459 2896
1498 355 17
1510 460 374
1455 479 807
1341 574 1237
1279 620 1600
1206 654 1913
1072 692 2167
905 766 2314
793 1043 2265
1316 625 109
1453 727 416
1409 784 809
1310 888 1280
1211 950 1650
1009 980 1916
878 1062 2123
877 1207 2273
892 1323 2427
1208 896 238
1352 997 455
1372 1106 867
1256 1185 1301
1042 1200 1627
917 1266 1903
944 1381 2160
930 1463 2305
979 1568 2553
1275 1206 325
1360 1280 488
1338 1392 894
1119 1421 1263
977 1472 1628
995 1586 1961
1002 1656 2194
1011 1714 2402
1060 1817 2669
1359 1522 389
1427 1588 502
1327 1683 900
1094 1692 1277
1054 1782 1686
1074 1874 2017
1068 1908 2237
1116 1989 2508
1161 2090 2783
1441 1835 442
1488 1873 525
1341 1959 913
1158 1984 1357
1150 2070 1759
1121 2086 2033
1164 2170 2318
1202 2254 2601
1244 2329 2862
1527 2081 490
1539 2101 555
1344 2167 956
1226 2218 1463
1196 2265 1808
1215 2335 2106
1251 2413 2386
1293 2497 2682
1322 2561 2942
1688 2219 541
1576 2261 598
1342 2368 1188
1295 2451 1645
1263 2483 1954
1293 2565 2250
1320 2625 2518
1357 2694 2782
1385 2737 2997
2262 127 64
2293 67 266
2211 133 828
2042 292 1340
1985 333 1727
1979 362 2125
2005 410 2476
2085 449 2788
2110 465 2933
2082 405 12
2085 467 320
2051 417 720
1914 577 1272
1820 639 1635
1743 671 1950
1691 723 2245
1612 782 2451
1408 921 2604
1965 696 82
2070 757 302
2015 873 803
1941 917 1287
1834 1039 1716
1754 1108 2054
1681 1177 2357
1562 1249 2587
1257 1284 2763
1868 1022 189
1998 1087 341
2060 1207 860
1959 1272 1301
1869 1401 1790
1782 1475 2158
1655 1527 2453
1442 1543 2670
1221 1601 2830
1865 1358 371
1965 1408 456
2048 1531 874
2010 1663 1386
1917 1774 1849
1748 1809 2204
1545 1833 2493
1377 1860 2739
1290 1943 2901
1960 1701 500
2051 1767 588
2066 1857 921
2028 2017 1423
1890 2111 1846
1605 2125 2187
1446 2173 2515
1425 2238 2809
1383 2263 2982
2124 2077 609
2213 2128 690
2180 2207 939
2078 2342 1435
1835 2405 1824
1546 2412 2168
1504 2494 2549
1503 2549 2861
1459 2533 3043
2283 2377 689
2363 2420 764
2295 2494 979
2122 2634 1463
1808 2664 1803
1590 2676 2172
1583 2745 2574
1563 2782 2899
1536 2772 3109
2447 2527 734
2472 2631 813
2312 2766 1143
2085 2877 1611
1736 2841 1906
1646 2876 2300
1617 2919 2677
1611 2953 2973
1603 2957 3173
2710 177 90
2727 99 252
2707 110 746
2542 250 1337
2403 386 1756
2385 394 2152
2386 414 2505
2430 455 2821
2270 445 2811
2576 435 37
2570 408 281
2553 331 676
2438 464 1247
2278 609 1661
2211 626 1963
2141 648 2228
2053 718 2435
1975 911 2706
2527 740 61
2640 766 222
2580 914 780
2537 885 1203
2413 1064 1738
2314 1177 2103
2232 1235 2405
2155 1314 2683
2073 1409 2983
2488 1110 164
2628 1143 255
2719 1253 782
2601 1368 1293
2520 1406 1745
2432 1581 2222
2364 1656 2571
2281 1712 2887
2137 1779 3170
2500 1479 281
2626 1545 361
2780 1627 802
2770 1767 1360
2630 1845 1800
2571 1991 2327
2497 2081 2730
2379 2131 3068
2089 2128 3281
2560 1847 495
2707 1941 573
2803 1977 763
2849 2177 1409
2796 2329 1923
2705 2477 2420
2582 2561 2845
2385 2572 3170
2021 2506 3348
2704 2238 672
2845 2313 749
2898 2357 932
2898 2530 1449
2841 2709 1960
2737 2860 2443
2551 2923 2852
2303 2927 3193
1936 2840 3373
2847 2541 770
2974 2598 837
3026 2698 1047
2988 2874 1524
2915 3037 1999
2766 3155 2448
2495 3168 2820
2180 3149 3166
1899 3083 3379
2990 2694 803
3054 2810 894
3064 2966 1219
3036 3165 1747
2904 3274 2157
2724 3333 2531
2402 3305 2861
2048 3257 3178
1951 3251 3414
3070 242 102
3069 122 270
3075 107 720
2921 239 1322
2764 365 1781
2700 436 2184
2685 436 2537
2715 460 2850
2143 366 2300
2957 422 71
2917 300 257
2914 221 685
2775 332 1250
2625 439 1660
2523 514 1947
2483 524 2195
2413 533 2383
2423 831 2740
2996 780 61
3064 772 168
3010 920 755
2974 873 1148
2901 1006 1671
2789 1192 2115
2714 1296 2444
2668 1321 2737
2585 1436 3060
2989 1171 148
3075 1205 227
3201 1271 701
3111 1424 1279
3042 1405 1644
2984 1575 2189
2911 1735 2623
2847 1758 2955
2743 1843 3262
3020 1574 260
3111 1640 338
3309 1644 642
3343 1800 1283
3250 1942 1787
3175 1954 2204
3115 2171 2778
3020 2217 3146
2891 2283 3443
3098 1961 428
3211 2060 524
3352 2069 663
3473 2249 1324
3487 2405 1856
3403 2566 2382
3312 2652 2865
3220 2776 3344
3068 2809 3631
3189 2350 654
3297 2418 723
3430 2485 864
3514 2650 1374
3541 2834 1921
3517 3023 2488
3464 3185 3021
3336 3265 3467
3122 3248 3732
3280 2632 782
3367 2680 845
3454 2797 1011
3545 2973 1448
3555 3146 1968
3529 3330 2528
3479 3491 3047
3320 3557 3486
3076 3529 3760
3375 2797 822
3433 2898 907
3557 3085 1215
3607 3265 1706
3588 3425 2238
3545 3575 2721
3451 3675 3119
3225 3689 3476
2400 3485 3604
3396 375 118
3361 322 392
3366 258 781
3257 338 1360
3108 439 1852
2968 493 2248
2948 473 2611
2946 472 2881
2412 382 2339
3231 443 84
3157 319 254
3130 192 744
2974 307 1296
2831 406 1675
2708 497 1939
2667 504 2173
2655 509 2402
2715 743 2753
3302 805 64
3331 802 153
3259 924 745
3228 878 1132
3189 994 1629
3116 1166 2091
3034 1312 2465
3006 1360 2781
2976 1443 3097
3315 1222 144
3350 1271 219
3488 1285 649
3406 1460 1272
3364 1438 1618
3339 1548 2139
3264 1735 2635
3211 1811 2997
3166 1867 3302
3351 1639 261
3391 1707 338
3584 1696 627
3645 1832 1257
3582 1975 1760
3513 1981 2154
3480 2143 2734
3424 2297 3189
3362 2328 3489
3404 2028 409
3465 2114 504
3633 2173 677
3770 2327 1318
3819 2451 1816
3780 2589 2330
3657 2639 2766
3646 2855 3382
3575 2884 3688
3482 2399 616
3556 2467 694
3667 2581 861
3826 2773 1419
3887 2930 1923
3921 3080 2443
3934 3223 2973
3839 3328 3478
3750 3417 3859
3551 2682 762
3605 2754 850
3685 2868 1016
3826 3083 1566
3896 3272 2085
3936 3428 2567
3959 3578 3074
3939 3723 3593
3840 3771 3948
3617 2865 836
3642 2960 928
3763 3138 1255
3849 3340 1845
3906 3503 2303
3943 3638 2713
3953 3786 3200
3910 3891 3571
3585 3895 3929
3634 564 247
3572 605 573
3558 460 805
3501 492 1331
3338 586 1872
3027 486 2111
2592 401 1959
2595 402 2171
2604 405 2392
3319 424 93
3183 231 231
3100 204 928
2992 321 1393
2910 414 1716
2833 496 1969
2817 520 2222
2826 534 2451
2934 852 2825
3421 848 72
3431 876 158
3391 1004 833
3373 952 1204
3357 1050 1684
3299 1217 2146
3224 1362 2530
3201 1426 2833
3219 1534 3163
3449 1277 153
3479 1362 234
3653 1385 761
3584 1537 1332
3531 1505 1667
3518 1596 2163
3456 1801 2699
3410 1904 3052
3401 1948 3351
3493 1683 269
3537 1773 349
3764 1813 748
3817 1923 1333
3750 2048 1815
3681 2070 2213
3667 2212 2771
3618 2387 3249
3599 2427 3541
3566 2048 402
3629 2158 507
3795 2238 763
3914 2357 1368
3976 2504 1868
3962 2662 2379
3830 2722 2811
3831 2857 3390
3806 3001 3751
3653 2379 567
3674 2498 694
3794 2583 868
3926 2717 1387
4004 2877 1887
4044 3033 2410
4064 3221 2957
4052 3442 3555
4004 3499 3896
3664 2684 744
3672 2778 862
3760 2900 1041
3899 3084 1572
3982 3271 2091
4045 3450 2612
4074 3617 3135
4090 3754 3605
4064 3805 3995
3680 2886 845
3702 2989 938
3835 3191 1355
3918 3373 1910
3992 3547 2413
4052 3708 2865
4073 3821 3243
4080 3920 3553
4090 4053 4055
