src/luts/The_Grand_Budapest_Hotel_-_Rec709.3dl
# Created by Benjamin (IWLTBAP) : http://luts.iwltbap.com
# Copyright: (C) Copyright 2016 Triune Films and IWLTBAP
# Blockbuster LUTs Pack
0 64 128 192 256 320 384 448 512 576 640 704 768 832 896 960 1023
0 0 0
72 46 256
128 85 449
191 123 650
244 153 823
275 186 1010
324 267 1212
370 357 1406
403 423 1581
437 469 1767
469 504 1942
492 530 2101
514 519 2258
540 542 2406
590 733 2546
627 837 2643
628 822 2694
53 112 27
89 141 231
141 178 412
198 219 598
257 269 768
293 326 953
339 413 1155
386 502 1338
431 574 1516
468 640 1694
501 688 1852
535 748 2001
556 788 2138
576 814 2260
599 859 2366
611 880 2444
616 903 2435
104 226 60
110 236 210
150 264 377
201 311 561
270 370 734
309 430 906
346 510 1100
396 591 1279
444 658 1451
475 723 1621
505 773 1770
535 823 1918
565 869 2050
594 916 2176
614 952 2289
630 978 2365
627 983 2346
159 333 90
170 348 239
188 368 381
231 415 547
279 475 727
327 531 891
366 603 1082
413 675 1255
457 736 1419
486 800 1583
514 843 1725
547 896 1872
576 940 2005
604 983 2128
626 1020 2235
641 1048 2316
638 1059 2290
214 438 120
224 455 268
237 476 402
265 511 547
300 571 720
344 627 888
392 701 1073
436 768 1246
477 826 1408
508 883 1568
535 928 1706
564 975 1848
593 1020 1982
614 1059 2099
639 1101 2213
660 1130 2290
659 1148 2275
273 555 149
286 574 290
297 598 423
314 627 565
344 674 728
376 739 900
424 807 1074
470 871 1249
506 926 1409
534 977 1562
560 1022 1700
589 1069 1838
618 1114 1975
637 1150 2090
661 1189 2204
679 1215 2281
678 1229 2273
342 695 191
350 710 331
363 736 457
381 767 602
400 801 744
427 858 906
468 927 1089
504 988 1260
539 1043 1422
568 1090 1572
592 1130 1704
619 1173 1841
646 1214 1976
666 1250 2092
686 1281 2202
703 1308 2284
706 1317 2285
407 839 238
414 853 366
426 879 493
440 906 630
454 935 770
477 982 926
508 1044 1107
546 1104 1279
580 1157 1436
603 1202 1585
625 1238 1715
651 1280 1852
676 1319 1986
699 1350 2103
723 1383 2212
738 1409 2301
738 1410 2307
468 981 266
473 994 406
484 1017 531
498 1050 675
506 1076 810
523 1117 963
551 1161 1126
589 1219 1296
620 1267 1450
638 1310 1599
659 1346 1730
683 1386 1868
707 1423 2003
732 1455 2121
755 1485 2229
766 1504 2322
764 1498 2331
530 1120 309
538 1136 449
547 1158 577
554 1188 719
559 1214 852
576 1252 1003
603 1286 1153
629 1330 1313
654 1378 1468
671 1418 1615
692 1454 1746
717 1492 1885
741 1526 2019
766 1559 2142
786 1587 2250
797 1601 2339
793 1591 2361
584 1251 338
589 1266 488
605 1288 623
612 1316 761
619 1344 896
633 1378 1042
652 1410 1190
670 1446 1340
689 1484 1487
707 1525 1634
730 1559 1765
756 1596 1903
778 1627 2035
801 1661 2161
816 1687 2274
826 1699 2360
820 1681 2392
634 1374 374
644 1390 526
656 1414 664
659 1442 805
670 1471 939
686 1501 1082
699 1527 1225
714 1562 1374
725 1588 1510
743 1625 1651
765 1657 1782
787 1690 1922
809 1721 2051
830 1754 2178
843 1779 2294
852 1789 2385
848 1774 2433
689 1490 414
692 1500 550
694 1529 706
700 1554 844
713 1585 983
731 1612 1121
741 1634 1259
749 1665 1405
762 1690 1536
777 1716 1667
796 1749 1798
815 1785 1941
833 1808 2066
856 1844 2198
870 1866 2312
876 1868 2397
879 1866 2471
735 1592 449
728 1592 562
732 1625 733
736 1651 878
746 1683 1019
767 1710 1159
779 1732 1295
787 1761 1434
798 1785 1564
809 1805 1688
824 1833 1816
839 1866 1954
858 1893 2082
879 1921 2209
894 1940 2322
901 1942 2415
908 1949 2501
774 1688 483
758 1675 570
764 1713 760
766 1736 909
777 1771 1057
798 1796 1194
815 1821 1329
822 1846 1465
829 1869 1594
838 1887 1712
849 1909 1833
866 1944 1974
882 1970 2100
904 2000 2220
918 2013 2333
924 2014 2426
939 2036 2537
780 1724 488
764 1709 566
771 1752 775
776 1784 934
788 1816 1083
811 1845 1224
828 1870 1359
833 1894 1495
840 1917 1624
848 1934 1736
860 1955 1848
872 1980 1974
886 2004 2096
904 2026 2210
920 2046 2321
940 2072 2435
956 2098 2560
716 1633 433
718 1651 587
733 1716 825
745 1754 1001
773 1794 1158
786 1823 1302
797 1854 1429
808 1880 1558
821 1904 1677
833 1927 1787
851 1966 1911
872 2004 2036
896 2041 2147
920 2077 2259
946 2120 2380
963 2151 2483
976 2172 2586
356 14 4
301 55 245
306 91 438
340 124 647
379 155 821
404 188 1007
434 220 1205
470 249 1392
511 277 1573
552 307 1764
587 334 1953
640 358 2127
691 383 2297
728 404 2455
747 431 2623
740 464 2738
712 453 2775
231 120 31
272 175 248
256 201 425
276 231 602
312 256 775
335 281 957
368 317 1153
404 356 1326
436 435 1495
468 483 1669
498 520 1827
533 569 1976
569 645 2112
584 680 2235
601 714 2332
617 758 2399
623 854 2329
183 231 62
180 246 225
211 276 391
254 319 561
315 356 731
346 411 905
381 480 1094
426 557 1272
474 624 1441
506 692 1611
533 736 1750
562 790 1893
589 841 2023
615 884 2136
634 918 2234
647 953 2299
640 961 2233
212 339 87
222 355 242
236 371 385
277 418 550
320 465 721
367 523 894
400 589 1076
446 666 1251
493 728 1414
522 794 1580
548 842 1719
578 890 1855
607 935 1982
632 975 2093
652 1011 2192
664 1039 2258
650 1052 2190
264 444 115
273 461 263
286 484 405
311 519 555
339 570 725
384 630 895
429 700 1078
472 765 1250
514 826 1412
543 885 1571
569 933 1704
598 980 1838
627 1026 1966
646 1063 2075
663 1096 2171
680 1130 2238
674 1145 2196
319 560 144
329 580 294
340 602 425
357 632 572
384 679 738
415 742 909
462 811 1085
507 875 1256
542 932 1416
570 986 1570
595 1030 1701
625 1078 1836
652 1122 1962
670 1161 2074
688 1191 2170
703 1220 2240
701 1240 2214
381 692 181
391 714 335
404 740 465
419 768 608
436 806 757
465 867 922
505 934 1102
540 995 1274
574 1050 1432
604 1100 1584
628 1141 1714
657 1187 1848
681 1227 1969
699 1261 2083
718 1290 2179
732 1317 2251
739 1340 2255
437 826 218
448 852 366
460 879 498
475 907 641
489 942 783
512 988 942
543 1052 1122
581 1111 1292
614 1165 1448
637 1211 1598
662 1253 1730
687 1294 1861
710 1332 1986
733 1365 2097
754 1395 2197
769 1421 2275
776 1443 2310
497 965 243
505 991 394
515 1016 537
530 1050 683
540 1081 823
559 1123 983
587 1170 1143
624 1226 1310
654 1277 1466
672 1321 1614
694 1362 1746
720 1402 1880
742 1439 2007
764 1467 2115
786 1497 2220
799 1520 2303
809 1543 2357
554 1102 280
567 1129 439
578 1158 581
586 1190 727
594 1223 870
611 1260 1025
639 1298 1176
663 1341 1330
687 1389 1485
707 1436 1637
729 1472 1767
755 1509 1900
777 1543 2025
798 1574 2138
818 1602 2244
829 1621 2326
843 1648 2409
608 1233 323
615 1259 474
635 1288 626
643 1319 772
652 1352 915
666 1387 1067
687 1423 1215
704 1457 1362
722 1496 1510
744 1542 1659
767 1575 1788
791 1609 1919
812 1641 2043
833 1672 2159
848 1701 2270
857 1716 2355
874 1745 2452
656 1357 361
667 1377 499
683 1408 662
686 1439 812
700 1474 960
717 1506 1107
732 1538 1254
744 1568 1397
757 1598 1533
778 1638 1679
800 1671 1806
821 1704 1942
842 1734 2064
861 1764 2182
872 1790 2289
883 1803 2379
907 1844 2496
707 1469 397
711 1478 512
718 1516 696
726 1550 852
740 1583 999
761 1615 1146
771 1642 1287
777 1668 1426
791 1695 1558
810 1728 1697
830 1762 1830
848 1796 1962
868 1824 2085
886 1853 2201
899 1874 2308
916 1897 2413
941 1936 2534
754 1572 435
744 1562 507
754 1610 723
761 1646 886
774 1682 1036
798 1712 1184
807 1738 1323
816 1766 1459
828 1792 1591
843 1819 1721
860 1852 1850
873 1881 1984
892 1909 2104
909 1932 2219
928 1957 2329
950 1988 2448
972 2025 2566
789 1660 466
772 1636 500
785 1696 748
790 1732 917
804 1769 1074
828 1799 1220
844 1827 1360
850 1854 1495
859 1877 1624
872 1902 1748
885 1930 1876
900 1960 2004
917 1986 2127
936 2010 2240
960 2045 2361
979 2079 2479
1000 2116 2601
800 1705 476
783 1680 505
794 1744 769
801 1784 944
820 1824 1111
845 1854 1260
860 1884 1396
864 1908 1529
875 1936 1659
886 1957 1778
902 1986 1905
918 2018 2031
941 2058 2157
965 2095 2277
987 2134 2405
1004 2163 2517
1021 2193 2627
755 1656 442
756 1669 554
770 1741 842
794 1800 1049
822 1835 1210
837 1874 1364
853 1915 1495
874 1961 1629
894 2000 1753
918 2041 1879
941 2083 2007
960 2129 2135
985 2172 2248
1006 2205 2362
1024 2238 2471
1037 2266 2575
1049 2283 2674
632 42 3
592 56 238
529 111 443
536 129 643
549 158 828
580 192 1026
623 225 1233
653 254 1417
684 282 1600
731 312 1794
781 338 1982
835 363 2158
887 388 2329
931 408 2485
970 429 2654
972 444 2777
947 446 2815
503 159 32
513 197 239
463 237 428
449 264 617
454 281 794
453 294 980
461 303 1165
475 327 1334
497 351 1505
514 375 1667
541 402 1826
563 452 1978
590 507 2114
627 562 2240
641 595 2335
641 664 2386
647 824 2282
392 254 72
401 302 251
356 320 412
334 338 581
362 368 744
386 402 917
415 458 1098
455 524 1271
498 586 1443
531 651 1607
560 709 1749
589 761 1887
616 813 2017
638 856 2121
660 902 2217
671 941 2273
661 966 2186
350 357 92
351 398 254
298 392 388
325 430 560
361 473 729
404 524 902
435 584 1082
479 655 1256
528 725 1423
555 788 1584
582 839 1722
610 890 1856
639 939 1982
667 981 2093
683 1020 2182
692 1051 2239
679 1072 2174
348 462 114
339 481 256
338 497 404
354 527 557
378 579 731
423 639 908
466 706 1087
509 772 1261
551 836 1423
579 894 1582
605 943 1716
635 993 1847
662 1038 1970
682 1080 2080
699 1118 2169
712 1148 2233
712 1177 2211
372 571 135
383 593 283
387 613 430
400 643 577
424 692 747
456 759 925
503 827 1101
547 891 1275
582 950 1435
609 1006 1587
634 1051 1716
664 1100 1850
690 1143 1971
708 1185 2082
726 1219 2178
740 1251 2245
750 1284 2264
423 698 168
433 723 322
442 750 464
459 785 614
475 822 768
508 887 939
544 954 1122
579 1015 1294
614 1073 1451
644 1124 1603
668 1167 1732
696 1210 1863
720 1252 1986
738 1287 2094
760 1323 2192
775 1353 2264
791 1392 2325
479 837 199
486 861 355
496 890 497
516 926 649
530 964 798
554 1015 966
586 1079 1146
625 1140 1318
656 1193 1474
679 1241 1621
703 1282 1752
728 1324 1883
751 1363 2007
774 1397 2116
798 1432 2217
810 1459 2297
825 1499 2380
537 976 228
544 1006 385
558 1037 535
570 1071 693
582 1110 846
601 1153 1008
632 1202 1170
669 1259 1340
695 1310 1494
713 1355 1641
735 1392 1770
762 1435 1904
784 1471 2030
809 1505 2142
829 1538 2245
841 1562 2329
865 1609 2433
593 1117 274
606 1145 421
618 1179 586
628 1215 741
639 1254 893
657 1292 1052
685 1334 1207
708 1378 1365
729 1426 1517
751 1473 1667
775 1508 1795
799 1544 1927
824 1582 2054
845 1614 2169
862 1645 2274
875 1669 2363
900 1717 2488
647 1251 321
652 1272 441
677 1312 626
686 1349 785
697 1388 940
714 1425 1096
735 1464 1251
750 1497 1397
766 1536 1543
790 1580 1689
815 1616 1821
838 1650 1953
859 1683 2075
878 1715 2191
891 1743 2301
908 1773 2407
935 1818 2535
697 1374 359
699 1384 442
721 1431 658
730 1475 829
747 1513 985
766 1547 1140
778 1579 1289
789 1610 1432
803 1642 1570
826 1680 1711
847 1715 1846
867 1749 1976
888 1780 2100
905 1812 2218
923 1841 2330
947 1879 2448
972 1921 2574
750 1493 403
745 1487 449
764 1546 691
772 1587 864
787 1627 1026
813 1663 1179
820 1691 1323
832 1722 1466
845 1750 1602
864 1782 1737
880 1817 1871
897 1849 2000
918 1879 2123
937 1909 2242
961 1943 2363
986 1981 2488
1007 2024 2613
802 1605 447
788 1587 480
802 1645 712
811 1692 898
826 1733 1064
851 1766 1218
866 1796 1362
874 1826 1501
884 1851 1635
899 1879 1763
913 1909 1892
929 1940 2025
950 1973 2150
972 2005 2271
998 2045 2403
1018 2080 2525
1040 2123 2646
837 1693 479
823 1675 510
835 1736 730
842 1781 930
858 1824 1101
884 1858 1258
903 1889 1400
907 1915 1535
916 1944 1668
929 1968 1793
945 1994 1919
962 2027 2051
981 2063 2178
1007 2108 2310
1030 2146 2438
1048 2180 2565
1071 2219 2685
852 1747 494
837 1728 519
844 1784 741
856 1841 960
876 1884 1142
902 1921 1296
919 1950 1436
925 1981 1574
933 2009 1704
951 2040 1832
972 2070 1959
990 2116 2091
1014 2159 2219
1042 2205 2351
1062 2241 2478
1076 2272 2598
1099 2308 2719
819 1720 471
810 1710 498
832 1809 845
854 1873 1068
894 1934 1251
925 1989 1406
940 2034 1545
954 2078 1681
974 2118 1809
997 2154 1936
1013 2191 2067
1039 2238 2194
1064 2280 2321
1085 2315 2435
1098 2347 2553
1110 2374 2657
1127 2400 2761
935 63 0
915 43 181
841 111 456
796 145 666
788 160 840
798 196 1044
823 230 1252
855 260 1445
887 288 1631
931 318 1827
976 343 2013
1027 368 2186
1084 393 2358
1131 411 2513
1187 433 2678
1214 448 2801
1186 449 2838
780 181 12
766 236 210
724 248 426
692 287 625
684 305 812
661 326 990
655 333 1179
654 338 1349
665 355 1518
671 366 1682
688 384 1835
697 409 1984
722 430 2120
743 457 2247
746 500 2349
712 576 2399
