src/luts/Tron_-_Rec709.3dl
# Created by Benjamin (IWLTBAP) : http://luts.iwltbap.com
# Copyright: (C) Copyright 2016 Triune Films and IWLTBAP
# Blockbuster LUTs Pack
0 128 256 384 512 640 768 896 1023
0 0 0
32 46 555
1 24 976
2 59 1368
5 75 1717
10 71 2087
14 83 2488
17 100 2874
21 93 3157
11 258 43
0 326 544
0 385 1057
0 409 1542
0 424 2049
0 416 2556
12 342 2982
40 323 3301
33 370 3502
1 519 101
0 650 565
0 763 1094
0 813 1589
0 857 2107
0 869 2596
0 837 3023
2 808 3319
0 838 3489
0 860 208
0 999 607
0 1166 1129
0 1263 1652
0 1330 2167
0 1359 2654
0 1354 3040
0 1317 3325
0 1340 3493
5 1275 297
0 1414 685
0 1582 1190
0 1716 1682
0 1806 2221
0 1846 2694
0 1850 3093
0 1797 3330
0 1822 3498
12 1775 367
5 1910 772
0 2065 1266
0 2204 1763
0 2312 2246
0 2378 2750
0 2395 3132
0 2314 3365
0 2318 3525
21 2287 471
15 2380 821
6 2504 1269
0 2634 1735
0 2784 2294
0 2877 2784
0 2906 3171
0 2814 3391
0 2785 3541
30 2729 530
25 2797 872
18 2873 1238
8 2985 1707
0 3119 2225
0 3249 2772
0 3310 3213
0 3243 3431
0 3203 3561
39 3051 667
34 3088 859
28 3150 1214
20 3221 1592
6 3354 2170
0 3477 2710
0 3578 3201
0 3561 3478
0 3542 3610
337 91 38
359 71 602
193 40 1066
113 88 1507
83 100 1998
76 116 2507
102 119 2929
175 108 3187
213 113 3397
280 309 79
172 344 542
92 383 1065
64 412 1554
54 435 2062
52 421 2562
67 336 2986
100 348 3314
81 372 3496
144 564 85
89 653 533
55 779 1089
51 842 1607
51 885 2130
51 904 2619
51 870 3037
54 839 3324
51 832 3495
57 900 184
51 1008 571
51 1211 1118
51 1330 1670
51 1398 2197
51 1422 2682
51 1411 3062
51 1364 3341
51 1356 3507
61 1316 250
52 1446 659
51 1644 1178
51 1802 1687
51 1903 2246
51 1939 2723
51 1941 3121
51 1859 3351
51 1870 3514
69 1833 306
62 1966 734
52 2129 1230
51 2273 1737
51 2410 2251
51 2481 2782
51 2486 3157
51 2382 3390
51 2373 3538
78 2351 416
73 2455 791
64 2563 1215
54 2697 1691
51 2853 2274
51 2970 2788
51 3001 3194
51 2887 3409
51 2846 3549
88 2792 504
84 2853 819
76 2915 1176
67 3009 1624
53 3151 2175
51 3291 2754
51 3373 3222
51 3300 3453
51 3262 3582
98 3092 657
98 3134 847
86 3180 1162
77 3243 1548
64 3361 2106
51 3486 2663
51 3597 3186
51 3584 3487
51 3563 3621
724 181 144
857 107 550
759 43 1165
478 72 1581
246 94 2028
168 118 2524
274 112 2935
469 124 3263
337 125 3443
704 384 73
779 416 493
589 372 1080
291 380 1573
142 421 2070
105 400 2566
135 317 2989
204 354 3313
159 366 3491
634 664 121
572 699 543
284 751 1059
110 804 1606
103 869 2138
103 886 2632
103 855 3045
113 823 3334
103 808 3505
446 1011 159
306 1052 569
114 1156 1052
103 1295 1651
103 1393 2206
103 1413 2690
103 1400 3071
103 1344 3356
103 1324 3518
206 1406 201
137 1454 613
103 1572 1074
103 1798 1657
103 1932 2251
103 1965 2738
103 1964 3132
103 1875 3367
103 1850 3523
146 1891 217
128 1959 637
108 2083 1125
103 2295 1688
103 2462 2254
103 2542 2797
103 2542 3171
103 2449 3417
103 2403 3560
154 2398 277
142 2474 718
124 2570 1121
110 2734 1644
103 2897 2244
103 3030 2782
103 3072 3206
103 2973 3445
103 2907 3570
166 2833 412
158 2886 730
139 2948 1115
124 3027 1553
109 3169 2127
103 3312 2722
103 3407 3221
103 3363 3482
103 3323 3610
188 3133 511
188 3172 805
168 3215 1111
133 3278 1564
119 3370 2061
103 3493 2610
103 3615 3182
103 3616 3504
103 3591 3636
1215 219 204
1292 135 452
1450 35 1158
1224 64 1646
929 92 2130
503 112 2535
606 102 2932
768 124 3265
631 126 3446
1285 445 50
1364 499 524
1423 399 1038
1112 397 1639
818 366 2137
357 360 2582
359 300 2992
503 365 3311
431 364 3485
1252 748 103
1351 819 491
1270 839 1003
902 816 1639
477 815 2184
188 845 2658
173 838 3058
221 796 3345
170 777 3519
1202 1145 216
1124 1180 608
949 1226 1102
539 1285 1633
214 1322 2216
154 1386 2706
154 1382 3087
155 1310 3377
155 1279 3535
1072 1574 248
917 1599 646
663 1644 1123
261 1752 1613
156 1882 2229
154 1963 2758
154 1959 3141
154 1852 3388
154 1809 3544
719 2061 228
477 2094 658
259 2133 1138
182 2251 1614
154 2445 2210
154 2553 2808
154 2546 3180
154 2452 3440
154 2385 3573
456 2559 298
322 2593 688
244 2638 1122
178 2729 1577
154 2900 2192
154 3042 2781
154 3091 3216
154 3054 3478
154 2975 3606
319 2957 375
302 2986 690
265 3030 1120
199 3064 1487
166 3177 2057
154 3319 2714
154 3437 3219
154 3432 3515
154 3395 3642
379 3219 418
365 3246 746
335 3285 1109
258 3320 1514
180 3373 1966
158 3505 2575
154 3633 3173
154 3658 3527
154 3632 3656
1735 287 317
1736 173 450
1940 113 1017
1958 76 1639
1727 79 2153
1491 90 2629
1270 103 2993
1119 130 3280
1003 138 3460
1908 519 125
1985 587 590
2010 440 870
1931 390 1649
1688 353 2192
1435 336 2682
1170 330 3041
1026 369 3312
986 360 3488
1906 839 84
2176 904 460
1892 950 1025
1895 852 1592
1577 859 2234
1292 820 2735
906 772 3111
624 765 3359
606 752 3532
1896 1216 166
1923 1288 565
1881 1367 1044
1802 1384 1581
1366 1362 2261
914 1346 2805
435 1294 3178
267 1272 3403
301 1225 3556
1851 1684 260
1791 1736 670
1643 1774 1168
1461 1839 1688
854 1902 2238
294 1930 2820
217 1902 3201
209 1824 3421
206 1763 3578
1786 2223 311
1659 2251 685
1445 2271 1170
1086 2327 1665
372 2439 2191
217 2549 2812
206 2543 3224
206 2446 3468
206 2356 3596
1687 2726 333
1533 2754 690
1160 2777 1191
649 2812 1662
255 2920 2176
209 3065 2759
206 3124 3237
206 3085 3503
206 2992 3632
1612 3099 383
1487 3129 755
1267 3156 1210
879 3181 1648
298 3226 2070
209 3347 2663
206 3467 3220
206 3503 3551
206 3467 3681
1487 3329 496
1383 3349 795
1262 3383 1183
1182 3417 1566
555 3430 1965
220 3506 2495
206 3657 3164
206 3705 3555
206 3679 3682
2295 350 416
2254 265 554
2365 185 936
2530 87 1587
2464 75 2157
2236 96 2658
2042 123 3041
1991 137 3318
1605 152 3476
2518 589 266
2655 686 690
2573 521 846
2666 451 1512
2452 390 2200
2236 360 2709
2076 321 3091
2014 305 3351
1667 320 3503
2591 935 174
2996 984 446
2619 1099 1090
2608 917 1413
2435 904 2231
2195 866 2770
1996 818 3152
1890 786 3397
1544 728 3545
2606 1317 108
2873 1418 476
2900 1500 1021
2534 1516 1580
2476 1414 2179
2128 1411 2827
1896 1344 3210
1717 1262 3449
1235 1176 3584
2608 1754 179
2600 1809 598
2572 1905 1126
2546 2006 1647
2444 2017 2174
1913 2008 2866
1531 1951 3275
1187 1819 3508
548 1701 3624
2595 2326 326
2553 2371 693
2437 2428 1230
2281 2474 1731
2046 2548 2294
1542 2631 2834
888 2606 3282
751 2487 3541
270 2333 3642
2655 2878 368
2598 2914 767
2439 2939 1259
2231 2970 1737
1914 3025 2281
1146 3121 2793
441 3185 3273
570 3162 3569
279 3025 3683
2654 3234 551
2615 3267 872
2505 3299 1340
2312 3324 1808
2008 3351 2279
1068 3418 2742
435 3515 3230
900 3573 3593
267 3538 3730
2536 3443 567
2538 3465 855
2501 3492 1230
2430 3521 1633
2226 3549 2083
1353 3566 2527
1056 3707 3184
401 3767 3588
260 3741 3723
2908 443 518
2827 322 661
2870 227 917
3032 209 1491
3137 122 2139
3022 89 2673
2794 107 3055
2703 133 3329
2523 128 3489
3114 720 403
3260 814 796
3151 699 962
3209 559 1358
3272 446 2127
3065 329 2719
2852 293 3105
2725 372 3365
2550 323 3519
3281 1057 190
3502 1121 630
3350 1225 1144
3291 1037 1341
3291 1008 2062
3082 938 2768
2871 852 3159
2722 845 3408
2558 755 3554
3307 1456 131
3616 1525 425
3639 1579 952
3331 1703 1646
3272 1489 1956
3130 1499 2810
2888 1428 3213
2703 1370 3459
2543 1258 3594
3332 1872 125
3504 2000 485
3550 2101 1072
3578 2184 1616
3267 2194 2191
3193 2056 2783
2870 2039 3276
2692 1937 3522
2506 1794 3651
3354 2402 232
3348 2433 594
3315 2514 1168
3294 2621 1713
3274 2733 2252
3163 2752 2790
2720 2702 3318
2621 2592 3577
2397 2431 3717
3369 2950 471
3359 2991 805
3289 3045 1326
3198 3105 1852
3035 3156 2381
2830 3218 2908
2540 3279 3315
2663 3249 3605
2397 3145 3755
3365 3307 571
3379 3352 889
3357 3408 1373
3271 3444 1849
3088 3480 2341
2834 3522 2884
2604 3578 3290
2962 3649 3622
2616 3622 3771
3307 3547 664
3311 3572 971
3295 3600 1370
3257 3631 1800
3164 3660 2210
2923 3684 2654
2974 3777 3263
2846 3831 3611
1775 3822 3775
3483 562 619
3402 458 775
3384 364 967
3471 292 1414
3601 176 2042
3658 118 2667
3557 134 3071
3432 200 3336
3261 137 3481
3618 869 547
3718 950 896
3625 839 1063
3619 684 1313
3724 632 1952
3751 494 2689
3624 458 3109
3476 500 3363
3317 404 3497
3803 1180 285
3858 1277 798
3792 1370 1238
3731 1248 1451
3745 1086 1871
3800 1051 2689
3661 977 3163
3465 967 3418
3319 825 3539
3841 1588 204
3956 1707 581
3949 1744 1105
3861 1843 1682
3769 1599 1857
3823 1605 2647
3691 1530 3211
3476 1482 3464
3351 1340 3593
3855 2049 96
3962 2188 479
3982 2246 999
3988 2289 1561
3874 2403 2255
3814 2129 2548
3732 2120 3254
3499 2051 3509
3398 1929 3644
3873 2498 208
3941 2594 614
3965 2686 1128
3978 2780 1655
3983 2867 2204
3834 2912 2819
3788 2736 3270
3566 2700 3571
3510 2583 3709
3880 3005 445
3900 3032 732
3897 3073 1221
3874 3147 1775
3854 3252 2335
3843 3350 2867
3756 3365 3300
3587 3324 3612
3532 3226 3761
3881 3357 551
3895 3395 877
3894 3439 1344
3868 3494 1890
3805 3563 2451
3700 3624 2955
3579 3672 3379
3705 3718 3658
3679 3682 3801
3845 3585 684
3854 3614 988
3861 3654 1402
3853 3700 1900
3832 3758 2383
3716 3792 2787
3784 3875 3330
3786 3924 3688
3579 3917 3827
3901 689 722
3846 583 887
3805 524 1103
3824 355 1397
3892 373 1949
3947 338 2603
3947 251 3091
3916 272 3368
3848 226 3496
3959 1035 674
3944 1137 1051
3913 1042 1235
3890 897 1456
3926 843 1931
3963 771 2591
3962 576 3113
3922 587 3396
3872 476 3527
4025 1374 486
4009 1472 985
3983 1633 1488
3946 1467 1647
3947 1309 1955
3977 1296 2593
3980 1136 3145
3926 1118 3435
3882 986 3565
4043 1812 343
4048 1898 829
4035 1997 1428
4005 2157 1997
3967 1893 2093
3986 1832 2605
3995 1713 3172
3936 1608 3472
3891 1527 3606
4060 2245 278
4065 2324 791
4066 2414 1322
4056 2533 1952
4014 2678 2529
3989 2387 2640
4012 2341 3216
3956 2138 3524
3922 2074 3657
4074 2678 366
4079 2753 776
4080 2847 1340
4078 2947 1909
4069 3079 2526
4030 3157 3047
4017 2951 3223
3972 2787 3570
3953 2684 3715
4081 3093 477
4085 3146 881
4087 3214 1413
4086 3286 1956
4079 3378 2540
4063 3478 3079
4034 3519 3429
4007 3394 3634
3980 3291 3776
4083 3417 599
4088 3458 986
4090 3505 1452
4090 3555 1966
4084 3618 2516
4067 3699 3046
4039 3762 3459
4033 3800 3739
4026 3750 3879
4084 3638 710
4087 3669 1033
4088 3709 1443
4089 3760 1948
4085 3821 2494
4069 3883 2999
4069 3958 3470
4075 4036 3845
4087 4068 4050
