src/luts/Tron_-_Rec709.3dl
# Created by Benjamin (IWLTBAP) : http://luts.iwltbap.com
# Copyright: (C) Copyright 2016 Triune Films and IWLTBAP
# Blockbuster LUTs Pack
0 64 128 192 256 320 384 448 512 576 640 704 768 832 896 960 1023
0 0 0
19 17 323
32 46 555
16 40 771
1 24 976
2 43 1173
2 59 1368
4 67 1547
5 75 1717
8 82 1894
10 71 2087
12 72 2286
14 83 2488
15 91 2692
17 100 2874
19 98 3030
21 93 3157
4 141 9
2 176 311
2 198 548
1 213 800
0 224 1049
0 232 1293
0 238 1532
1 236 1772
2 241 2027
2 233 2244
6 234 2446
8 225 2646
12 200 2838
17 188 3006
26 162 3160
37 160 3290
43 168 3392
11 258 43
0 297 315
0 326 544
0 363 800
0 385 1057
0 396 1303
0 409 1542
0 414 1786
0 424 2049
0 427 2306
0 416 2556
1 376 2788
12 342 2982
26 316 3151
40 323 3301
42 374 3419
33 370 3502
9 381 74
2 435 317
0 486 564
0 536 825
0 565 1075
0 581 1314
0 605 1553
0 625 1802
0 642 2071
0 643 2332
0 627 2580
0 597 2810
2 577 3003
12 567 3166
17 560 3318
2 579 3403
2 593 3493
1 519 101
0 584 320
0 650 565
0 717 833
0 763 1094
0 788 1342
0 813 1589
0 834 1843
0 857 2107
0 871 2352
0 869 2596
0 857 2832
0 837 3023
1 822 3179
2 808 3319
0 821 3401
0 838 3489
0 677 147
0 746 353
0 817 581
0 893 845
0 962 1116
0 1003 1378
0 1038 1628
0 1067 1882
0 1089 2147
0 1107 2391
0 1119 2621
0 1120 2840
0 1096 3033
0 1073 3193
0 1066 3325
0 1082 3405
0 1100 3492
0 860 208
0 923 392
0 999 607
0 1088 872
0 1166 1129
0 1224 1397
0 1263 1652
0 1300 1900
0 1330 2167
0 1347 2417
0 1359 2654
0 1366 2869
0 1354 3040
0 1328 3197
0 1317 3325
0 1325 3406
0 1340 3493
2 1065 258
0 1127 431
0 1199 641
0 1283 883
0 1370 1156
0 1440 1405
0 1493 1672
0 1533 1928
0 1569 2190
0 1592 2437
0 1607 2679
0 1613 2897
0 1595 3069
0 1570 3205
0 1555 3325
0 1558 3406
0 1574 3492
5 1275 297
1 1337 469
0 1414 685
0 1495 924
0 1582 1190
0 1656 1439
0 1716 1682
0 1762 1947
0 1806 2221
0 1831 2461
0 1846 2694
0 1860 2916
0 1850 3093
0 1807 3218
0 1797 3330
0 1803 3414
0 1822 3498
8 1512 325
5 1574 508
0 1653 726
0 1737 977
0 1819 1231
0 1897 1491
0 1961 1719
0 2012 1958
0 2061 2239
0 2097 2487
0 2117 2718
0 2128 2930
0 2127 3113
0 2088 3244
0 2058 3346
0 2056 3430
0 2076 3511
12 1775 367
9 1831 545
5 1910 772
0 1987 1002
0 2065 1266
0 2135 1511
0 2204 1763
0 2264 1997
0 2312 2246
0 2352 2511
0 2378 2750
0 2392 2960
0 2395 3132
0 2362 3270
0 2314 3365
0 2300 3445
0 2318 3525
17 2040 427
14 2088 591
10 2150 802
5 2215 1023
1 2288 1264
0 2355 1506
0 2422 1757
0 2494 2030
0 2555 2274
0 2598 2521
0 2631 2774
0 2648 2980
0 2651 3157
0 2625 3285
0 2569 3381
0 2540 3454
0 2557 3535
21 2287 471
19 2330 637
15 2380 821
11 2437 1037
6 2504 1269
1 2570 1495
0 2634 1735
0 2709 2011
0 2784 2294
0 2840 2535
0 2877 2784
0 2899 3004
0 2906 3171
0 2886 3300
0 2814 3391
0 2769 3461
0 2785 3541
26 2528 499
24 2566 666
20 2610 853
17 2653 1034
12 2707 1263
7 2769 1497
2 2828 1720
0 2896 1982
0 2971 2269
0 3037 2534
0 3089 2790
0 3121 3021
0 3126 3193
0 3117 3322
0 3044 3405
0 2993 3466
0 3008 3544
30 2729 530
28 2759 686
25 2797 872
22 2835 1052
18 2873 1238
13 2926 1469
8 2985 1707
2 3050 1953
0 3119 2225
0 3186 2505
0 3249 2772
0 3293 3021
0 3310 3213
0 3306 3346
0 3243 3431
0 3188 3484
0 3203 3561
34 2904 592
32 2926 700
30 2953 854
27 2988 1049
23 3021 1227
19 3058 1416
14 3109 1648
8 3179 1924
2 3248 2181
0 3312 2452
0 3379 2749
0 3433 3001
0 3463 3217
0 3464 3366
0 3422 3459
0 3384 3522
0 3397 3593
39 3051 667
37 3066 751
34 3088 859
31 3116 1020
28 3150 1214
24 3185 1401
20 3221 1592
14 3283 1872
6 3354 2170
0 3414 2425
0 3477 2710
0 3537 2977
0 3578 3201
0 3585 3376
0 3561 3478
0 3534 3542
0 3542 3610
177 30 14
189 40 345
140 58 585
93 38 822
68 40 1051
51 67 1273
50 88 1498
37 96 1731
39 101 1981
40 93 2181
42 95 2365
44 108 2553
47 110 2745
52 109 2914
58 101 3056
65 98 3185
74 100 3292
143 165 17
88 191 309
75 209 548
66 215 797
55 219 1049
40 230 1296
34 241 1537
28 239 1779
29 245 2037
30 240 2285
34 242 2528
41 208 2757
54 191 2959
76 176 3131
91 178 3266
103 208 3388
111 221 3482
106 281 60
69 312 313
60 340 543
45 366 799
34 390 1059
28 404 1310
28 420 1551
26 428 1794
26 440 2058
26 443 2313
26 427 2560
27 383 2791
38 344 2986
54 321 3155
69 345 3315
52 363 3407
52 371 3497
67 404 78
59 449 305
41 501 554
30 542 810
26 577 1067
26 600 1318
26 625 1564
26 646 1819
26 664 2090
26 666 2345
26 652 2588
26 627 2818
26 608 3009
34 595 3169
40 583 3319
27 589 3405
28 590 3495
59 536 90
56 594 307
38 658 547
31 724 821
26 772 1087
26 808 1349
26 834 1601
26 857 1855
26 880 2122
26 894 2366
26 898 2611
26 890 2844
26 868 3033
26 851 3187
27 839 3321
26 843 3404
26 841 3492
32 700 141
30 760 340
28 830 559
26 905 831
26 975 1110
26 1026 1382
26 1065 1642
26 1095 1893
26 1118 2160
26 1134 2402
26 1145 2633
26 1149 2852
26 1125 3044
26 1103 3202
26 1097 3332
26 1106 3410
26 1116 3497
27 884 204
26 945 387
26 1019 596
26 1100 849
26 1181 1118
26 1247 1393
26 1295 1663
26 1331 1915
26 1363 2184
26 1378 2434
26 1390 2670
26 1397 2883
26 1380 3053
26 1358 3207
26 1344 3335
26 1343 3415
26 1358 3501
30 1092 251
26 1153 428
26 1223 635
26 1304 873
26 1396 1151
26 1470 1403
26 1530 1678
26 1570 1941
26 1604 2208
26 1625 2455
26 1638 2696
26 1642 2912
26 1623 3082
26 1595 3214
26 1578 3332
26 1576 3414
26 1594 3499
33 1310 284
29 1373 470
26 1443 677
26 1523 916
26 1609 1177
26 1695 1446
26 1760 1685
26 1811 1960
26 1853 2237
26 1878 2475
26 1891 2710
26 1901 2931
26 1892 3109
26 1850 3234
26 1826 3340
26 1830 3422
26 1850 3506
37 1563 315
33 1620 506
28 1694 727
26 1774 966
26 1854 1224
26 1934 1478
26 2005 1724
26 2064 1963
26 2114 2247
26 2152 2504
26 2167 2737
26 2175 2945
26 2173 3127
26 2138 3261
26 2092 3356
26 2083 3438
26 2103 3517
41 1827 345
38 1879 532
33 1949 761
28 2019 986
26 2097 1250
26 2168 1494
26 2241 1751
26 2309 2001
26 2362 2250
26 2405 2521
26 2428 2767
26 2441 2977
26 2440 3146
26 2408 3283
26 2347 3376
26 2328 3451
26 2345 3530
45 2087 420
43 2132 584
39 2184 780
34 2247 1005
28 2317 1239
26 2386 1488
26 2454 1737
26 2532 2021
26 2600 2282
26 2650 2526
26 2685 2786
26 2701 2996
26 2703 3169
26 2673 3296
26 2603 3389
26 2569 3460
26 2587 3540
50 2333 465
48 2372 629
44 2419 807
40 2471 1013
35 2533 1244
29 2601 1476
26 2665 1715
26 2742 1993
26 2820 2288
26 2880 2539
26 2924 2786
26 2947 3014
26 2954 3183
26 2934 3311
26 2849 3399
26 2800 3466
26 2816 3545
54 2567 489
53 2604 649
49 2643 835
46 2684 1016
41 2731 1232
36 2790 1471
31 2851 1701
26 2919 1961
26 2994 2253
26 3063 2527
26 3121 2791
26 3155 3024
26 3166 3203
26 3149 3333
26 3075 3414
26 3019 3472
26 3034 3549
58 2762 529
57 2791 670
54 2823 845
51 2858 1032
47 2894 1208
42 2941 1433
37 2997 1671
31 3068 1932
26 3136 2204
26 3204 2486
26 3271 2765
26 3322 3019
26 3341 3218
26 3328 3354
26 3269 3441
26 3215 3494
26 3231 3570
62 2926 582
61 2947 687
59 2972 823
56 3004 1011
52 3036 1199
48 3071 1386
43 3117 1606
37 3186 1888
29 3258 2161
26 3321 2430
26 3390 2734
26 3448 2992
26 3482 3215
26 3478 3371
26 3440 3466
26 3406 3530
26 3417 3600
66 3066 659
66 3085 745
64 3107 848
60 3133 994
57 3163 1184
52 3197 1384
48 3232 1572
42 3288 1841
35 3357 2142
27 3419 2406
26 3482 2690
26 3545 2967
26 3587 3194
26 3593 3378
26 3572 3482
26 3545 3547
26 3552 3615
337 91 38
395 62 321
359 71 602
289 43 850
193 40 1066
130 70 1285
113 88 1507
85 94 1738
83 100 1998
75 98 2256
76 116 2507
85 115 2742
102 119 2929
129 111 3062
175 108 3187
203 111 3300
213 113 3397
305 199 37
340 214 279
281 215 553
176 209 801
123 213 1052
89 220 1298
75 233 1542
62 231 1782
63 239 2038
59 236 2285
63 236 2528
68 200 2760
84 185 2966
116 175 3138
150 199 3297
115 210 3391
124 214 3473
280 309 79
244 327 315
172 344 542
114 358 800
92 383 1065
70 394 1315
64 412 1554
58 420 1798
54 435 2062
52 438 2316
52 421 2562
54 374 2792
67 336 2986
83 317 3156
100 348 3314
81 365 3407
81 372 3496
197 434 90
171 463 312
97 500 547
69 535 802
55 572 1065
55 598 1318
52 622 1569
52 643 1828
52 659 2099
51 660 2350
51 646 2591
51 624 2821
53 604 3012
62 590 3172
68 579 3321
54 585 3407
54 586 3497
144 564 85
126 604 307
89 653 533
68 724 813
55 779 1089
55 817 1351
51 842 1607
51 865 1862
51 885 2130
51 899 2375
51 904 2619
51 894 2850
51 870 3037
51 852 3190
54 839 3324
51 835 3406
51 832 3495
80 719 123
70 764 329
65 820 533
56 908 819
52 993 1115
52 1046 1388
51 1087 1649
51 1116 1901
51 1140 2168
51 1155 2409
51 1164 2641
51 1167 2860
51 1143 3051
51 1119 3208
51 1112 3336
51 1109 3414
51 1106 3500
57 900 184
52 945 370
51 1008 571
51 1111 835
51 1211 1118
51 1278 1396
51 1330 1670
51 1367 1926
51 1398 2197
51 1414 2445
51 1422 2682
51 1427 2892
51 1411 3062
51 1386 3212
51 1364 3341
51 1357 3422
51 1356 3507
59 1104 230
53 1151 409
51 1220 614
51 1320 864
51 1424 1147
51 1501 1405
51 1565 1679
51 1609 1951
51 1642 2220
51 1661 2467
51 1675 2708
51 1681 2924
51 1660 3094
51 1629 3221
51 1608 3337
51 1598 3423
51 1605 3508
61 1316 250
56 1369 446
52 1446 659
51 1550 912
51 1644 1178
51 1734 1450
51 1802 1687
51 1860 1965
51 1903 2246
51 1930 2487
51 1939 2723
51 1947 2942
51 1941 3121
51 1900 3246
51 1859 3351
51 1850 3432
51 1870 3514
64 1567 283
61 1620 472
56 1705 707
52 1808 958
51 1891 1222
51 1968 1467
51 2044 1722
51 2108 1960
51 2163 2250
51 2202 2518
51 2219 2752
51 2222 2957
51 2218 3139
51 2183 3274
51 2121 3369
51 2107 3446
51 2126 3525
69 1833 306
66 1888 492
62 1966 734
56 2053 976
52 2129 1230
51 2200 1482
51 2273 1737
51 2347 1999
51 2410 2251
51 2455 2529
51 2481 2782
51 2493 2992
51 2486 3157
51 2454 3293
51 2382 3390
51 2353 3459
51 2373 3538
73 2096 365
71 2148 549
67 2211 751
63 2280 981
57 2347 1214
52 2418 1463
51 2487 1715
51 2568 2005
51 2644 2284
51 2698 2525
51 2739 2792
51 2755 3009
51 2754 3180
51 2719 3307
51 2641 3400
51 2597 3468
51 2613 3548
78 2351 416
77 2402 598
73 2455 791
69 2505 983
64 2563 1215
59 2630 1450
54 2697 1691
51 2773 1972
51 2853 2274
51 2919 2538
51 2970 2788
51 2998 3023
51 3001 3194
51 2974 3324
51 2887 3409
51 2830 3471
51 2846 3549
83 2592 446
81 2637 627
79 2675 810
75 2712 994
71 2755 1189
66 2809 1433
60 2871 1668
54 2941 1938
51 3016 2231
51 3087 2514
51 3150 2786
51 3190 3025
51 3204 3214
51 3177 3343
51 3107 3425
51 3044 3480
51 3060 3557
88 2792 504
86 2824 653
84 2853 819
80 2883 999
76 2915 1176
72 2956 1381
67 3009 1624
60 3081 1897
53 3151 2175
51 3220 2463
51 3291 2754
51 3347 3015
51 3373 3222
51 3351 3362
51 3300 3453
51 3244 3506
51 3262 3582
93 2954 574
92 2977 681
89 2996 799
85 3025 979
82 3055 1164
77 3087 1355
72 3127 1558
66 3192 1844
58 3265 2132
52 3329 2408
51 3399 2715
51 3460 2979
51 3499 3213
51 3493 3376
51 3459 3474
51 3424 3538
51 3435 3607
98 3092 657
100 3113 747
98 3134 847
92 3155 973
86 3180 1162
82 3211 1358
77 3243 1548
71 3293 1799
64 3361 2106
55 3424 2381
51 3486 2663
51 3551 2953
51 3597 3186
51 3603 3379
51 3584 3487
51 3556 3553
51 3563 3621
521 144 96
564 107 279
610 81 599
559 49 885
459 45 1115
291 70 1313
205 86 1522
172 92 1753
150 97 2011
128 99 2267
111 117 2515
119 115 2747
147 120 2940
258 114 3106
347 123 3264
265 126 3361
255 127 3448
503 238 61
568 258 280
579 221 547
464 212 834
333 201 1082
191 207 1311
129 226 1545
112 225 1784
105 233 2038
98 229 2286
92 228 2528
98 193 2762
117 181 2968
181 177 3135
243 205 3293
173 211 3385
