src/luts/Tron_-_Rec709.3dl
# Created by Benjamin (IWLTBAP) : http://luts.iwltbap.com
# Copyright: (C) Copyright 2016 Triune Films and IWLTBAP
# Blockbuster LUTs Pack
0 256 512 768 1023
0 0 0
1 24 976
5 75 1717
14 83 2488
21 93 3157
1 519 101
0 763 1094
0 857 2107
0 837 3023
0 838 3489
5 1275 297
0 1582 1190
0 1806 2221
0 1850 3093
0 1822 3498
21 2287 471
6 2504 1269
0 2784 2294
0 2906 3171
0 2785 3541
39 3051 667
28 3150 1214
6 3354 2170
0 3578 3201
0 3542 3610
724 181 144
759 43 1165
246 94 2028
274 112 2935
337 125 3443
634 664 121
284 751 1059
103 869 2138
103 855 3045
103 808 3505
206 1406 201
103 1572 1074
103 1932 2251
103 1964 3132
103 1850 3523
154 2398 277
124 2570 1121
103 2897 2244
103 3072 3206
103 2907 3570
188 3133 511
168 3215 1111
119 3370 2061
103 3615 3182
103 3591 3636
1735 287 317
1940 113 1017
1727 79 2153
1270 103 2993
1003 138 3460
1906 839 84
1892 950 1025
1577 859 2234
906 772 3111
606 752 3532
1851 1684 260
1643 1774 1168
854 1902 2238
217 1902 3201
206 1763 3578
1687 2726 333
1160 2777 1191
255 2920 2176
206 3124 3237
206 2992 3632
1487 3329 496
1262 3383 1183
555 3430 1965
206 3657 3164
206 3679 3682
2908 443 518
2870 227 917
3137 122 2139
2794 107 3055
2523 128 3489
3281 1057 190
3350 1225 1144
3291 1008 2062
2871 852 3159
2558 755 3554
3332 1872 125
3550 2101 1072
3267 2194 2191
2870 2039 3276
2506 1794 3651
3369 2950 471
3289 3045 1326
3035 3156 2381
2540 3279 3315
2397 3145 3755
3307 3547 664
3295 3600 1370
3164 3660 2210
2974 3777 3263
1775 3822 3775
3901 689 722
3805 524 1103
3892 373 1949
3947 251 3091
3848 226 3496
4025 1374 486
3983 1633 1488
3947 1309 1955
3980 1136 3145
3882 986 3565
4060 2245 278
4066 2414 1322
4014 2678 2529
4012 2341 3216
3922 2074 3657
4081 3093 477
4087 3214 1413
4079 3378 2540
4034 3519 3429
3980 3291 3776
4084 3638 710
4088 3709 1443
4085 3821 2494
4069 3958 3470
4087 4068 4050
